;FLAVOR:UltiGCode
;TIME:1858
;MATERIAL:2029
;MATERIAL2:0
;NOZZLE_DIAMETER:0.4
;MINX:40.622
;MINY:33.68
;MINZ:0.3
;MAXX:80.479
;MAXY:84.024
;MAXZ:7
;Generated with Cura_SteamEngine 4.7.1
M82 ;absolute extrusion mode
G0 F3000 Y50 ;avoid prime blob
G92 E0
G92 E0
G10
;LAYER_COUNT:68
;LAYER:0
M107
G0 F3600 X43.044 Y35.153 Z0.3
;TYPE:SKIRT
G11
G1 F1800 X43.391 Y34.745 E0.06427
G1 X43.796 Y34.392 E0.12874
G1 X44.248 Y34.104 E0.19306
G1 X44.738 Y33.886 E0.25741
G1 X45.255 Y33.744 E0.32175
G1 X45.787 Y33.68 E0.38605
G1 X46.324 Y33.695 E0.45052
G1 X46.851 Y33.79 E0.51478
G1 X47.223 Y33.908 E0.56161
G1 X48.316 Y34.321 E0.70182
G1 X50.911 Y35.261 E1.03302
G1 X53.488 Y36.112 E1.35868
G1 X56.122 Y36.901 E1.68864
G1 X58.734 Y37.604 E2.01323
G1 X61.362 Y38.232 E2.33747
G1 X64.037 Y38.792 E2.66543
G1 X66.725 Y39.275 E2.99316
G1 X69.435 Y39.684 E3.32204
G1 X72.13 Y40.012 E3.64783
G1 X76.211 Y40.366 E4.13939
G1 X76.991 Y40.417 E4.23319
G1 X77.523 Y40.491 E4.29764
G1 X78.037 Y40.644 E4.362
G1 X78.522 Y40.872 E4.42631
G1 X78.969 Y41.169 E4.49071
G1 X79.366 Y41.529 E4.55502
G1 X79.706 Y41.944 E4.6194
G1 X79.98 Y42.405 E4.68375
G1 X80.182 Y42.901 E4.74802
G1 X80.309 Y43.422 E4.81237
G1 X80.411 Y44.204 E4.907
G1 X80.456 Y44.754 E4.97322
G1 X80.479 Y45.442 E5.05583
G1 X80.472 Y45.865 E5.1066
G1 X80.434 Y46.736 E5.21122
G1 X80.323 Y48.712 E5.44871
G1 X80.247 Y51.476 E5.78051
G1 X80.249 Y54.209 E6.10847
G1 X80.326 Y56.878 E6.42889
G1 X80.454 Y59.239 E6.71262
G1 X80.476 Y59.784 E6.77808
G1 X80.472 Y60.381 E6.84972
G1 X80.421 Y61.567 E6.99217
G1 X80.341 Y64.359 E7.32735
G1 X80.341 Y67.056 E7.65099
G1 X80.418 Y69.811 E7.98172
G1 X80.43 Y70.062 E8.01187
G1 X80.476 Y71.173 E8.14531
G1 X80.475 Y71.698 E8.20831
G1 X80.452 Y72.243 E8.27376
G1 X80.404 Y72.791 E8.33978
G1 X80.331 Y73.365 E8.40921
G1 X80.238 Y73.876 E8.47154
G1 X80.109 Y74.468 E8.54424
G1 X79.87 Y75.302 E8.64835
G1 X79.682 Y75.839 E8.71663
G1 X79.474 Y76.364 E8.78439
G1 X79.266 Y76.823 E8.84486
G1 X79.028 Y77.304 E8.90926
G1 X78.777 Y77.753 E8.97099
G1 X78.435 Y78.312 E9.04963
G1 X77.926 Y79.033 E9.15554
G1 X77.58 Y79.469 E9.22233
G1 X77.15 Y79.963 E9.30092
G1 X76.523 Y80.597 E9.40792
G1 X76.103 Y80.973 E9.47557
G1 X75.614 Y81.374 E9.55146
G1 X74.907 Y81.886 E9.65621
G1 X74.411 Y82.201 E9.72671
G1 X73.843 Y82.527 E9.8053
G1 X73.146 Y82.873 E9.89868
G1 X72.642 Y83.09 E9.96453
G1 X72.139 Y83.284 E10.02922
G1 X71.622 Y83.456 E10.09461
G1 X71.118 Y83.603 E10.15761
G1 X70.608 Y83.726 E10.22056
G1 X70.043 Y83.838 E10.28968
G1 X69.541 Y83.912 E10.35057
G1 X69.004 Y83.974 E10.41544
G1 X68.471 Y84.009 E10.47954
G1 X67.847 Y84.024 E10.55444
G1 X67.021 Y83.994 E10.65362
G1 X66.426 Y83.938 E10.72534
G1 X65.786 Y83.847 E10.80291
G1 X64.955 Y83.678 E10.90467
G1 X64.445 Y83.543 E10.96798
G1 X63.933 Y83.387 E11.03221
G1 X63.449 Y83.215 E11.09385
G1 X62.958 Y83.018 E11.15733
G1 X62.448 Y82.786 E11.22457
G1 X61.931 Y82.525 E11.29407
G1 X61.477 Y82.268 E11.35667
G1 X61.037 Y81.997 E11.41868
G1 X60.413 Y81.578 E11.50888
G1 X59.984 Y81.276 E11.57183
G1 X42.659 Y68.966 E14.1222
G1 X42.098 Y68.556 E14.20558
G1 X41.69 Y68.208 E14.26993
G1 X41.338 Y67.803 E14.33432
G1 X41.05 Y67.351 E14.39864
G1 X40.832 Y66.861 E14.46299
G1 X40.69 Y66.344 E14.52733
G1 X40.626 Y65.811 E14.59175
G1 X40.627 Y65.466 E14.63315
G1 X40.655 Y64.905 E14.70055
G1 X40.759 Y62.117 E15.03535
G1 X40.783 Y59.383 E15.36344
G1 X40.729 Y56.696 E15.68594
G1 X40.639 Y54.814 E15.91204
G1 X40.622 Y54.244 E15.98047
G1 X40.627 Y54.023 E16.007
G1 X40.666 Y53.278 E16.09652
G1 X40.754 Y51.928 E16.25887
G1 X40.856 Y49.164 E16.59077
G1 X40.879 Y46.427 E16.91922
G1 X40.825 Y43.736 E17.24221
G1 X40.694 Y40.985 E17.5727
G1 X40.629 Y39.941 E17.69822
G1 X40.636 Y39.405 E17.76255
G1 X40.731 Y38.837 E17.83166
G1 X40.9 Y38.328 E17.89602
G1 X41.229 Y37.713 E17.97971
G1 X41.476 Y37.344 E18.033
G1 X42.609 Y35.748 E18.26787
G1 X43.044 Y35.153 E18.35632
G0 F3600 X43.367 Y35.389
G1 F1800 X43.696 Y35.005 E18.41699
G1 X44.082 Y34.679 E18.47762
G1 X44.514 Y34.417 E18.53825
G1 X44.983 Y34.226 E18.59902
G1 X45.475 Y34.112 E18.65963
G1 X45.979 Y34.076 E18.72026
G1 X46.483 Y34.121 E18.78098
G1 X47.081 Y34.282 E18.8553
G1 X48.156 Y34.688 E18.99319
G1 X50.797 Y35.644 E19.33023
G1 X53.343 Y36.486 E19.65203
G1 X56.018 Y37.287 E19.98711
G1 X58.643 Y37.993 E20.3133
G1 X61.293 Y38.626 E20.64025
G1 X63.951 Y39.183 E20.96614
G1 X66.7 Y39.676 E21.30128
G1 X69.359 Y40.077 E21.62397
G1 X72.107 Y40.412 E21.95617
G1 X76.149 Y40.763 E22.44304
G1 X76.965 Y40.816 E22.54116
G1 X77.466 Y40.888 E22.6019
G1 X77.948 Y41.039 E22.66251
G1 X78.401 Y41.264 E22.72321
G1 X78.813 Y41.557 E22.78388
G1 X79.174 Y41.911 E22.84455
G1 X79.474 Y42.318 E22.90522
G1 X79.706 Y42.767 E22.96587
G1 X79.865 Y43.247 E23.02655
G1 X79.966 Y43.863 E23.10145
G1 X80.026 Y44.368 E23.16248
G1 X80.076 Y45.268 E23.27065
G1 X80.072 Y45.848 E23.34025
G1 X80.035 Y46.714 E23.44426
G1 X79.923 Y48.715 E23.68476
G1 X79.847 Y51.465 E24.01489
G1 X79.849 Y54.185 E24.34129
G1 X79.93 Y56.97 E24.67563
G1 X80.039 Y59.007 E24.92042
G1 X80.054 Y59.255 E24.95023
G1 X80.076 Y59.8 E25.01568
G1 X80.072 Y60.364 E25.08337
G1 X80.021 Y61.556 E25.22654
G1 X79.941 Y64.348 E25.56171
G1 X79.941 Y67.068 E25.88811
G1 X80.019 Y69.842 E26.22113
G1 X80.076 Y71.19 E26.38303
G1 X80.075 Y71.693 E26.44339
G1 X80.053 Y72.225 E26.50729
G1 X80.006 Y72.753 E26.5709
G1 X79.936 Y73.302 E26.63731
G1 X79.766 Y74.183 E26.74498
G1 X79.63 Y74.709 E26.81017
G1 X79.432 Y75.354 E26.89114
G1 X79.144 Y76.116 E26.98889
G1 X78.907 Y76.646 E27.05856
G1 X78.674 Y77.117 E27.12162
G1 X78.206 Y77.927 E27.23388
G1 X77.91 Y78.37 E27.29781
G1 X77.602 Y78.799 E27.36119
G1 X77.276 Y79.209 E27.42404
G1 X76.861 Y79.686 E27.49991
G1 X76.242 Y80.312 E27.60556
G1 X75.846 Y80.666 E27.6693
G1 X75.375 Y81.054 E27.74252
G1 X74.677 Y81.559 E27.84591
G1 X74.208 Y81.856 E27.91252
G1 X73.66 Y82.171 E27.98837
G1 X72.973 Y82.512 E28.08041
G1 X72.49 Y82.72 E28.14352
G1 X71.995 Y82.911 E28.20719
G1 X71.5 Y83.076 E28.2698
G1 X71.008 Y83.218 E28.33125
G1 X70.518 Y83.336 E28.39173
G1 X69.977 Y83.443 E28.45791
G1 X69.06 Y83.566 E28.56893
G1 X68.545 Y83.605 E28.63091
G1 X68.024 Y83.623 E28.69347
G1 X67.514 Y83.617 E28.75467
G1 X66.893 Y83.584 E28.8293
G1 X66.038 Y83.483 E28.93261
G1 X65.458 Y83.377 E29.00336
G1 X64.866 Y83.245 E29.07615
G1 X64.051 Y83.005 E29.1781
G1 X63.501 Y82.806 E29.24829
G1 X62.951 Y82.579 E29.31969
G1 X62.2 Y82.214 E29.41989
G1 X61.686 Y81.927 E29.49053
G1 X61.253 Y81.661 E29.55151
G1 X60.641 Y81.249 E29.64004
G1 X60.216 Y80.95 E29.7024
G1 X42.895 Y68.643 E32.25216
G1 X42.334 Y68.233 E32.33555
G1 X41.95 Y67.903 E32.39631
G1 X41.624 Y67.517 E32.45693
G1 X41.362 Y67.085 E32.51756
G1 X41.172 Y66.616 E32.57829
G1 X41.057 Y66.124 E32.63892
G1 X41.026 Y65.487 E32.71545
G1 X41.057 Y64.877 E32.78874
G1 X41.158 Y62.135 E33.11801
G1 X41.183 Y59.383 E33.44826
G1 X41.129 Y56.668 E33.77412
G1 X41.039 Y54.801 E33.99842
G1 X41.022 Y54.244 E34.0653
G1 X41.026 Y54.044 E34.0893
G1 X41.065 Y53.304 E34.17822
G1 X41.154 Y51.934 E34.34297
G1 X41.255 Y49.181 E34.67355
G1 X41.279 Y46.427 E35.00404
G1 X41.225 Y43.709 E35.33027
G1 X41.096 Y41.011 E35.6544
G1 X41.028 Y39.916 E35.78605
G1 X41.037 Y39.411 E35.84666
G1 X41.12 Y38.934 E35.90476
G1 X41.281 Y38.455 E35.9654
G1 X41.561 Y37.935 E36.03627
G1 X41.803 Y37.576 E36.08823
G1 X42.961 Y35.945 E36.32826
G1 X43.367 Y35.389 E36.41088
G10
;MESH:foot_2.stl(2)
G0 F3600 X74.217 Y45.173
G0 X75.297 Y45.129
G0 X76.275 Y45.182
;TYPE:WALL-INNER
G11
G1 F1800 X76.276 Y45.183 E36.41104
G1 X76.288 Y45.389 E36.43581
G1 X76.267 Y46.09 E36.51996
G1 X76.191 Y46.767 E36.60171
G1 X76.054 Y47.465 E36.68707
G1 X75.865 Y48.128 E36.7698
G1 X75.619 Y48.779 E36.85331
G1 X75.317 Y49.411 E36.93737
G1 X74.965 Y50.017 E37.02147
G1 X74.568 Y50.584 E37.10453
G1 X74.111 Y51.134 E37.19034
G1 X73.633 Y51.621 E37.27222
G1 X73.106 Y52.075 E37.35569
G1 X72.537 Y52.488 E37.44006
G1 X71.945 Y52.847 E37.52315
G1 X71.322 Y53.158 E37.6067
G1 X70.665 Y53.418 E37.69149
G1 X69.997 Y53.622 E37.77531
G1 X69.326 Y53.768 E37.85771
G1 X68.639 Y53.857 E37.94084
G1 X67.93 Y53.891 E38.02602
G1 X67.234 Y53.865 E38.1096
G1 X66.542 Y53.783 E38.19322
G1 X65.862 Y53.644 E38.2765
G1 X65.19 Y53.447 E38.36054
G1 X64.541 Y53.196 E38.44404
G1 X63.909 Y52.889 E38.52835
G1 X63.309 Y52.533 E38.61207
G1 X62.623 Y52.055 E38.71241
G1 X45.048 Y39.568 E41.29953
G1 X45.975 Y38.263 E41.49162
G1 X46.09 Y38.1 E41.51556
G1 X46.253 Y38.215 E41.53101
G1 X55.869 Y45.048 E42.94659
G1 X56.41 Y45.616 E43.04072
G1 X57.007 Y46.22 E43.14263
G1 X57.612 Y46.815 E43.24446
G1 X58.229 Y47.399 E43.34641
G1 X58.854 Y47.972 E43.44815
G1 X59.488 Y48.536 E43.54998
G1 X60.133 Y49.089 E43.65193
G1 X60.787 Y49.63 E43.75379
G1 X61.448 Y50.161 E43.85553
G1 X62.12 Y50.681 E43.95749
G1 X62.815 Y51.201 E44.06165
G1 X63.503 Y51.698 E44.1635
G1 X64.082 Y52.071 E44.24615
G1 X64.704 Y52.393 E44.3302
G1 X65.36 Y52.66 E44.41519
G1 X66.039 Y52.862 E44.5002
G1 X66.733 Y53.004 E44.58521
G1 X67.437 Y53.078 E44.67015
G1 X68.143 Y53.089 E44.75488
G1 X68.853 Y53.033 E44.84035
G1 X69.55 Y52.909 E44.9253
G1 X70.232 Y52.723 E45.01013
G1 X70.897 Y52.474 E45.09534
G1 X71.533 Y52.162 E45.18035
G1 X72.138 Y51.795 E45.26526
G1 X72.706 Y51.371 E45.35032
G1 X73.233 Y50.897 E45.43537
G1 X73.712 Y50.377 E45.52021
G1 X74.142 Y49.814 E45.60522
G1 X74.516 Y49.211 E45.69037
G1 X74.834 Y48.578 E45.77538
G1 X75.091 Y47.919 E45.86026
G1 X75.286 Y47.237 E45.94538
G1 X75.416 Y46.541 E46.03034
G1 X75.481 Y45.835 E46.11542
G1 X75.481 Y45.247 E46.18598
G1 X75.994 Y45.012 E46.25369
G1 X76.26 Y44.89 E46.28881
G1 X76.275 Y45.182 E46.30936
G0 F3600 X74.377 Y49.129
G0 X73.586 Y50.277
G0 X72.611 Y51.241
G0 X71.456 Y52.022
G0 X70.423 Y52.467
G0 X68.824 Y52.935
G0 X68.802 Y52.636
;TYPE:WALL-OUTER
G1 F1800 X69.462 Y52.518 E46.38981
G1 X70.109 Y52.342 E46.47028
G1 X70.738 Y52.106 E46.55089
G1 X71.341 Y51.811 E46.63145
G1 X71.914 Y51.463 E46.7119
G1 X72.452 Y51.061 E46.79249
G1 X72.951 Y50.612 E46.87304
G1 X73.405 Y50.119 E46.95346
G1 X73.813 Y49.586 E47.03401
G1 X74.167 Y49.016 E47.11453
G1 X74.468 Y48.415 E47.19519
G1 X74.712 Y47.791 E47.27559
G1 X74.896 Y47.145 E47.35619
G1 X75.019 Y46.486 E47.43664
G1 X75.081 Y45.817 E47.51726
G1 X75.081 Y45.149 E47.59742
G1 X75.07 Y44.995 E47.61595
G1 X76.465 Y44.357 E47.80003
G1 X76.506 Y44.338 E47.80545
G1 X76.601 Y44.294 E47.81801
G1 X76.647 Y44.644 E47.84656
G1 X76.649 Y44.689 E47.85161
G1 X76.688 Y45.391 E47.93598
G1 X76.667 Y46.111 E48.02241
G1 X76.584 Y46.844 E48.11094
G1 X76.444 Y47.558 E48.19825
G1 X76.247 Y48.25 E48.28459
G1 X75.988 Y48.934 E48.37236
G1 X75.67 Y49.601 E48.46103
G1 X75.303 Y50.232 E48.54862
G1 X74.883 Y50.832 E48.63651
G1 X74.416 Y51.394 E48.72419
G1 X73.903 Y51.916 E48.81202
G1 X73.351 Y52.392 E48.89949
G1 X72.763 Y52.818 E48.98662
G1 X72.133 Y53.2 E49.07503
G1 X71.484 Y53.524 E49.16208
G1 X70.796 Y53.797 E49.2509
G1 X70.102 Y54.009 E49.33798
G1 X69.393 Y54.163 E49.42504
G1 X68.672 Y54.256 E49.51228
G1 X67.934 Y54.292 E49.60094
G1 X67.209 Y54.265 E49.688
G1 X66.475 Y54.178 E49.7767
G1 X65.763 Y54.032 E49.86392
G1 X65.067 Y53.828 E49.95095
G1 X64.376 Y53.561 E50.03985
G1 X63.723 Y53.244 E50.12695
G1 X63.091 Y52.869 E50.21514
G1 X62.394 Y52.383 E50.3171
G1 X44.491 Y39.663 E52.95251
G1 X45.881 Y37.705 E53.24065
G1 X45.996 Y37.542 E53.26459
G1 X46.159 Y37.657 E53.28005
G1 X56.13 Y44.743 E54.74794
G1 X56.697 Y45.337 E54.84648
G1 X57.289 Y45.937 E54.94763
G1 X57.89 Y46.527 E55.04869
G1 X58.502 Y47.106 E55.14979
G1 X59.122 Y47.675 E55.25077
G1 X59.751 Y48.235 E55.35183
G1 X60.391 Y48.783 E55.45294
G1 X61.04 Y49.32 E55.55402
G1 X61.696 Y49.847 E55.655
G1 X62.362 Y50.363 E55.7561
G1 X63.052 Y50.879 E55.85949
G1 X63.728 Y51.367 E55.95954
G1 X64.283 Y51.724 E56.03873
G1 X64.872 Y52.029 E56.11832
G1 X65.493 Y52.282 E56.19879
G1 X66.136 Y52.474 E56.27931
G1 X66.794 Y52.608 E56.3599
G1 X67.461 Y52.678 E56.44038
G1 X68.131 Y52.689 E56.52079
G1 X68.802 Y52.636 E56.60156
G0 F3600 X68.999 Y52.601
G0 X69.251 Y53.385
;TYPE:SKIN
G1 F1800 X68.619 Y53.467 E56.67803
G1 X67.925 Y53.501 E56.76141
G1 X67.271 Y53.475 E56.83995
G1 X66.594 Y53.395 E56.92176
G1 X65.952 Y53.265 E57.00036
G1 X65.325 Y53.081 E57.07878
G1 X64.693 Y52.836 E57.16012
G1 X64.09 Y52.543 E57.24057
G1 X63.523 Y52.207 E57.31965
G1 X62.848 Y51.736 E57.41842
G1 X45.592 Y39.476 E59.95856
G1 X46.182 Y38.644 E60.08096
G1 X55.611 Y45.344 E61.469
G1 X56.13 Y45.887 E61.55914
G1 X56.732 Y46.497 E61.66198
G1 X57.341 Y47.096 E61.76449
G1 X57.964 Y47.684 E61.86729
G1 X58.593 Y48.261 E61.96972
G1 X59.231 Y48.83 E62.0723
G1 X59.882 Y49.387 E62.17511
G1 X60.541 Y49.932 E62.27773
G1 X61.206 Y50.467 E62.38015
G1 X61.884 Y50.991 E62.48298
G1 X62.584 Y51.515 E62.58791
G1 X63.283 Y52.02 E62.69139
G1 X63.887 Y52.409 E62.7776
G1 X64.54 Y52.748 E62.86589
G1 X65.231 Y53.028 E62.95536
G1 X65.944 Y53.24 E63.04462
G1 X66.673 Y53.39 E63.13393
G1 X67.414 Y53.468 E63.22334
G1 X68.155 Y53.479 E63.31227
G1 X68.902 Y53.421 E63.40218
G1 X69.636 Y53.29 E63.49165
G1 X70.352 Y53.095 E63.5807
G1 X71.051 Y52.833 E63.67028
G1 X71.72 Y52.505 E63.75969
G1 X72.356 Y52.119 E63.84897
G1 X72.954 Y51.673 E63.93849
G1 X73.508 Y51.174 E64.02796
G1 X74.011 Y50.628 E64.11705
G1 X74.464 Y50.036 E64.2065
G1 X74.857 Y49.402 E64.29601
G1 X75.191 Y48.736 E64.38542
G1 X75.461 Y48.044 E64.47455
G1 X75.666 Y47.327 E64.56404
G1 X75.802 Y46.595 E64.65338
G1 X75.871 Y45.853 E64.74281
G1 X75.871 Y45.497 E64.78553
G1 X75.895 Y45.486 E64.7887
G1 X75.877 Y46.06 E64.85761
G1 X75.803 Y46.718 E64.93707
G1 X75.676 Y47.368 E65.01654
G1 X75.497 Y47.998 E65.09514
G1 X75.256 Y48.637 E65.17709
G1 X74.976 Y49.224 E65.25513
G1 X74.645 Y49.793 E65.33412
G1 X74.252 Y50.354 E65.41632
G1 X73.825 Y50.868 E65.49651
G1 X73.37 Y51.332 E65.57449
G1 X72.863 Y51.769 E65.65481
G1 X72.318 Y52.164 E65.73558
G1 X71.756 Y52.505 E65.81446
G1 X71.168 Y52.799 E65.89335
G1 X70.527 Y53.053 E65.97609
G1 X69.903 Y53.243 E66.05437
G1 X69.251 Y53.385 E66.13444
G0 F3600 X66.073 Y52.704
G0 X64.774 Y52.249
G0 X56.917 Y47.301
G1 F1800 X54.132 Y44.515 E66.60716
G1 X54.062 Y44.445
G0 F3600 X53.012 Y44.527
G1 F1800 X50.222 Y41.736 E67.08072
G1 X50.152 Y41.666
G0 F3600 X49.107 Y41.753
G1 F1800 X46.311 Y38.958 E67.55513
G0 F3600 X45.999 Y39.211
G1 F1800 X47.154 Y40.366 E67.75114
G1 X47.224 Y40.436
G0 F3600 X48.267 Y40.347
G1 F1800 X51.06 Y43.14 E68.22513
G1 X51.13 Y43.21
G0 F3600 X52.177 Y43.126
G1 F1800 X54.965 Y45.914 E68.69827
G1 X55.035 Y45.984
G10
;MESH:foot_2.stl
G0 F3600 X64.164 Y51.932
G0 X65.176 Y52.399
G0 X69.359 Y53.946
G0 X69.588 Y55.004
G0 X74.847 Y58.66
G0 X75.297 Y59.642
G0 X76.275 Y59.695
;TYPE:WALL-INNER
G11
G1 F1800 X76.276 Y59.696 E68.69844
G1 X76.288 Y59.901 E68.72308
G1 X76.267 Y60.603 E68.80736
G1 X76.191 Y61.28 E68.88911
G1 X76.054 Y61.978 E68.97447
G1 X75.865 Y62.641 E69.0572
G1 X75.619 Y63.292 E69.14071
G1 X75.317 Y63.924 E69.22476
G1 X74.965 Y64.53 E69.30886
G1 X74.568 Y65.097 E69.39192
G1 X74.111 Y65.647 E69.47773
G1 X73.633 Y66.134 E69.55962
G1 X73.106 Y66.588 E69.64309
G1 X72.537 Y67.001 E69.72746
G1 X71.94 Y67.362 E69.81118
G1 X71.327 Y67.668 E69.89339
G1 X70.664 Y67.931 E69.97898
G1 X70.005 Y68.133 E70.06169
G1 X69.32 Y68.28 E70.14577
G1 X68.637 Y68.37 E70.22843
G1 X67.93 Y68.404 E70.31337
G1 X67.236 Y68.378 E70.39671
G1 X66.541 Y68.295 E70.4807
G1 X65.858 Y68.156 E70.56434
G1 X65.187 Y67.96 E70.64823
G1 X64.547 Y67.711 E70.73064
G1 X63.903 Y67.399 E70.81651
G1 X63.313 Y67.05 E70.89877
G1 X62.623 Y66.568 E70.99977
G1 X45.048 Y54.081 E73.58689
G1 X45.975 Y52.776 E73.77898
G1 X46.09 Y52.613 E73.80292
G1 X46.253 Y52.728 E73.81838
G1 X55.869 Y59.561 E75.23396
G1 X56.41 Y60.129 E75.32808
G1 X57.007 Y60.733 E75.42999
G1 X57.612 Y61.327 E75.53174
G1 X58.229 Y61.911 E75.63368
G1 X58.854 Y62.486 E75.7356
G1 X59.488 Y63.048 E75.83726
G1 X60.133 Y63.602 E75.93929
G1 X60.787 Y64.143 E76.04115
G1 X61.448 Y64.674 E76.14289
G1 X62.12 Y65.194 E76.24485
G1 X62.815 Y65.714 E76.34901
G1 X63.503 Y66.211 E76.45086
G1 X64.082 Y66.584 E76.53351
G1 X64.704 Y66.906 E76.61756
G1 X65.36 Y67.173 E76.70255
G1 X66.039 Y67.375 E76.78756
G1 X66.733 Y67.517 E76.87257
G1 X67.437 Y67.591 E76.95751
