;FLAVOR:UltiGCode
;TIME:5748
;MATERIAL:6791
;MATERIAL2:0
;NOZZLE_DIAMETER:0.4
;MINX:30.027
;MINY:26.363
;MINZ:0.3
;MAXX:93.324
;MAXY:95.525
;MAXZ:20
;Generated with Cura_SteamEngine 4.7.1
M82 ;absolute extrusion mode
G0 F3000 Y50 ;avoid prime blob
G92 E0
G92 E0
G10
;LAYER_COUNT:198
;LAYER:0
M107
G0 F3600 X41.078 Y41.276 Z0.3
;TYPE:SKIRT
G11
G1 F1800 X41.469 Y40.891 E0.06585
G1 X42.182 Y40.251 E0.18082
G1 X44.172 Y38.409 E0.50622
G1 X46.138 Y36.485 E0.83632
G1 X48.017 Y34.538 E1.16101
G1 X48.942 Y33.512 E1.32678
G1 X49.037 Y33.421 E1.34257
G1 X49.929 Y32.451 E1.5007
G1 X50.325 Y32.068 E1.56681
G1 X50.591 Y31.833 E1.60941
G1 X51.436 Y31.105 E1.74325
G1 X52.237 Y30.436 E1.86848
G1 X52.397 Y30.308 E1.89307
G1 X53.759 Y29.243 E2.10055
G1 X54.157 Y28.945 E2.16021
G1 X55.159 Y28.237 E2.30744
G1 X55.254 Y28.172 E2.32125
G1 X55.806 Y27.808 E2.4006
G1 X56.275 Y27.547 E2.465
G1 X56.777 Y27.358 E2.52937
G1 X57.217 Y27.259 E2.58349
G1 X58.485 Y27.055 E2.73761
G1 X58.748 Y27.017 E2.7695
G1 X61.017 Y26.63 E3.04571
G1 X62.181 Y26.419 E3.18766
G1 X62.714 Y26.363 E3.25198
G1 X63.25 Y26.386 E3.31636
G1 X63.776 Y26.489 E3.38067
G1 X64.282 Y26.669 E3.44512
G1 X64.754 Y26.922 E3.50939
G1 X65.149 Y27.212 E3.56819
G1 X66.001 Y27.934 E3.7022
G1 X66.443 Y28.326 E3.7731
G1 X68.528 Y30.118 E4.10301
G1 X70.643 Y31.833 E4.42976
G1 X72.811 Y33.493 E4.75743
G1 X75.027 Y35.092 E5.08535
G1 X76.243 Y35.93 E5.26256
G1 X77.273 Y36.629 E5.41194
G1 X77.693 Y36.962 E5.47625
G1 X77.888 Y37.156 E5.50926
G1 X78.31 Y37.611 E5.58373
G1 X79.382 Y38.798 E5.77566
G1 X80.507 Y39.981 E5.97156
G1 X80.68 Y40.17 E6.00231
G1 X81.011 Y40.592 E6.06667
G1 X81.295 Y41.097 E6.1362
G1 X81.643 Y41.855 E6.23628
G1 X91.844 Y64.979 E9.26917
G1 X92.104 Y65.593 E9.34919
G1 X92.276 Y66.101 E9.41355
G1 X92.382 Y66.78 E9.49601
G1 X92.43 Y67.578 E9.59195
G1 X93.302 Y86.713 E11.89053
G1 X93.324 Y87.418 E11.97517
G1 X93.301 Y87.953 E12.03943
G1 X93.198 Y88.48 E12.10387
G1 X93.019 Y88.985 E12.16816
G1 X92.766 Y89.458 E12.23253
G1 X92.446 Y89.888 E12.29685
G1 X92.065 Y90.266 E12.36126
G1 X91.633 Y90.583 E12.42555
G1 X90.986 Y90.902 E12.51212
G1 X90.269 Y91.17 E12.60397
G1 X81.877 Y94.171 E13.67347
G1 X81.202 Y94.401 E13.75904
G1 X80.504 Y94.563 E13.84503
G1 X79.779 Y94.638 E13.93249
G1 X79.474 Y94.655 E13.96915
G1 X60.701 Y95.503 E16.2242
G1 X59.967 Y95.525 E16.31232
G1 X59.431 Y95.501 E16.37671
G1 X58.919 Y95.405 E16.43922
G1 X58.252 Y95.234 E16.52185
G1 X38.884 Y90.004 E18.92925
G1 X38.152 Y89.795 E19.0206
G1 X37.649 Y89.611 E19.08487
G1 X37.179 Y89.353 E19.14921
G1 X36.752 Y89.028 E19.21361
G1 X36.378 Y88.644 E19.27793
G1 X36.065 Y88.208 E19.34234
G1 X35.821 Y87.731 E19.40663
G1 X35.65 Y87.223 E19.47095
G1 X35.57 Y86.814 E19.52096
G1 X35.374 Y85.354 E19.69773
G1 X35.344 Y85.103 E19.72807
G1 X34.935 Y82.385 E20.0579
G1 X34.456 Y79.721 E20.38271
G1 X33.9 Y77.057 E20.70928
G1 X33.269 Y74.414 E21.03535
G1 X32.553 Y71.75 E21.36637
G1 X31.689 Y68.881 E21.72593
G1 X31.585 Y68.554 E21.7671
G1 X30.885 Y66.437 E22.03467
G1 X30.374 Y64.95 E22.22335
G1 X30.34 Y64.845 E22.2366
G1 X30.188 Y64.354 E22.29828
G1 X30.068 Y63.831 E22.36267
G1 X30.027 Y63.296 E22.42706
G1 X30.107 Y62.534 E22.519
G1 X30.3 Y61.635 E22.62934
G1 X30.463 Y60.931 E22.71605
G1 X30.628 Y60.241 E22.80118
G1 X30.876 Y59.238 E22.92517
G1 X31.06 Y58.538 E23.01202
G1 X31.118 Y58.342 E23.03655
G1 X31.365 Y57.582 E23.13245
G1 X31.802 Y56.29 E23.29612
G1 X31.911 Y55.938 E23.34033
G1 X32.292 Y54.754 E23.48959
G1 X32.479 Y54.288 E23.54984
G1 X32.857 Y53.507 E23.65396
G1 X33.584 Y51.979 E23.85702
G1 X34.144 Y50.776 E24.01625
G1 X34.504 Y50.122 E24.10584
G1 X35.487 Y48.365 E24.34743
G1 X35.87 Y47.664 E24.44329
G1 X35.929 Y47.559 E24.45774
G1 X36.56 Y46.49 E24.6067
G1 X36.655 Y46.335 E24.62852
G1 X37.017 Y45.767 E24.70934
G1 X37.313 Y45.358 E24.76993
G1 X37.554 Y45.057 E24.8162
G1 X37.978 Y44.539 E24.89653
G1 X38.424 Y44.01 E24.97956
G1 X38.628 Y43.786 E25.01592
G1 X39.288 Y43.125 E25.12801
G1 X41.078 Y41.276 E25.43683
G0 F3600 X41.361 Y41.559
G1 F1800 X41.736 Y41.189 E25.50004
G1 X42.449 Y40.549 E25.61502
G1 X44.46 Y38.688 E25.94381
G1 X46.406 Y36.783 E26.2706
G1 X48.318 Y34.801 E26.60107
G1 X49.239 Y33.78 E26.76607
G1 X49.327 Y33.697 E26.78059
G1 X50.223 Y32.722 E26.93949
G1 X50.597 Y32.362 E27.00178
G1 X50.852 Y32.136 E27.04267
G1 X51.693 Y31.412 E27.17584
G1 X52.488 Y30.748 E27.30013
G1 X52.643 Y30.624 E27.32395
G1 X54.001 Y29.562 E27.53083
G1 X54.387 Y29.272 E27.58876
G1 X55.389 Y28.564 E27.73599
G1 X55.474 Y28.506 E27.74834
G1 X56.026 Y28.142 E27.82769
G1 X56.469 Y27.897 E27.88843
G1 X56.945 Y27.726 E27.94913
G1 X57.281 Y27.653 E27.99039
G1 X58.542 Y27.451 E28.14364
G1 X58.837 Y27.409 E28.17939
G1 X61.051 Y27.03 E28.44894
G1 X62.252 Y26.812 E28.59541
G1 X62.756 Y26.762 E28.65619
G1 X63.26 Y26.791 E28.71677
G1 X63.754 Y26.899 E28.77745
G1 X64.225 Y27.084 E28.83817
G1 X64.66 Y27.34 E28.89874
G1 X64.89 Y27.518 E28.93364
G1 X65.736 Y28.234 E29.06664
G1 X66.162 Y28.611 E29.13491
G1 X68.282 Y30.433 E29.47035
G1 X70.398 Y32.15 E29.79735
G1 X72.562 Y33.806 E30.12434
G1 X74.828 Y35.442 E30.45972
G1 X76.01 Y36.255 E30.63188
G1 X77.049 Y36.96 E30.78255
G1 X77.595 Y37.428 E30.86884
G1 X77.982 Y37.844 E30.93702
G1 X79.097 Y39.079 E31.13669
G1 X80.211 Y40.251 E31.33072
G1 X80.384 Y40.44 E31.36147
G1 X80.695 Y40.839 E31.42218
G1 X80.932 Y41.264 E31.48057
G1 X81.277 Y42.016 E31.57985
G1 X91.476 Y65.135 E34.6121
G1 X91.736 Y65.749 E34.69211
G1 X91.895 Y66.229 E34.75279
G1 X91.983 Y66.804 E34.82259
G1 X92.031 Y67.596 E34.91781
G1 X92.901 Y86.679 E37.21015
G1 X92.924 Y87.43 E37.30031
G1 X92.9 Y87.935 E37.36098
G1 X92.797 Y88.43 E37.42165
G1 X92.617 Y88.902 E37.48227
G1 X92.364 Y89.341 E37.54307
G1 X92.046 Y89.734 E37.60374
G1 X91.67 Y90.072 E37.66441
G1 X91.246 Y90.346 E37.72499
G1 X90.846 Y90.528 E37.77772
G1 X90.135 Y90.793 E37.86878
G1 X81.748 Y93.792 E38.93762
G1 X81.073 Y94.022 E39.0232
G1 X80.453 Y94.166 E39.09958
G1 X79.748 Y94.239 E39.18463
G1 X79.455 Y94.256 E39.21985
G1 X60.689 Y95.104 E41.47407
G1 X59.955 Y95.126 E41.56219
G1 X59.231 Y95.065 E41.64937
G1 X59.018 Y95.017 E41.67557
G1 X58.357 Y94.847 E41.75748
G1 X38.947 Y89.606 E44.17009
G1 X38.262 Y89.411 E44.25556
G1 X37.788 Y89.234 E44.31627
G1 X37.348 Y88.986 E44.37688
G1 X36.953 Y88.67 E44.43758
G1 X36.612 Y88.297 E44.49823
G1 X36.334 Y87.875 E44.55887
G1 X36.126 Y87.414 E44.61956
G1 X35.967 Y86.761 E44.70021
G1 X35.771 Y85.306 E44.87639
G1 X35.738 Y85.028 E44.90998
G1 X35.339 Y82.376 E45.2318
G1 X34.839 Y79.593 E45.57111
G1 X34.294 Y76.987 E45.8906
G1 X33.65 Y74.289 E46.22345
G1 X32.946 Y71.668 E46.54912
G1 X32.056 Y68.713 E46.91945
G1 X31.967 Y68.433 E46.95471
G1 X31.252 Y66.271 E47.22797
G1 X30.753 Y64.82 E47.4121
G1 X30.722 Y64.726 E47.42398
G1 X30.57 Y64.235 E47.48565
G1 X30.459 Y63.742 E47.5463
G1 X30.427 Y63.237 E47.60702
G1 X30.498 Y62.618 E47.68178
G1 X30.69 Y61.725 E47.79139
G1 X30.852 Y61.023 E47.87785
G1 X31.016 Y60.337 E47.96249
G1 X31.263 Y59.339 E48.08586
G1 X31.447 Y58.639 E48.17271
G1 X31.498 Y58.465 E48.19447
G1 X31.744 Y57.71 E48.28976
G1 X32.18 Y56.421 E48.45305
G1 X32.292 Y56.061 E48.49829
G1 X32.673 Y54.877 E48.64755
G1 X32.839 Y54.462 E48.70118
G1 X33.228 Y53.659 E48.80825
G1 X33.946 Y52.151 E49.00868
G1 X34.507 Y50.945 E49.16829
G1 X34.87 Y50.288 E49.25836
G1 X35.836 Y48.561 E49.49582
G1 X36.221 Y47.855 E49.59232
G1 X36.902 Y46.698 E49.75342
G1 X36.992 Y46.55 E49.77421
G1 X37.354 Y45.982 E49.85504
G1 X37.671 Y45.55 E49.91933
G1 X37.864 Y45.31 E49.95629
G1 X38.283 Y44.796 E50.03587
G1 X38.729 Y44.267 E50.1189
G1 X38.912 Y44.069 E50.15125
G1 X39.537 Y43.443 E50.2574
G1 X41.361 Y41.559 E50.57208
G0 F3600 X54.891 Y41.17
G1 F1800 X55.256 Y41.229 E50.61645
G1 X55.256 Y41.329 E50.62845
G1 X55.158 Y41.364 E50.64094
G1 X54.891 Y41.17 E50.68054
G0 F3600 X54.562 Y41.426
G1 F1800 X54.16 Y40.819 E50.76791
G1 X53.919 Y40.527 E50.81334
G1 X53.621 Y40.292 E50.85888
G1 X53.282 Y40.124 E50.90428
G1 X52.914 Y40.031 E50.94983
G1 X52.536 Y40.017 E50.99522
G1 X52.162 Y40.083 E51.04079
G1 X51.879 Y40.191 E51.07714
G1 X50.249 Y40.975 E51.29419
G1 X49.864 Y41.225 E51.34928
G1 X48.585 Y42.311 E51.55062
G1 X47.309 Y43.401 E51.752
G1 X47.048 Y43.676 E51.7975
G1 X46.839 Y44.026 E51.84642
G1 X46.296 Y45.224 E52.00426
G1 X45.906 Y45.507 E52.06208
G1 X45.344 Y45.579 E52.13007
G1 X44.991 Y45.718 E52.1756
G1 X44.678 Y45.924 E52.22056
G1 X43.138 Y47.189 E52.45971
G1 X42.887 Y47.441 E52.5024
G1 X41.759 Y48.821 E52.71628
G1 X41.575 Y49.093 E52.75569
G1 X40.656 Y50.766 E52.98474
G1 X39.694 Y52.116 E53.18366
G1 X39.498 Y52.47 E53.23222
G1 X38.772 Y54.215 E53.45902
G1 X38.056 Y55.626 E53.64889
G1 X37.994 Y55.762 E53.66683
G1 X37.06 Y58.054 E53.96383
G1 X37.026 Y58.144 E53.97537
G1 X36.224 Y60.458 E54.26926
G1 X36.192 Y60.562 E54.28232
G1 X35.641 Y62.531 E54.52767
G1 X35.609 Y62.662 E54.54385
G1 X35.493 Y63.239 E54.61448
G1 X35.481 Y63.202 E54.61915
G1 X35.791 Y61.854 E54.78513
G1 X36.248 Y60.008 E55.01334
G1 X36.946 Y58.114 E55.25556
G1 X36.992 Y57.97 E55.2737
G1 X37.394 Y56.512 E55.45519
G1 X38.158 Y54.991 E55.65944
G1 X38.192 Y54.919 E55.669
G1 X38.985 Y53.15 E55.90163
G1 X39.799 Y51.772 E56.09368
G1 X39.841 Y51.696 E56.1041
G1 X40.707 Y50.055 E56.32676
G1 X41.51 Y48.749 E56.51074
G1 X42.451 Y47.599 E56.68905
G1 X44.769 Y45.676 E57.05047
G1 X45.033 Y45.405 E57.09587
G1 X45.235 Y45.084 E57.14138
G1 X45.354 Y44.775 E57.18111
G1 X46.232 Y44.246 E57.30412
G1 X46.522 Y44.028 E57.34766
G1 X48.106 Y42.57 E57.606
G1 X49.401 Y41.466 E57.81021
G1 X50.905 Y40.339 E58.03573
G1 X52.005 Y39.916 E58.17716
G1 X52.342 Y39.744 E58.22256
G1 X52.636 Y39.504 E58.2681
G1 X52.874 Y39.209 E58.31359
G1 X53.093 Y38.72 E58.37788
G1 X53.521 Y37.187 E58.56888
G1 X54.058 Y35.974 E58.72806
G1 X55.435 Y34.788 E58.94614
G1 X57.527 Y33.152 E59.26483
G1 X58.368 Y32.582 E59.38675
G1 X58.128 Y32.85 E59.42992
G1 X55.996 Y34.434 E59.74864
G1 X55.887 Y34.522 E59.76545
G1 X54.528 Y35.707 E59.98182
G1 X54.27 Y35.985 E60.02734
G1 X54.038 Y36.399 E60.08428
G1 X53.366 Y38.09 E60.30264
G1 X53.264 Y38.455 E60.34812
G1 X53.241 Y38.833 E60.39356
G1 X53.297 Y39.208 E60.43906
G1 X53.614 Y39.889 E60.5292
G1 X53.836 Y40.196 E60.57466
G1 X54.118 Y40.45 E60.62021
G1 X54.446 Y40.639 E60.66563
G1 X54.807 Y40.756 E60.71117
G1 X55.34 Y40.794 E60.7753
G1 X55.595 Y40.98 E60.81317
G1 X55.693 Y41.279 E60.85093
G1 X55.595 Y41.578 E60.88869
G1 X55.34 Y41.764 E60.92656
G1 X55.026 Y41.764 E60.96424
G1 X54.562 Y41.426 E61.03313
G0 F3600 X54.266 Y41.705
G1 F1800 X53.826 Y41.04 E61.12882
G1 X53.61 Y40.786 E61.16883
G1 X53.339 Y40.59 E61.20896
G1 X53.03 Y40.463 E61.24905
G1 X52.7 Y40.414 E61.28908
G1 X52.367 Y40.444 E61.32921
G1 X52.052 Y40.551 E61.36913
G1 X50.422 Y41.335 E61.58618
G1 X50.123 Y41.53 E61.62901
G1 X48.845 Y42.616 E61.83027
G1 X47.569 Y43.706 E62.03165
G1 X47.342 Y43.951 E62.07173
G1 X47.203 Y44.192 E62.10511
G1 X46.617 Y45.484 E62.27535
G1 X46.046 Y45.9 E62.36013
G1 X45.412 Y45.976 E62.43675
G1 X44.932 Y46.233 E62.50209
G1 X43.392 Y47.498 E62.74124
G1 X43.197 Y47.694 E62.77442
G1 X42.069 Y49.074 E62.9883
G1 X41.926 Y49.286 E63.01899
G1 X40.995 Y50.981 E63.25105
G1 X40.02 Y52.349 E63.45264
G1 X39.867 Y52.623 E63.4903
G1 X39.131 Y54.392 E63.72022
G1 X38.413 Y55.807 E63.91063
G1 X38.365 Y55.913 E63.92459
G1 X37.431 Y58.205 E64.22159
G1 X37.404 Y58.275 E64.23059
G1 X36.602 Y60.589 E64.52448
G1 X36.577 Y60.67 E64.53465
G1 X36.026 Y62.639 E64.78001
G1 X36.001 Y62.741 E64.79261
G1 X35.828 Y63.602 E64.898
G1 X35.676 Y63.713 E64.92058
G1 X35.4 Y63.713 E64.9537
G1 X35.172 Y63.548 E64.98747
G1 X35.066 Y63.22 E65.02884
G1 X35.396 Y61.786 E65.20542
G1 X35.865 Y59.889 E65.43991
G1 X36.571 Y57.975 E65.68472
G1 X36.607 Y57.863 E65.69883
G1 X37.021 Y56.363 E65.88556
G1 X37.827 Y54.756 E66.1013
G1 X38.633 Y52.957 E66.33786
G1 X39.454 Y51.568 E66.53148
G1 X39.487 Y51.509 E66.53959
G1 X40.356 Y49.862 E66.76305
G1 X41.183 Y48.517 E66.95252
G1 X42.165 Y47.316 E67.13868
G1 X44.513 Y45.369 E67.50471
G1 X44.742 Y45.126 E67.54478
G1 X45.02 Y44.509 E67.62599
G1 X46.026 Y43.903 E67.76692
G1 X46.251 Y43.734 E67.80069
G1 X47.859 Y42.254 E68.06294
G1 X49.141 Y41.161 E68.2651
G1 X50.708 Y39.987 E68.50006
G1 X51.862 Y39.543 E68.64844
G1 X52.157 Y39.386 E68.68854
G1 X52.407 Y39.165 E68.72858
G1 X52.597 Y38.89 E68.76869
G1 X52.707 Y38.613 E68.80446
G1 X53.142 Y37.054 E68.99868
G1 X53.728 Y35.731 E69.17232
G1 X55.187 Y34.474 E69.40341
G1 X57.291 Y32.829 E69.7239
G1 X58.238 Y32.186 E69.86126
G1 X59.415 Y32.141 E70.00261
G1 X58.385 Y33.157 E70.17622
G1 X56.235 Y34.755 E70.49768
G1 X56.15 Y34.824 E70.51082
G1 X54.791 Y36.009 E70.72719
G1 X54.567 Y36.257 E70.76729
G1 X54.41 Y36.547 E70.80686
G1 X53.738 Y38.238 E71.02522
G1 X53.653 Y38.561 E71.0653
G1 X53.646 Y38.895 E71.10538
G1 X53.719 Y39.221 E71.14547
G1 X53.961 Y39.69 E71.2088
G1 X54.161 Y39.958 E71.24893
G1 X54.418 Y40.171 E71.28899
G1 X54.719 Y40.317 E71.32913
G1 X55.176 Y40.394 E71.38475
G1 X55.469 Y40.394 E71.41991
G1 X55.937 Y40.734 E71.48932
G1 X56.114 Y41.279 E71.55808
G1 X55.937 Y41.824 E71.62685
G1 X55.469 Y42.164 E71.69626
G1 X54.897 Y42.164 E71.7649
G1 X54.266 Y41.705 E71.85854
G0 F3600 X54.976 Y39.974
G1 F1800 X55.6 Y39.994 E71.93345
G1 X56.276 Y40.486 E72.03379
G1 X56.534 Y41.279 E72.13385
G1 X56.276 Y42.072 E72.23392
G1 X55.6 Y42.564 E72.33425
G1 X54.766 Y42.564 E72.43433
G1 X53.974 Y41.987 E72.55192
G1 X53.493 Y41.261 E72.65643
G1 X53.305 Y41.05 E72.69034
G1 X53.067 Y40.9 E72.7241
G1 X52.795 Y40.822 E72.75806
G1 X52.513 Y40.824 E72.7919
G1 X52.226 Y40.912 E72.82792
G1 X50.596 Y41.696 E73.04497
G1 X50.382 Y41.835 E73.07559
G1 X49.104 Y42.92 E73.27676
G1 X47.828 Y44.01 E73.47815
G1 X47.567 Y44.357 E73.53025
G1 X46.937 Y45.746 E73.71327
G1 X46.186 Y46.293 E73.82476
G1 X45.487 Y46.372 E73.90918
G1 X45.186 Y46.542 E73.95066
G1 X43.646 Y47.807 E74.18981
G1 X43.507 Y47.947 E74.21349
G1 X42.379 Y49.327 E74.42737
G1 X42.277 Y49.479 E74.44934
G1 X41.337 Y51.191 E74.68371
G1 X40.346 Y52.581 E74.88856
G1 X40.237 Y52.777 E74.91547
G1 X39.502 Y54.543 E75.14501
G1 X38.769 Y55.988 E75.33945
G1 X38.735 Y56.064 E75.34944
G1 X37.801 Y58.356 E75.64644
G1 X37.782 Y58.406 E75.65286
G1 X36.98 Y60.72 E75.94674
G1 X36.962 Y60.778 E75.95403
G1 X36.411 Y62.747 E76.19939
G1 X36.394 Y62.819 E76.20826
G1 X36.191 Y63.833 E76.33236
G1 X35.806 Y64.113 E76.38948
G1 X35.27 Y64.113 E76.4538
G1 X34.833 Y63.795 E76.51866
G1 X34.652 Y63.239 E76.58882
G1 X35.008 Y61.69 E76.77955
G1 X35.485 Y59.764 E77.01765
G1 X36.195 Y57.837 E77.26409
G1 X36.221 Y57.757 E77.27418
G1 X36.644 Y56.223 E77.46513
G1 X37.462 Y54.592 E77.68409
G1 X38.275 Y52.779 E77.92252
G1 X39.11 Y51.365 E78.11958
G1 X40.007 Y49.667 E78.35002
G1 X40.859 Y48.281 E78.54526
G1 X41.881 Y47.031 E78.73901
G1 X44.257 Y45.061 E79.10939
G1 X44.447 Y44.852 E79.14328
G1 X44.687 Y44.243 E79.22183
G1 X45.819 Y43.561 E79.38042
G1 X45.98 Y43.44 E79.40459
G1 X47.584 Y41.963 E79.66624
G1 X48.899 Y40.843 E79.87352
G1 X50.515 Y39.632 E80.11585
G1 X51.718 Y39.169 E80.27053
G1 X51.964 Y39.032 E80.30432
G1 X52.163 Y38.831 E80.33826
G1 X52.322 Y38.505 E80.38178
G1 X52.766 Y36.916 E80.57977
G1 X53.398 Y35.487 E80.76727
G1 X54.93 Y34.168 E81.00986
G1 X57.062 Y32.501 E81.33462
G1 X58.108 Y31.791 E81.48633
G1 X59.494 Y31.737 E81.65277
G1 X59.688 Y31.71 E81.67628
G1 X61.505 Y31.275 E81.90048
G1 X62.563 Y31.035 E82.03066
G1 X63.675 Y32.018 E82.20877
G1 X64.765 Y33.193 E82.40109
G1 X65.898 Y34.5 E82.60866
G1 X65.959 Y34.564 E82.61927
G1 X67.261 Y35.823 E82.83661
G1 X68.557 Y36.971 E83.04437
G1 X68.663 Y37.052 E83.06038
G1 X69.695 Y37.745 E83.20955
G1 X70.389 Y38.011 E83.29874
G1 X70.389 Y38.479 E83.3549
G1 X70.467 Y38.841 E83.39933
G1 X70.077 Y38.332 E83.47628
G1 X69.276 Y37.563 E83.60953
G1 X69.15 Y37.46 E83.62906
G1 X67.728 Y36.481 E83.83623
G1 X66.587 Y35.462 E84.0198
G1 X65.429 Y34.306 E84.21615
G1 X63.926 Y32.905 E84.46272
G1 X62.949 Y31.928 E84.62852
G1 X62.723 Y31.759 E84.66238
G1 X62.459 Y31.659 E84.69626
G1 X62.039 Y31.656 E84.74666
G1 X60.35 Y32.006 E84.95365
G1 X60.085 Y32.101 E84.98743
G1 X59.851 Y32.273 E85.02228
G1 X58.649 Y33.458 E85.22483
G1 X56.473 Y35.076 E85.55022
