;FLAVOR:UltiGCode
;TIME:809
;MATERIAL:945
;MATERIAL2:0
;NOZZLE_DIAMETER:0.4
;MINX:34.899
;MINY:42.323
;MINZ:0.3
;MAXX:83.99
;MAXY:79.165
;MAXZ:7
;Generated with Cura_SteamEngine 4.7.1
M82 ;absolute extrusion mode
G0 F3000 Y50 ;avoid prime blob
G92 E0
G92 E0
G10
;LAYER_COUNT:68
;LAYER:0
M107
G0 F3600 X36.585 Y63.61 Z0.3
;TYPE:SKIRT
G11
G1 F1800 X37.059 Y63.36 E0.06431
G1 X37.52 Y63.195 E0.12306
G1 X38.79 Y62.837 E0.2814
G1 X39.303 Y62.699 E0.34515
G1 X41.895 Y61.922 E0.66987
G1 X44.503 Y61.059 E0.99951
G1 X47.037 Y60.141 E1.32293
G1 X49.606 Y59.127 E1.65436
G1 X52.084 Y58.066 E1.97783
G1 X54.558 Y56.924 E2.30481
G1 X57.021 Y55.702 E2.63475
G1 X59.448 Y54.41 E2.96469
G1 X61.788 Y53.077 E3.28785
G1 X64.126 Y51.659 E3.61598
G1 X66.404 Y50.186 E3.94151
G1 X68.662 Y48.633 E4.27037
G1 X70.857 Y47.03 E4.59653
G1 X73.023 Y45.354 E4.92518
G1 X75.117 Y43.637 E5.25013
G1 X75.307 Y43.474 E5.28017
G1 X75.712 Y43.14 E5.34317
G1 X76.15 Y42.83 E5.40756
G1 X76.629 Y42.589 E5.4719
G1 X77.138 Y42.422 E5.53619
G1 X77.667 Y42.333 E5.60056
G1 X78.203 Y42.323 E5.66489
G1 X78.735 Y42.392 E5.72927
G1 X79.25 Y42.54 E5.79357
G1 X79.738 Y42.763 E5.85795
G1 X80.307 Y43.135 E5.93953
G1 X80.398 Y43.2 E5.95295
G1 X82.183 Y44.524 E6.21964
G1 X82.596 Y44.844 E6.28234
G1 X82.994 Y45.203 E6.34666
G1 X83.335 Y45.618 E6.41111
G1 X83.61 Y46.078 E6.47542
G1 X83.814 Y46.574 E6.53978
G1 X83.941 Y47.095 E6.60413
G1 X83.99 Y47.629 E6.66848
G1 X83.96 Y48.164 E6.73278
G1 X83.85 Y48.689 E6.79715
G1 X83.663 Y49.192 E6.86155
G1 X83.322 Y49.781 E6.94322
G1 X82.726 Y50.615 E7.06622
G1 X74.183 Y62.113 E8.78515
G1 X73.605 Y62.869 E8.89934
G1 X73.217 Y63.336 E8.9722
G1 X72.802 Y63.788 E9.04584
G1 X72.398 Y64.185 E9.11381
G1 X71.98 Y64.559 E9.18111
G1 X71.793 Y64.716 E9.21041
G1 X71.159 Y65.21 E9.30686
G1 X70.728 Y65.525 E9.37092
G1 X55.336 Y76.461 E11.6367
G1 X54.494 Y77.041 E11.75939
G1 X53.993 Y77.355 E11.83034
G1 X53.815 Y77.458 E11.85502
G1 X53.127 Y77.829 E11.94882
G1 X52.732 Y78.019 E12.00142
G1 X52.044 Y78.309 E12.09101
G1 X51.635 Y78.461 E12.14337
G1 X50.873 Y78.7 E12.2392
G1 X50.51 Y78.795 E12.28423
G1 X49.656 Y78.976 E12.38899
G1 X49.312 Y79.031 E12.43079
G1 X48.387 Y79.134 E12.54248
G1 X48.049 Y79.153 E12.5831
G1 X47.282 Y79.165 E12.67515
G1 X46.935 Y79.153 E12.71682
G1 X46.097 Y79.089 E12.81767
G1 X45.702 Y79.039 E12.86545
G1 X44.87 Y78.892 E12.96684
G1 X44.54 Y78.817 E13.00744
G1 X43.738 Y78.595 E13.1073
G1 X43.351 Y78.468 E13.15618
G1 X42.677 Y78.211 E13.24274
G1 X42.275 Y78.036 E13.29535
G1 X41.542 Y77.673 E13.39351
G1 X41.174 Y77.468 E13.44406
G1 X40.542 Y77.074 E13.53343
G1 X40.135 Y76.794 E13.59271
G1 X39.495 Y76.304 E13.68944
G1 X39.235 Y76.082 E13.73046
G1 X38.629 Y75.522 E13.82948
G1 X38.358 Y75.245 E13.87598
G1 X37.788 Y74.603 E13.979
G1 X37.565 Y74.326 E14.02167
G1 X37.119 Y73.715 E14.11245
G1 X36.887 Y73.364 E14.16294
G1 X36.479 Y72.679 E14.25862
G1 X36.283 Y72.311 E14.30865
G1 X35.953 Y71.61 E14.40162
G1 X35.791 Y71.221 E14.45219
G1 X35.519 Y70.466 E14.54849
G1 X35.395 Y70.065 E14.59886
G1 X35.193 Y69.27 E14.69729
G1 X35.124 Y68.929 E14.73904
G1 X34.995 Y68.089 E14.84102
G1 X34.914 Y67.192 E14.9491
G1 X34.899 Y66.778 E14.99881
G1 X34.921 Y66.243 E15.06307
G1 X35.023 Y65.716 E15.12748
G1 X35.202 Y65.21 E15.19189
G1 X35.454 Y64.737 E15.2562
G1 X35.773 Y64.306 E15.32054
G1 X36.153 Y63.928 E15.38486
G1 X36.585 Y63.61 E15.44923
G0 F3600 X36.972 Y63.847
G1 F1800 X37.628 Y63.58 E15.53422
G1 X38.894 Y63.223 E15.69207
G1 X39.417 Y63.082 E15.75707
G1 X42.019 Y62.302 E16.08304
G1 X44.628 Y61.439 E16.4128
G1 X47.183 Y60.513 E16.73892
G1 X49.732 Y59.507 E17.06776
G1 X52.274 Y58.419 E17.39956
G1 X54.754 Y57.275 E17.7273
G1 X57.18 Y56.07 E18.05235
G1 X59.627 Y54.767 E18.38503
G1 X61.988 Y53.423 E18.71104
G1 X64.354 Y51.987 E19.04316
G1 X66.618 Y50.523 E19.36669
G1 X68.903 Y48.953 E19.69938
G1 X71.092 Y47.354 E20.02468
G1 X73.259 Y45.677 E20.35349
G1 X75.39 Y43.929 E20.68423
G1 X75.561 Y43.782 E20.71129
G1 X75.966 Y43.448 E20.77429
G1 X76.38 Y43.158 E20.83494
G1 X76.835 Y42.937 E20.89564
G1 X77.319 Y42.791 E20.95631
G1 X77.82 Y42.722 E21.017
G1 X78.325 Y42.733 E21.07761
G1 X78.823 Y42.824 E21.13836
G1 X79.299 Y42.992 E21.19893
G1 X79.827 Y43.289 E21.27163
G1 X80.16 Y43.521 E21.32033
G1 X81.938 Y44.84 E21.58599
G1 X82.351 Y45.16 E21.64869
G1 X82.725 Y45.501 E21.70942
G1 X83.041 Y45.896 E21.77012
G1 X83.29 Y46.335 E21.83069
G1 X83.467 Y46.809 E21.8914
G1 X83.568 Y47.304 E21.95203
G1 X83.589 Y47.809 E22.01268
G1 X83.53 Y48.312 E22.07345
G1 X83.393 Y48.798 E22.13405
G1 X83.181 Y49.257 E22.19472
G1 X82.996 Y49.548 E22.2361
G1 X82.405 Y50.376 E22.35817
G1 X73.865 Y61.87 E24.07649
G1 X73.287 Y62.626 E24.19069
G1 X72.911 Y63.079 E24.26133
G1 X72.51 Y63.514 E24.33233
G1 X72.132 Y63.887 E24.39606
G1 X71.714 Y64.261 E24.46336
G1 X71.547 Y64.4 E24.48944
G1 X70.913 Y64.894 E24.58589
G1 X70.496 Y65.199 E24.64788
G1 X55.109 Y76.131 E26.91289
G1 X54.267 Y76.711 E27.03558
G1 X53.784 Y77.014 E27.104
G1 X53.625 Y77.106 E27.12605
G1 X52.937 Y77.477 E27.21985
G1 X52.577 Y77.651 E27.26783
G1 X51.889 Y77.941 E27.35742
G1 X51.516 Y78.079 E27.40515
G1 X50.754 Y78.318 E27.50098
G1 X50.427 Y78.403 E27.54152
G1 X49.573 Y78.584 E27.64628
G1 X49.268 Y78.634 E27.68337
G1 X48.459 Y78.725 E27.78106
G1 X48.042 Y78.754 E27.83122
G1 X47.392 Y78.765 E27.90923
G1 X46.965 Y78.754 E27.96049
G1 X46.127 Y78.69 E28.06134
G1 X45.771 Y78.645 E28.1044
G1 X44.948 Y78.5 E28.20468
G1 X44.646 Y78.431 E28.24186
G1 X43.844 Y78.209 E28.34172
G1 X43.494 Y78.094 E28.38592
G1 X42.82 Y77.837 E28.47249
G1 X42.453 Y77.678 E28.52048
G1 X41.72 Y77.315 E28.61864
G1 X41.386 Y77.129 E28.66451
G1 X40.754 Y76.735 E28.75388
G1 X40.377 Y76.477 E28.8087
G1 X39.836 Y76.064 E28.89038
G1 X39.506 Y75.788 E28.942
G1 X38.9 Y75.228 E29.04102
G1 X38.657 Y74.98 E29.08268
G1 X38.093 Y74.344 E29.18469
G1 X37.888 Y74.09 E29.22386
G1 X37.442 Y73.479 E29.31463
G1 X37.231 Y73.16 E29.36053
G1 X36.823 Y72.475 E29.4562
G1 X36.645 Y72.141 E29.50162
G1 X36.315 Y71.44 E29.5946
G1 X36.167 Y71.086 E29.64064
G1 X35.895 Y70.331 E29.73694
G1 X35.783 Y69.966 E29.78275
G1 X35.581 Y69.171 E29.88119
G1 X35.519 Y68.869 E29.91818
G1 X35.39 Y68.029 E30.02016
G1 X35.313 Y67.167 E30.12402
G1 X35.299 Y66.765 E30.17228
G1 X35.322 Y66.26 E30.23295
G1 X35.425 Y65.765 E30.29362
G1 X35.604 Y65.292 E30.35431
G1 X35.855 Y64.854 E30.41489
G1 X36.173 Y64.46 E30.47565
G1 X36.548 Y64.122 E30.53623
G1 X36.972 Y63.847 E30.59687
G10
;MESH:foot_1.stl
G0 F3600 X40.277 Y66.432
G0 X39.955 Y67.672
G0 X40.157 Y68.745
G0 X40.435 Y69.524
G0 X40.795 Y70.273
G0 X41.235 Y70.976
G0 X41.748 Y71.627
G0 X42.33 Y72.219
G0 X42.971 Y72.745
G0 X43.665 Y73.197
G0 X44.405 Y73.573
G0 X45.18 Y73.865
G0 X45.984 Y74.072
G0 X48.465 Y74.221
G0 X48.453 Y74.122
;TYPE:WALL-INNER
G11
G1 F1800 X49.266 Y73.972 E30.69608
G1 X50.056 Y73.735 E30.79505
G1 X50.816 Y73.414 E30.89405
G1 X51.53 Y73.017 E30.99209
G1 X51.904 Y72.765 E31.0462
G1 X52.884 Y72.056 E31.19135
G1 X53.87 Y71.321 E31.33893
G1 X54.844 Y70.567 E31.48674
G1 X55.804 Y69.799 E31.63427
G1 X56.753 Y69.016 E31.78191
G1 X57.689 Y68.218 E31.92951
G1 X58.611 Y67.405 E32.07702
G1 X59.522 Y66.577 E32.22474
G1 X60.417 Y65.734 E32.37228
G1 X61.3 Y64.877 E32.51994
G1 X62.162 Y64.012 E32.66648
G1 X62.574 Y63.605 E32.73598
G1 X62.998 Y63.21 E32.80552
G1 X63.438 Y62.824 E32.87576
G1 X63.86 Y62.474 E32.94155
G1 X64.326 Y62.111 E33.01243
G1 X64.781 Y61.776 E33.08023
G1 X68.294 Y59.28 E33.59737
G1 X68.885 Y58.82 E33.68724
G1 X69.451 Y58.291 E33.7802
G1 X69.964 Y57.717 E33.87258
G1 X70.289 Y57.294 E33.9366
G1 X78.126 Y46.743 E35.51377
G1 X79.412 Y47.696 E35.70585
G1 X79.572 Y47.815 E35.72978
G1 X79.453 Y47.975 E35.74526
G1 X70.411 Y60.148 E37.56491
G1 X70.005 Y60.648 E37.6422
G1 X69.536 Y61.132 E37.72307
G1 X69.02 Y61.576 E37.80476
G1 X68.748 Y61.779 E37.84549
G1 X52.362 Y73.422 E40.25764
G1 X51.686 Y73.856 E40.35404
G1 X50.974 Y74.222 E40.4501
G1 X50.222 Y74.521 E40.54722
G1 X49.447 Y74.749 E40.64416
G1 X48.666 Y74.898 E40.73957
G1 X47.872 Y74.971 E40.83525
G1 X47.062 Y74.971 E40.93245
G1 X46.257 Y74.892 E41.02951
G1 X45.486 Y74.741 E41.12379
G1 X44.709 Y74.509 E41.2211
G1 X43.969 Y74.211 E41.31683
G1 X43.251 Y73.836 E41.41403
G1 X42.581 Y73.4 E41.50996
G1 X41.947 Y72.897 E41.60707
G1 X41.372 Y72.341 E41.70306
G1 X40.853 Y71.735 E41.7988
G1 X40.395 Y71.082 E41.89451
G1 X39.994 Y70.377 E41.99184
G1 X39.669 Y69.65 E42.0874
G1 X39.41 Y68.882 E42.18466
G1 X39.224 Y68.094 E42.28182
G1 X39.176 Y67.736 E42.32516
G1 X39.137 Y67.442 E42.36075
G1 X39.424 Y67.517 E42.38156
G1 X39.969 Y67.659 E42.44914
G1 X40.005 Y67.932 E42.48218
G1 X40.195 Y68.734 E42.58109
G1 X40.471 Y69.509 E42.67981
G1 X40.83 Y70.254 E42.77905
G1 X41.267 Y70.953 E42.87797
G1 X41.778 Y71.601 E42.977
G1 X42.356 Y72.19 E43.07603
G1 X42.994 Y72.713 E43.17502
G1 X43.685 Y73.163 E43.27398
G1 X44.421 Y73.537 E43.37305
G1 X45.192 Y73.827 E43.47189
G1 X45.991 Y74.033 E43.57091
G1 X46.807 Y74.152 E43.66987
G1 X47.631 Y74.179 E43.7688
G1 X48.453 Y74.122 E43.86768
G0 F3600 X48.465 Y74.221
G0 X46.804 Y74.191
G0 X45.984 Y74.072
G0 X45.18 Y73.865
G0 X44.405 Y73.573
G0 X43.665 Y73.197
G0 X42.971 Y72.745
G0 X42.33 Y72.219
G0 X41.748 Y71.627
G0 X39.203 Y67.516
G0 X38.713 Y67.187
;TYPE:WALL-OUTER
G1 F1800 X38.712 Y67.186 E43.86784
G1 X38.7 Y66.915 E43.9004
G1 X38.963 Y66.983 E43.91988
G1 X40.331 Y67.34 E44.08954
G1 X40.399 Y67.86 E44.15247
G1 X40.579 Y68.62 E44.2462
G1 X40.841 Y69.355 E44.33983
G1 X41.181 Y70.06 E44.43376
G1 X41.595 Y70.722 E44.52745
G1 X42.079 Y71.336 E44.62127
G1 X42.626 Y71.894 E44.71504
G1 X43.231 Y72.39 E44.80892
G1 X43.885 Y72.816 E44.90258
G1 X44.582 Y73.17 E44.99639
G1 X45.313 Y73.445 E45.09011
G1 X46.07 Y73.64 E45.18391
G1 X46.843 Y73.753 E45.27766
G1 X47.624 Y73.779 E45.37143
G1 X48.403 Y73.725 E45.46514
G1 X49.172 Y73.583 E45.55898
G1 X49.92 Y73.358 E45.65271
G1 X50.641 Y73.054 E45.74661
G1 X51.321 Y72.676 E45.83997
G1 X51.675 Y72.437 E45.89122
G1 X52.647 Y71.734 E46.03517
G1 X53.628 Y71.002 E46.18205
G1 X54.597 Y70.253 E46.32902
G1 X55.552 Y69.489 E46.47578
G1 X56.496 Y68.71 E46.62265
G1 X57.427 Y67.916 E46.76948
G1 X58.344 Y67.107 E46.91622
G1 X59.25 Y66.283 E47.06318
G1 X60.141 Y65.445 E47.20996
G1 X61.019 Y64.592 E47.35686
G1 X61.881 Y63.727 E47.5034
G1 X62.301 Y63.312 E47.57425
G1 X62.734 Y62.909 E47.64524
G1 X63.174 Y62.523 E47.71547
G1 X63.614 Y62.158 E47.78408
G1 X64.08 Y61.795 E47.85496
G1 X64.549 Y61.45 E47.92483
G1 X68.055 Y58.959 E48.44093
G1 X68.625 Y58.515 E48.52763
G1 X69.165 Y58.011 E48.61627
G1 X69.656 Y57.461 E48.70474
G1 X69.97 Y57.053 E48.76652
G1 X78.043 Y46.184 E50.39122
G1 X79.972 Y47.614 E50.67937
G1 X80.132 Y47.733 E50.7033
G1 X80.013 Y47.893 E50.71878
G1 X70.722 Y60.4 E52.58842
G1 X70.31 Y60.908 E52.66691
G1 X69.808 Y61.426 E52.75347
G1 X69.267 Y61.891 E52.83907
G1 X68.98 Y62.105 E52.88203
G1 X52.583 Y73.756 E55.29582
G1 X51.886 Y74.203 E55.39518
G1 X51.139 Y74.587 E55.49597
G1 X50.354 Y74.9 E55.59738
G1 X49.543 Y75.138 E55.69881
G1 X48.726 Y75.294 E55.79862
G1 X47.887 Y75.371 E55.89972
G1 X47.044 Y75.371 E56.00088
G1 X46.203 Y75.289 E56.10228
G1 X45.389 Y75.129 E56.20183
G1 X44.571 Y74.885 E56.30426
G1 X43.8 Y74.574 E56.40403
G1 X43.055 Y74.185 E56.50488
G1 X42.345 Y73.723 E56.60653
G1 X41.681 Y73.196 E56.70825
G1 X41.082 Y72.618 E56.80814
G1 X40.538 Y71.982 E56.90857
G1 X40.053 Y71.291 E57.00988
G1 X39.64 Y70.564 E57.11021
G1 X39.295 Y69.793 E57.21157
G1 X39.026 Y68.995 E57.31263
G1 X38.831 Y68.169 E57.41447
G1 X38.721 Y67.349 E57.51375
G1 X38.713 Y67.187 E57.53322
G0 F3600 X38.712 Y67.186
G0 X38.704 Y66.987
G0 X39.203 Y67.516
G0 X39.599 Y67.966
;TYPE:SKIN
G1 F1800 X39.617 Y67.971 E57.53546
G1 X39.621 Y68.002 E57.53921
G1 X39.821 Y68.845 E57.64318
G1 X40.11 Y69.659 E57.74683
G1 X40.488 Y70.443 E57.85128
G1 X40.947 Y71.178 E57.95526
G1 X41.485 Y71.859 E58.05941
G1 X42.093 Y72.478 E58.16353
G1 X42.764 Y73.029 E58.26771
G1 X43.49 Y73.501 E58.37163
G1 X44.263 Y73.894 E58.47569
G1 X45.075 Y74.199 E58.57977
G1 X45.913 Y74.416 E58.68365
G1 X46.772 Y74.542 E58.78783
G1 X47.638 Y74.569 E58.8918
G1 X48.502 Y74.51 E58.99573
G1 X49.358 Y74.352 E59.10018
G1 X50.188 Y74.102 E59.2042
G1 X50.987 Y73.765 E59.30826
G1 X51.734 Y73.35 E59.41081
G1 X52.128 Y73.085 E59.46778
G1 X53.114 Y72.37 E59.61394
G1 X54.106 Y71.631 E59.76238
G1 X55.086 Y70.873 E59.91105
G1 X56.05 Y70.101 E60.05926
G1 X57.004 Y69.315 E60.20759
G1 X57.944 Y68.513 E60.35586
G1 X58.871 Y67.696 E60.50414
G1 X59.787 Y66.863 E60.65271
G1 X60.686 Y66.016 E60.80093
G1 X61.573 Y65.154 E60.94936
G1 X62.437 Y64.289 E61.09607
G1 X62.845 Y63.886 E61.16488
G1 X63.26 Y63.499 E61.23298
G1 X63.691 Y63.121 E61.30177
G1 X64.1 Y62.782 E61.36552
G1 X64.558 Y62.425 E61.4352
G1 X65.007 Y62.094 E61.50214
G1 X68.526 Y59.593 E62.02021
G1 X69.138 Y59.117 E62.11324
G1 X69.73 Y58.564 E62.21046
G1 X70.264 Y57.966 E62.30666
G1 X70.601 Y57.53 E62.37279
G1 X78.206 Y47.289 E63.9035
G1 X79.026 Y47.896 E64.02593
G1 X70.102 Y59.909 E65.82173
G1 X69.713 Y60.389 E65.89587
G1 X69.274 Y60.843 E65.97165
G1 X68.776 Y61.272 E66.05053
G1 X68.522 Y61.461 E66.08852
G1 X52.143 Y73.099 E68.49964
G1 X51.491 Y73.518 E68.59264
G1 X50.818 Y73.865 E68.6835
G1 X50.088 Y74.154 E68.77772
G1 X49.356 Y74.37 E68.8693
G1 X48.609 Y74.512 E68.96055
G1 X47.859 Y74.581 E69.05093
G1 X47.08 Y74.581 E69.14441
G1 X46.307 Y74.506 E69.2376
G1 X45.588 Y74.364 E69.32555
G1 X44.84 Y74.141 E69.41921
G1 X44.125 Y73.853 E69.51171
G1 X43.451 Y73.501 E69.60296
G1 X42.808 Y73.082 E69.69505
G1 X42.207 Y72.605 E69.78713
G1 X41.654 Y72.071 E69.87938
G1 X41.165 Y71.501 E69.9695
G1 X40.72 Y70.865 E70.06265
G1 X40.344 Y70.203 E70.15401
G1 X40.034 Y69.51 E70.24511
G1 X39.786 Y68.774 E70.33831
G1 X39.604 Y68.004 E70.43325
G1 X39.599 Y67.966 E70.43785
G0 F3600 X40.795 Y70.273
G0 X41.235 Y70.976
G0 X41.748 Y71.627
G0 X42.33 Y72.219
G0 X42.971 Y72.745
G0 X43.665 Y73.197
G0 X44.405 Y73.573
G0 X45.18 Y73.865
G0 X45.984 Y74.072
G0 X46.804 Y74.191
G0 X47.631 Y74.218
G0 X48.458 Y74.161
G0 X49.275 Y74.01
G0 X50.069 Y73.772
G0 X50.833 Y73.449
G0 X58.577 Y68.194
G1 F1800 X58.641 Y68.258 E70.44871
G0 F3600 X58.877 Y67.928
G1 F1800 X58.972 Y68.023 E70.46483
G0 F3600 X59.303 Y67.788
G1 F1800 X59.176 Y67.661 E70.48639
G0 F3600 X59.472 Y67.392
G1 F1800 X59.633 Y67.553 E70.51371
G0 F3600 X59.964 Y67.318
G1 F1800 X59.768 Y67.122 E70.54697
G0 F3600 X60.063 Y66.851
G1 F1800 X60.295 Y67.083 E70.58634
G0 F3600 X60.626 Y66.849
G1 F1800 X60.354 Y66.576 E70.63259
G0 F3600 X60.645 Y66.302
G1 F1800 X60.956 Y66.613 E70.68537
G0 F3600 X61.287 Y66.378
G1 F1800 X60.934 Y66.026 E70.74519
G0 F3600 X61.221 Y65.746
G1 F1800 X61.618 Y66.144 E70.81265
G0 F3600 X61.948 Y65.908
G1 F1800 X61.508 Y65.468 E70.88732
G0 F3600 X61.793 Y65.187
G1 F1800 X62.279 Y65.673 E70.96979
G0 F3600 X62.61 Y65.439
G1 F1800 X62.076 Y64.904 E71.0605
G0 F3600 X62.359 Y64.621
G1 F1800 X62.941 Y65.204 E71.15935
G0 F3600 X63.271 Y64.968
G1 F1800 X62.642 Y64.339 E71.2661
G0 F3600 X62.926 Y64.058
G1 F1800 X63.602 Y64.734 E71.38082
G0 F3600 X63.933 Y64.499
G1 F1800 X63.218 Y63.783 E71.50225
G0 F3600 X63.515 Y63.515
G1 F1800 X64.263 Y64.263 E71.62918
G0 F3600 X64.594 Y64.029
G1 F1800 X63.817 Y63.251 E71.76113
G0 F3600 X64.126 Y62.994
G1 F1800 X64.925 Y63.794 E71.89681
G0 F3600 X65.256 Y63.559
G1 F1800 X64.441 Y62.744 E72.03512
G0 F3600 X64.761 Y62.499
G1 F1800 X65.586 Y63.324 E72.17513
G0 F3600 X65.917 Y63.089
G1 F1800 X65.087 Y62.258 E72.31607
G0 F3600 X65.417 Y62.023
G1 F1800 X66.248 Y62.854 E72.45709
G0 F3600 X66.579 Y62.619
G1 F1800 X65.748 Y61.788 E72.59812
G0 F3600 X66.079 Y61.553
G1 F1800 X66.909 Y62.384 E72.73906
G0 F3600 X67.24 Y62.149
G1 F1800 X66.409 Y61.318 E72.88009
G0 F3600 X66.74 Y61.083
G1 F1800 X67.571 Y61.914 E73.02111
G0 F3600 X67.902 Y61.679
G1 F1800 X67.071 Y60.848 E73.16214
G0 F3600 X67.401 Y60.613
G1 F1800 X68.232 Y61.444 E73.30316
G0 F3600 X68.561 Y61.207
G1 F1800 X67.732 Y60.378 E73.44385
G0 F3600 X68.063 Y60.143
G1 F1800 X68.87 Y60.951 E73.58088
G0 F3600 X69.174 Y60.688
G1 F1800 X68.394 Y59.908 E73.71326
G0 F3600 X68.72 Y59.669
G1 F1800 X69.451 Y60.4 E73.83731
G0 F3600 X69.715 Y60.099
G1 F1800 X69.038 Y59.421 E73.95229
