;FLAVOR:UltiGCode
;TIME:2473
;MATERIAL:1446
;MATERIAL2:0
;NOZZLE_DIAMETER:0.4
;MINX:42.919
;MINY:26.068
;MINZ:0.3
;MAXX:77.422
;MAXY:94.494
;MAXZ:5.16
;Generated with Cura_SteamEngine 4.7.1
M82 ;absolute extrusion mode
G0 F3000 Y50 ;avoid prime blob
G92 E0
G92 E0
G10
;LAYER_COUNT:82
;LAYER:0
M107
G0 F3600 X44.18 Y33.133 Z0.3
;TYPE:SKIRT
G11
G1 F1800 X44.309 Y32.972 E0.02476
G1 X44.806 Y32.48 E0.10868
G1 X45.156 Y32.195 E0.16284
G1 X45.596 Y31.889 E0.22715
G1 X45.883 Y31.736 E0.26618
G1 X46.396 Y31.492 E0.33435
G1 X46.509 Y31.441 E0.34923
G1 X47.087 Y31.19 E0.42485
G1 X49.615 Y30.05 E0.75762
G1 X52.062 Y28.862 E1.08404
G1 X53.818 Y27.933 E1.32243
G1 X53.844 Y27.921 E1.32587
G1 X55.153 Y27.242 E1.50282
G1 X55.807 Y26.934 E1.58957
G1 X56.343 Y26.721 E1.65878
G1 X56.984 Y26.508 E1.73984
G1 X57.49 Y26.372 E1.80271
G1 X58.065 Y26.25 E1.87325
G1 X58.651 Y26.155 E1.94449
G1 X59.211 Y26.098 E2.01204
G1 X59.781 Y26.071 E2.08051
G1 X60.066 Y26.068 E2.11471
G1 X60.602 Y26.087 E2.17907
G1 X61.117 Y26.127 E2.24106
G1 X61.855 Y26.231 E2.3305
G1 X62.418 Y26.349 E2.39952
G1 X63.095 Y26.53 E2.48362
G1 X63.727 Y26.746 E2.56376
G1 X64.364 Y27.009 E2.64646
G1 X64.872 Y27.256 E2.71425
G1 X65.82 Y27.763 E2.84325
G1 X68.251 Y29.018 E3.17155
G1 X70.681 Y30.187 E3.49514
G1 X73.434 Y31.412 E3.85673
G1 X73.811 Y31.574 E3.90597
G1 X74.345 Y31.859 E3.97861
G1 X74.787 Y32.149 E4.04204
G1 X74.849 Y32.193 E4.05117
G1 X75.375 Y32.649 E4.1347
G1 X75.703 Y32.994 E4.19183
G1 X76.043 Y33.409 E4.25621
G1 X76.438 Y34.066 E4.3482
G1 X76.671 Y34.549 E4.41255
G1 X76.915 Y35.323 E4.50994
G1 X77.028 Y35.847 E4.57426
G1 X77.075 Y36.495 E4.65223
G1 X77.076 Y37.041 E4.71775
G1 X76.987 Y38.469 E4.88944
G1 X76.954 Y38.98 E4.95089
G1 X76.835 Y41.653 E5.27196
G1 X76.79 Y44.422 E5.60429
G1 X76.824 Y47.168 E5.93383
G1 X76.934 Y49.895 E6.26134
G1 X77.013 Y51.049 E6.40014
G1 X77.075 Y52.234 E6.54254
G1 X77.076 Y52.794 E6.60974
G1 X77.001 Y53.993 E6.7539
G1 X76.987 Y54.177 E6.77604
G1 X76.852 Y56.85 E7.09721
G1 X76.792 Y59.578 E7.42465
G1 X76.81 Y62.311 E7.75262
G1 X76.903 Y65.039 E8.08017
G1 X76.992 Y66.384 E8.24192
G1 X77.075 Y67.97 E8.4325
G1 X77.081 Y68.422 E8.48675
G1 X77.051 Y69.29 E8.59097
G1 X76.993 Y70.494 E8.73562
G1 X76.939 Y73.182 E9.05824
G1 X76.961 Y75.919 E9.38669
G1 X77.062 Y78.657 E9.71548
G1 X77.285 Y81.949 E10.11142
G1 X77.38 Y83.069 E10.2463
G1 X77.388 Y83.184 E10.26014
G1 X77.422 Y83.831 E10.33788
G1 X77.41 Y84.367 E10.40222
G1 X77.276 Y85.167 E10.49956
G1 X77.139 Y85.686 E10.56397
G1 X76.843 Y86.381 E10.65462
G1 X76.588 Y86.853 E10.719
G1 X76.122 Y87.482 E10.81293
G1 X75.765 Y87.882 E10.87727
G1 X75.173 Y88.379 E10.97003
G1 X74.732 Y88.685 E11.03444
G1 X74.034 Y89.034 E11.12809
G1 X73.918 Y89.087 E11.14339
G1 X73.065 Y89.459 E11.25506
G1 X70.515 Y90.615 E11.59104
G1 X68.105 Y91.791 E11.91283
G1 X66.532 Y92.625 E12.12648
G1 X66.506 Y92.637 E12.12992
G1 X65.225 Y93.303 E12.30317
G1 X64.532 Y93.63 E12.39512
G1 X64.026 Y93.833 E12.46055
G1 X63.537 Y94.001 E12.52259
G1 X62.838 Y94.195 E12.60964
G1 X62.346 Y94.301 E12.67004
G1 X61.853 Y94.385 E12.73005
G1 X61.144 Y94.463 E12.81565
G1 X60.274 Y94.494 E12.92011
G1 X59.769 Y94.478 E12.98074
G1 X59.198 Y94.432 E13.04948
G1 X58.502 Y94.332 E13.13386
G1 X58.011 Y94.234 E13.19394
G1 X57.498 Y94.104 E13.25745
G1 X56.82 Y93.89 E13.34277
G1 X56.27 Y93.677 E13.41354
G1 X55.717 Y93.424 E13.48652
G1 X54.552 Y92.804 E13.64488
G1 X52.063 Y91.522 E13.98085
G1 X49.623 Y90.353 E14.30552
G1 X46.79 Y89.098 E14.67735
G1 X46.555 Y88.997 E14.70804
G1 X46.018 Y88.71 E14.78111
G1 X45.614 Y88.448 E14.83889
G1 X45.187 Y88.124 E14.90321
G1 X44.645 Y87.572 E14.99604
G1 X44.306 Y87.157 E15.06035
G1 X43.899 Y86.48 E15.15514
G1 X43.666 Y85.997 E15.21949
G1 X43.433 Y85.254 E15.31293
G1 X43.321 Y84.729 E15.37735
G1 X43.269 Y83.968 E15.46888
G1 X43.266 Y83.564 E15.51736
G1 X43.302 Y82.612 E15.63168
G1 X43.343 Y81.819 E15.72697
G1 X43.405 Y79.095 E16.05394
G1 X43.39 Y76.361 E16.38202
G1 X43.299 Y73.636 E16.7092
G1 X43.129 Y70.922 E17.03552
G1 X43.059 Y70.175 E17.12555
G1 X43.057 Y70.082 E17.13672
G1 X42.956 Y68.849 E17.28517
G1 X42.925 Y68.295 E17.35176
G1 X42.924 Y67.738 E17.4186
G1 X43.014 Y66.299 E17.59161
G1 X43.03 Y66.087 E17.61713
G1 X43.158 Y63.366 E17.94401
G1 X43.21 Y60.669 E18.26771
G1 X43.183 Y57.903 E18.59964
G1 X43.083 Y55.229 E18.92075
G1 X43.001 Y54.014 E19.06688
G1 X42.925 Y52.566 E19.24088
G1 X42.925 Y52.001 E19.30868
G1 X43.015 Y50.575 E19.48014
G1 X43.041 Y50.183 E19.52728
G1 X43.165 Y47.443 E19.85642
G1 X43.211 Y44.733 E20.18166
G1 X43.179 Y41.983 E20.51169
G1 X43.073 Y39.293 E20.83474
G1 X42.992 Y38.1 E20.97823
G1 X42.921 Y36.726 E21.14333
G1 X42.919 Y36.648 E21.15269
G1 X42.978 Y35.9 E21.24273
G1 X43.072 Y35.393 E21.30461
G1 X43.209 Y34.874 E21.36902
G1 X43.51 Y34.166 E21.46134
G1 X43.765 Y33.694 E21.52572
G1 X44.18 Y33.133 E21.60945
G0 F3600 X44.573 Y33.281
G1 F1800 X44.617 Y33.228 E21.61772
G1 X45.058 Y32.791 E21.69222
G1 X45.408 Y32.506 E21.74638
G1 X45.824 Y32.218 E21.8071
G1 X46.055 Y32.097 E21.83839
G1 X46.568 Y31.853 E21.90656
G1 X46.668 Y31.808 E21.91972
G1 X47.261 Y31.551 E21.99728
G1 X49.789 Y30.411 E22.33005
G1 X52.222 Y29.229 E22.65465
G1 X54.005 Y28.286 E22.89669
G1 X54.033 Y28.274 E22.90034
G1 X55.338 Y27.597 E23.07676
G1 X55.972 Y27.299 E23.16083
G1 X56.477 Y27.098 E23.22605
G1 X57.101 Y26.891 E23.30494
G1 X57.591 Y26.759 E23.36584
G1 X58.134 Y26.643 E23.43247
G1 X58.706 Y26.551 E23.50199
G1 X59.25 Y26.497 E23.56759
G1 X59.785 Y26.471 E23.63187
G1 X60.07 Y26.468 E23.66607
G1 X60.584 Y26.486 E23.72779
G1 X61.339 Y26.556 E23.81878
G1 X61.962 Y26.658 E23.89453
G1 X62.62 Y26.81 E23.97557
G1 X63.407 Y27.054 E24.07445
G1 X63.877 Y27.236 E24.13493
G1 X64.357 Y27.446 E24.1978
G1 X64.683 Y27.609 E24.24154
G1 X65.59 Y28.094 E24.36496
G1 X68.073 Y29.376 E24.70029
G1 X70.523 Y30.554 E25.02651
G1 X73.314 Y31.796 E25.39309
G1 X73.653 Y31.942 E25.43739
G1 X74.127 Y32.195 E25.50186
G1 X74.556 Y32.475 E25.56334
G1 X74.618 Y32.519 E25.57246
G1 X75.085 Y32.924 E25.64664
G1 X75.413 Y33.269 E25.70376
G1 X75.865 Y33.873 E25.79429
G1 X76.092 Y34.266 E25.84875
G1 X76.389 Y34.957 E25.93901
G1 X76.531 Y35.436 E25.99896
G1 X76.659 Y36.183 E26.08991
G1 X76.682 Y36.747 E26.15764
G1 X76.677 Y37.016 E26.18993
G1 X76.587 Y38.452 E26.36258
G1 X76.554 Y38.966 E26.42439
G1 X76.434 Y41.679 E26.75027
G1 X76.39 Y44.434 E27.08091
G1 X76.424 Y47.189 E27.41154
G1 X76.533 Y49.903 E27.73748
G1 X76.614 Y51.07 E27.87786
G1 X76.676 Y52.255 E28.02025
G1 X76.677 Y52.769 E28.08193
G1 X76.602 Y53.963 E28.22549
G1 X76.591 Y54.112 E28.24342
G1 X76.452 Y56.857 E28.57324
G1 X76.392 Y59.571 E28.899
G1 X76.41 Y62.326 E29.22961
G1 X76.503 Y65.05 E29.55668
G1 X76.593 Y66.405 E29.71964
G1 X76.676 Y67.991 E29.91022
G1 X76.681 Y68.409 E29.96038
G1 X76.651 Y69.271 E30.06389
G1 X76.593 Y70.468 E30.2077
G1 X76.539 Y73.182 E30.53344
G1 X76.562 Y75.936 E30.86393
G1 X76.662 Y78.667 E31.19187
G1 X76.883 Y81.935 E31.58493
G1 X76.982 Y83.103 E31.72559
G1 X76.989 Y83.205 E31.73786
G1 X77.023 Y83.852 E31.81561
G1 X76.973 Y84.603 E31.90592
G1 X76.882 Y85.094 E31.96585
G1 X76.751 Y85.582 E32.02648
G1 X76.478 Y86.218 E32.10954
G1 X76.097 Y86.858 E32.19891
G1 X75.805 Y87.239 E32.25652
G1 X75.279 Y87.779 E32.34698
G1 X74.921 Y88.069 E32.40226
G1 X74.289 Y88.468 E32.49195
G1 X73.758 Y88.72 E32.56249
G1 X72.857 Y89.113 E32.68044
G1 X70.381 Y90.236 E33.0067
G1 X67.909 Y91.442 E33.33675
G1 X66.345 Y92.271 E33.54917
G1 X66.321 Y92.282 E33.55234
G1 X64.968 Y92.985 E33.73531
G1 X64.368 Y93.265 E33.81476
G1 X63.893 Y93.456 E33.8762
G1 X63.198 Y93.685 E33.96401
G1 X62.554 Y93.851 E34.04381
G1 X61.965 Y93.963 E34.11576
G1 X61.451 Y94.031 E34.17798
G1 X60.763 Y94.085 E34.26079
G1 X60.088 Y94.091 E34.34179
G1 X59.431 Y94.054 E34.42076
G1 X58.926 Y93.993 E34.4818
G1 X58.258 Y93.879 E34.56312
G1 X57.761 Y93.761 E34.62442
G1 X57.251 Y93.612 E34.68817
G1 X56.774 Y93.448 E34.7487
G1 X56.136 Y93.183 E34.8316
G1 X55.905 Y93.071 E34.86241
G1 X54.735 Y92.448 E35.02147
G1 X52.268 Y91.178 E35.35444
G1 X49.792 Y89.991 E35.68394
G1 X46.948 Y88.731 E36.05721
G1 X46.713 Y88.63 E36.08791
G1 X46.236 Y88.375 E36.15281
G1 X45.832 Y88.113 E36.21059
G1 X45.252 Y87.631 E36.30109
G1 X44.935 Y87.297 E36.35635
G1 X44.485 Y86.694 E36.44664
G1 X44.246 Y86.28 E36.504
G1 X44.028 Y85.823 E36.56476
G1 X43.817 Y85.141 E36.65043
G1 X43.691 Y84.4 E36.74062
G1 X43.664 Y83.785 E36.8145
G1 X43.666 Y83.578 E36.83934
G1 X43.701 Y82.632 E36.95293
G1 X43.743 Y81.813 E37.05134
G1 X43.805 Y79.102 E37.37675
G1 X43.79 Y76.346 E37.70747
G1 X43.699 Y73.632 E38.03334
G1 X43.528 Y70.89 E38.36302
G1 X43.457 Y70.137 E38.45378
G1 X43.456 Y70.045 E38.46482
G1 X43.355 Y68.816 E38.61279
G1 X43.325 Y68.274 E38.67793
G1 X43.323 Y67.763 E38.73925
G1 X43.413 Y66.329 E38.91167
G1 X43.43 Y66.101 E38.93911
G1 X43.558 Y63.392 E39.26455
G1 X43.61 Y60.669 E39.59137
G1 X43.583 Y57.92 E39.92127
G1 X43.481 Y55.187 E40.24946
G1 X43.4 Y53.993 E40.39306
G1 X43.324 Y52.545 E40.56706
G1 X43.324 Y52.026 E40.62934
G1 X43.414 Y50.6 E40.8008
G1 X43.44 Y50.193 E40.84974
G1 X43.564 Y47.467 E41.1772
G1 X43.61 Y44.715 E41.50749
G1 X43.579 Y41.962 E41.83787
G1 X43.474 Y39.298 E42.1578
G1 X43.391 Y38.08 E42.3043
G1 X43.324 Y36.802 E42.45787
G1 X43.319 Y36.638 E42.47756
G1 X43.372 Y35.973 E42.55761
G1 X43.466 Y35.466 E42.61949
G1 X43.69 Y34.743 E42.71031
G1 X43.875 Y34.329 E42.76473
G1 X44.259 Y33.686 E42.8546
G1 X44.573 Y33.281 E42.9161
G10
;MESH:enc_holder_3.stl(2)
G0 F3600 X46.559 Y34.842
G0 X47.251 Y35.392
G0 X48.954 Y35.291
G0 X55.034 Y38.351
;TYPE:WALL-INNER
G11
G1 F1800 X54.505 Y38.501 E42.98208
G1 X54.354 Y38.627 E43.00568
G1 X54.135 Y38.846 E43.04285
G1 X54.07 Y38.911 E43.05388
G1 X54.014 Y38.967 E43.06338
G1 X53.916 Y38.758 E43.07932
G1 X53.852 Y38.691 E43.08861
G1 X53.546 Y38.369 E43.14192
G1 X53.094 Y38.134 E43.20305
G1 X52.633 Y38.058 E43.25912
G1 X49.766 Y38.058 E43.60316
G1 X49.662 Y38.058 E43.61564
G1 X49.278 Y38.057 E43.66172
G1 X49.662 Y37.769 E43.68793
G1 X49.72 Y37.683 E43.69884
G1 X49.958 Y37.332 E43.74973
G1 X50.099 Y36.834 E43.81184
G1 X50.067 Y36.293 E43.87688
G1 X49.862 Y35.804 E43.9405
G1 X49.695 Y35.615 E43.97077
G1 X49.512 Y35.408 E44.00392
G1 X49.247 Y35.258 E44.04046
G1 X49.512 Y35.258 E44.04545
G1 X49.789 Y35.258 E44.06924
G1 X52.643 Y35.258 E44.41172
G1 X53.106 Y35.179 E44.46809
G1 X53.56 Y34.934 E44.52999
G1 X53.913 Y34.56 E44.59171
G1 X54.164 Y34.033 E44.66175
G1 X54.411 Y33.54 E44.72792
G1 X54.644 Y33.16 E44.78141
G1 X54.69 Y33.085 E44.79197
G1 X54.845 Y32.874 E44.82339
G1 X55.011 Y32.649 E44.85694
G1 X55.086 Y32.563 E44.87063
G1 X55.069 Y32.659 E44.87098
G1 X55.007 Y32.992 E44.8871
G1 X55.012 Y33.017
G1 X55.03 Y33.104 E44.89688
G1 X55.112 Y33.491 E44.94435
G1 X55.401 Y33.914 E45.00583
G1 X55.831 Y34.193 E45.06734
G1 X56.149 Y34.252 E45.10615
G1 X56.165 Y34.255 E45.1081
G1 X56.311 Y34.283 E45.12594
G1 X56.097 Y34.62 E45.15859
G1 X56.091 Y34.635 E45.16047
G1 X55.814 Y35.3 E45.24692
G1 X55.644 Y36.027 E45.33651
G1 X55.599 Y36.763 E45.425
G1 X55.683 Y37.523 E45.51675
G1 X55.891 Y38.238 E45.60611
G1 X56.025 Y38.514 E45.64292
G1 X56.216 Y38.91 E45.69568
G1 X56.652 Y39.517 E45.78537
G1 X57.183 Y40.041 E45.87489
G1 X57.796 Y40.469 E45.9646
G1 X58.143 Y40.631 E46.01056
G1 X58.47 Y40.784 E46.05388
G1 X59.189 Y40.984 E46.14344
G1 X59.931 Y41.058 E46.23292
G1 X60.675 Y41.009 E46.32239
G1 X61.399 Y40.831 E46.41186
G1 X62.04 Y40.552 E46.49575
G1 X62.09 Y40.531 E46.50226
G1 X62.373 Y40.347 E46.54276
G1 X62.371 Y40.356
G1 X62.394 Y40.466
G1 X62.405 Y40.519 E46.5487
G1 X62.476 Y40.854 E46.58979
G1 X62.765 Y41.278 E46.65137
G1 X63.195 Y41.557 E46.71288
G1 X63.442 Y41.604 E46.74305
G1 X63.696 Y41.651 E46.77405
G1 X63.82 Y41.625 E46.78925
G1 X64.096 Y41.567 E46.82309
G1 X63.851 Y41.768 E46.83254
G1 X63.801 Y41.802
G1 X63.588 Y41.949 E46.85581
G1 X63.414 Y42.07 E46.88124
G1 X62.958 Y42.333 E46.94441
G1 X62.487 Y42.554 E47.00684
G1 X61.984 Y42.741 E47.07124
G1 X61.472 Y42.884 E47.13503
G1 X60.962 Y42.983 E47.19737
G1 X60.421 Y43.042 E47.26268
G1 X59.889 Y43.057 E47.32654
G1 X59.367 Y43.026 E47.38929
G1 X58.835 Y42.95 E47.45378
G1 X58.32 Y42.833 E47.51716
G1 X58.044 Y42.745 E47.55192
G1 X57.815 Y42.673 E47.58073
G1 X57.706 Y42.628 E47.59488
G1 X57.738 Y42.596
G1 X57.907 Y42.427 E47.6146
G1 X58.087 Y42.247 E47.64515
G1 X58.305 Y41.763 E47.70885
G1 X58.156 Y41.225 E47.77584
G1 X58.022 Y41.07 E47.80042
G1 X57.879 Y40.927 E47.82469
G1 X57.609 Y40.657 E47.86287
G1 X57.088 Y40.136 E47.90679
G1 X56.561 Y39.609 E47.93615
G1 X56.039 Y39.088 E47.97917
G1 X55.728 Y38.777 E48.02224
G1 X55.521 Y38.57 E48.05737
G1 X55.034 Y38.351 E48.12144
G0 F3600 X57.879 Y40.331
G0 X59.217 Y40.825
G0 X60.653 Y40.849
G0 X62.014 Y40.389
G0 X63.615 Y39.293
G0 X64.599 Y39.402
G1 F1800 X64.169 Y39.122 E48.18302
G1 X63.954 Y39.081 E48.20928
G1 X63.703 Y39.035 E48.23991
G1 X63.715 Y39.019 E48.24231
G1 X63.833 Y38.793 E48.26117
G1 X64.058 Y38.362 E48.31952
G1 X64.288 Y37.652 E48.40907
G1 X64.393 Y36.917 E48.49817
G1 X64.377 Y36.171 E48.58771
G1 X64.231 Y35.438 E48.6774
G1 X63.964 Y34.742 E48.76685
G1 X63.583 Y34.1 E48.85644
G1 X63.1 Y33.532 E48.94591
G1 X62.527 Y33.054 E49.03545
G1 X61.883 Y32.679 E49.12488
G1 X61.183 Y32.418 E49.21453
G1 X60.452 Y32.279 E49.30382
G1 X59.705 Y32.264 E49.39348
G1 X58.96 Y32.38 E49.48396
G1 X58.251 Y32.617 E49.57366
G1 X57.862 Y32.827 E49.62671
G1 X57.628 Y32.954 E49.65866
G1 X57.573 Y32.693 E49.67782
G1 X57.524 Y32.461 E49.70628
G1 X57.235 Y32.038 E49.76775
G1 X56.805 Y31.758 E49.82933
G1 X56.558 Y31.712 E49.85948
G1 X56.302 Y31.665 E49.89071
G1 X56.174 Y31.691 E49.90639
G1 X55.902 Y31.749 E49.93976
G1 X56.144 Y31.551 E49.94894
G1 X56.197 Y31.514
G1 X56.412 Y31.366 E49.97243
G1 X56.593 Y31.241 E49.99882
G1 X57.046 Y30.981 E50.0615
G1 X57.523 Y30.757 E50.12474
G1 X58.018 Y30.573 E50.18811
G1 X58.537 Y30.428 E50.25278
G1 X59.045 Y30.332 E50.31481
G1 X59.589 Y30.273 E50.38048
G1 X60.119 Y30.258 E50.4441
G1 X60.647 Y30.291 E50.50759
G1 X61.172 Y30.366 E50.57123
G1 X61.694 Y30.487 E50.63553
G1 X62.195 Y30.646 E50.6986
G1 X62.703 Y30.857 E50.76461
G1 X63.155 Y31.09 E50.82563
G1 X63.629 Y31.388 E50.89282
G1 X64.035 Y31.691 E50.95361
G1 X64.443 Y32.052 E51.01899
G1 X64.805 Y32.431 E51.08188
G1 X65.148 Y32.858 E51.1476
G1 X65.439 Y33.287 E51.20981
G1 X65.699 Y33.749 E51.27343
G1 X65.948 Y34.292 E51.34511
G1 X66.194 Y34.702 E51.40249
G1 X66.591 Y35.038 E51.4649
G1 X67.056 Y35.222 E51.52491
G1 X67.383 Y35.258 E51.56439
G1 X70.201 Y35.258 E51.90255
G1 X70.537 Y35.258 E51.94287
G1 X70.753 Y35.258 E51.96879
G1 X70.537 Y35.37 E51.97494
G1 X70.305 Y35.613 E52.00189
G1 X70.171 Y35.753 E52.02515
G1 X69.949 Y36.235 E52.08883
G1 X69.896 Y36.76 E52.15215
G1 X70.017 Y37.276 E52.21575
G1 X70.266 Y37.673 E52.27198
G1 X70.296 Y37.722 E52.27887
G1 X70.707 Y38.057 E52.3425
G1 X70.297 Y38.057 E52.3608
G1 X70.239 Y38.057 E52.36728
G1 X67.357 Y38.058 E52.71312
G1 X66.894 Y38.137 E52.76948
G1 X66.441 Y38.38 E52.83117
G1 X66.087 Y38.755 E52.89305
G1 X65.836 Y39.282 E52.9631
G1 X65.589 Y39.775 E53.02927
G1 X65.356 Y40.155 E53.08276
G1 X65.311 Y40.229 E53.09315
G1 X65.155 Y40.442 E53.12483
G1 X64.994 Y40.66 E53.15735
G1 X64.914 Y40.752 E53.17198
G1 X64.933 Y40.649 E53.17238
G1 X64.993 Y40.324 E53.18832
G1 X64.988 Y40.298
G1 X64.97 Y40.213 E53.19789
G1 X64.888 Y39.825 E53.24548
G1 X64.599 Y39.402 E53.30695
G0 F3600 X63.631 Y39.2
G0 X63.327 Y39.508
;TYPE:WALL-OUTER
G1 F1800 X63.159 Y39.623 E53.33138
G1 X63.036 Y39.708 E53.34933
G1 X62.843 Y40.003 E53.39163
G1 X62.779 Y40.351 E53.43409
G1 X62.851 Y40.694 E53.47615
G1 X63.05 Y40.986 E53.51855
G1 X63.346 Y41.178 E53.56089
G1 X63.692 Y41.243 E53.60313
G1 X64.037 Y41.171 E53.64543
G1 X64.328 Y40.972 E53.68773
G1 X64.521 Y40.676 E53.73013
G1 X64.585 Y40.329 E53.77248
G1 X64.513 Y39.985 E53.81465
G1 X64.314 Y39.694 E53.85695
G1 X64.018 Y39.501 E53.89936
G1 X63.672 Y39.437 E53.94158
G1 X63.343 Y39.505 E53.9819
G1 X63.327 Y39.508 E53.98385
G0 F3600 X63.162 Y39.621
G0 X63.107 Y39.539
G0 X63.908 Y38.3
G0 X64.279 Y36.211
G0 X63.978 Y36.215
G1 F1800 X63.845 Y35.549 E54.06535
G1 X63.603 Y34.917 E54.14656
G1 X63.256 Y34.333 E54.22808
