;FLAVOR:UltiGCode
;TIME:1510
;MATERIAL:872
;MATERIAL2:0
;NOZZLE_DIAMETER:0.4
;MINX:43.512
;MINY:43.519
;MINZ:0.3
;MAXX:76.481
;MAXY:76.483
;MAXZ:7.98
;Generated with Cura_SteamEngine 4.7.1
M82 ;absolute extrusion mode
G0 F3000 Y50 ;avoid prime blob
G92 E0
G92 E0
G10
;LAYER_COUNT:129
;LAYER:0
M107
G0 F3600 X48.363 Y48.325 Z0.3
;TYPE:SKIRT
G11
G1 F1800 X48.555 Y48.138 E0.03216
G1 X49.19 Y47.557 E0.13544
G1 X49.394 Y47.383 E0.16762
G1 X50.045 Y46.863 E0.2676
G1 X50.261 Y46.701 E0.3
G1 X50.963 Y46.214 E0.40253
G1 X51.194 Y46.065 E0.43551
G1 X51.947 Y45.616 E0.54072
G1 X52.189 Y45.483 E0.57386
G1 X52.896 Y45.125 E0.66895
G1 X53.137 Y45.013 E0.70084
G1 X53.969 Y44.659 E0.80934
G1 X54.224 Y44.561 E0.84213
G1 X54.965 Y44.304 E0.93624
G1 X55.227 Y44.223 E0.96915
G1 X56.121 Y43.98 E1.08032
G1 X56.382 Y43.918 E1.11252
G1 X57.158 Y43.762 E1.2075
G1 X57.425 Y43.718 E1.23997
G1 X58.277 Y43.606 E1.34309
G1 X58.549 Y43.58 E1.37588
G1 X59.399 Y43.527 E1.47808
G1 X59.671 Y43.519 E1.51073
G1 X60.536 Y43.524 E1.61453
G1 X60.806 Y43.535 E1.64696
G1 X61.609 Y43.594 E1.74358
G1 X61.882 Y43.623 E1.77652
G1 X62.763 Y43.749 E1.88332
G1 X63.028 Y43.796 E1.91562
G1 X63.847 Y43.97 E2.01609
G1 X64.112 Y44.036 E2.04886
G1 X64.898 Y44.26 E2.14694
G1 X65.153 Y44.342 E2.17908
G1 X65.986 Y44.641 E2.28528
G1 X66.24 Y44.742 E2.31808
G1 X66.998 Y45.074 E2.41739
G1 X67.246 Y45.193 E2.4504
G1 X68.017 Y45.596 E2.55479
G1 X68.248 Y45.727 E2.58666
G1 X68.959 Y46.161 E2.68662
G1 X69.189 Y46.312 E2.71964
G1 X69.87 Y46.795 E2.81982
G1 X70.09 Y46.963 E2.85304
G1 X70.764 Y47.515 E2.95758
G1 X70.968 Y47.694 E2.99015
G1 X71.588 Y48.276 E3.0922
G1 X71.776 Y48.465 E3.12418
G1 X72.325 Y49.054 E3.22081
G1 X72.501 Y49.255 E3.25287
G1 X73.075 Y49.96 E3.36196
G1 X73.24 Y50.178 E3.39477
G1 X73.714 Y50.849 E3.49335
G1 X73.867 Y51.082 E3.5268
G1 X74.293 Y51.784 E3.62534
G1 X74.422 Y52.015 E3.65709
G1 X74.833 Y52.806 E3.76406
G1 X74.954 Y53.058 E3.7976
G1 X75.285 Y53.821 E3.89741
G1 X75.381 Y54.064 E3.92876
G1 X75.655 Y54.829 E4.02627
G1 X75.741 Y55.098 E4.06016
G1 X75.979 Y55.947 E4.16597
G1 X76.042 Y56.205 E4.19784
G1 X76.221 Y57.057 E4.30231
G1 X76.268 Y57.327 E4.3352
G1 X76.379 Y58.123 E4.43164
G1 X76.407 Y58.393 E4.46422
G1 X76.469 Y59.269 E4.5696
G1 X76.479 Y59.541 E4.60226
G1 X76.481 Y60.379 E4.70282
G1 X76.473 Y60.647 E4.735
G1 X76.419 Y61.484 E4.83564
G1 X76.392 Y61.757 E4.86856
G1 X76.275 Y62.63 E4.97426
G1 X76.229 Y62.898 E5.00689
G1 X76.071 Y63.673 E5.1018
G1 X76.009 Y63.935 E5.13411
G1 X75.769 Y64.807 E5.24264
G1 X75.689 Y65.064 E5.27494
G1 X75.423 Y65.826 E5.37179
G1 X75.321 Y66.087 E5.40542
G1 X74.982 Y66.876 E5.50847
G1 X74.868 Y67.118 E5.54057
G1 X74.464 Y67.908 E5.64705
G1 X74.335 Y68.142 E5.67911
G1 X73.929 Y68.82 E5.77394
G1 X73.779 Y69.052 E5.8071
G1 X73.264 Y69.791 E5.91519
G1 X73.101 Y70.006 E5.94756
G1 X72.611 Y70.617 E6.04155
G1 X72.433 Y70.824 E6.07431
G1 X71.827 Y71.482 E6.18165
G1 X71.637 Y71.675 E6.21415
G1 X71.025 Y72.255 E6.31533
G1 X70.824 Y72.433 E6.34755
G1 X70.184 Y72.963 E6.44727
G1 X69.967 Y73.131 E6.4802
G1 X69.264 Y73.636 E6.58407
G1 X69.034 Y73.789 E6.61722
G1 X68.313 Y74.235 E6.71895
G1 X68.081 Y74.368 E6.75104
G1 X67.341 Y74.76 E6.85153
G1 X67.097 Y74.879 E6.88411
G1 X66.325 Y75.223 E6.98553
G1 X66.07 Y75.326 E7.01853
G1 X65.26 Y75.622 E7.12202
G1 X65.004 Y75.706 E7.15435
G1 X64.199 Y75.94 E7.25495
G1 X63.941 Y76.006 E7.28691
G1 X63.109 Y76.189 E7.38913
G1 X62.84 Y76.238 E7.42195
G1 X62.008 Y76.362 E7.52289
G1 X61.731 Y76.394 E7.55635
G1 X60.865 Y76.462 E7.66059
G1 X60.596 Y76.474 E7.6929
G1 X59.776 Y76.483 E7.79131
G1 X59.507 Y76.477 E7.82359
G1 X58.636 Y76.428 E7.92828
G1 X58.365 Y76.403 E7.96094
G1 X57.533 Y76.299 E8.06156
G1 X57.268 Y76.257 E8.09375
G1 X56.448 Y76.098 E8.19398
G1 X56.176 Y76.035 E8.22749
G1 X55.334 Y75.81 E8.33207
G1 X55.077 Y75.732 E8.3643
G1 X54.302 Y75.468 E8.46255
G1 X54.047 Y75.372 E8.49525
G1 X53.23 Y75.03 E8.60153
G1 X52.988 Y74.919 E8.63348
G1 X52.261 Y74.556 E8.73099
G1 X52.019 Y74.424 E8.76407
G1 X51.258 Y73.976 E8.87004
G1 X51.023 Y73.827 E8.90343
G1 X50.35 Y73.365 E9.00139
G1 X50.136 Y73.207 E9.03331
G1 X49.462 Y72.675 E9.13635
G1 X49.257 Y72.502 E9.16854
G1 X48.62 Y71.926 E9.27159
G1 X48.421 Y71.733 E9.30486
G1 X47.832 Y71.121 E9.40679
G1 X47.654 Y70.923 E9.43874
G1 X47.128 Y70.298 E9.53676
G1 X46.959 Y70.083 E9.56958
G1 X46.439 Y69.372 E9.67528
G1 X46.282 Y69.141 E9.7088
G1 X45.846 Y68.448 E9.80705
G1 X45.712 Y68.218 E9.83899
G1 X45.285 Y67.427 E9.94686
G1 X45.165 Y67.185 E9.97927
G1 X44.838 Y66.467 E10.07395
G1 X44.735 Y66.219 E10.10617
G1 X44.426 Y65.399 E10.21133
G1 X44.338 Y65.138 E10.24438
G1 X44.095 Y64.328 E10.34586
G1 X44.026 Y64.068 E10.37814
G1 X43.834 Y63.226 E10.48177
G1 X43.781 Y62.949 E10.51562
G1 X43.655 Y62.135 E10.61446
G1 X43.623 Y61.874 E10.64601
G1 X43.545 Y60.988 E10.75274
G1 X43.516 Y60.454 E10.81692
G1 X43.512 Y60.225 E10.8444
G1 X43.513 Y59.714 E10.90572
G1 X43.534 Y59.2 E10.96745
G1 X43.542 Y59.072 E10.98284
G1 X43.608 Y58.261 E11.08049
G1 X43.64 Y57.987 E11.11359
G1 X43.776 Y57.087 E11.22282
G1 X43.826 Y56.817 E11.25577
G1 X43.997 Y56.048 E11.3503
G1 X44.063 Y55.791 E11.38214
G1 X44.318 Y54.921 E11.49093
G1 X44.405 Y54.66 E11.52395
G1 X44.681 Y53.913 E11.61951
G1 X44.785 Y53.657 E11.65267
G1 X45.15 Y52.846 E11.75939
G1 X45.269 Y52.605 E11.79164
G1 X45.667 Y51.859 E11.89311
G1 X45.799 Y51.63 E11.92483
G1 X46.225 Y50.945 E12.02163
G1 X46.379 Y50.715 E12.05484
G1 X46.883 Y50.017 E12.15815
G1 X47.05 Y49.802 E12.19082
G1 X47.617 Y49.12 E12.29725
G1 X47.801 Y48.913 E12.33049
G1 X48.363 Y48.325 E12.42809
G0 F3600 X48.653 Y48.602
G1 F1800 X48.825 Y48.433 E12.45703
G1 X49.46 Y47.852 E12.56031
G1 X49.643 Y47.695 E12.58925
G1 X50.294 Y47.175 E12.68923
G1 X50.489 Y47.03 E12.71839
G1 X51.191 Y46.543 E12.82091
G1 X51.399 Y46.409 E12.85061
G1 X52.152 Y45.96 E12.95581
G1 X52.37 Y45.84 E12.98567
G1 X53.077 Y45.482 E13.08077
G1 X53.294 Y45.381 E13.10949
G1 X54.126 Y45.027 E13.21799
G1 X54.355 Y44.939 E13.24743
G1 X55.096 Y44.682 E13.34155
G1 X55.332 Y44.609 E13.37119
G1 X56.226 Y44.366 E13.48236
G1 X56.46 Y44.311 E13.51121
G1 X57.236 Y44.155 E13.60619
G1 X57.477 Y44.115 E13.63551
G1 X58.329 Y44.003 E13.73863
G1 X58.574 Y43.979 E13.76817
G1 X59.424 Y43.926 E13.87037
G1 X59.669 Y43.919 E13.89978
G1 X60.534 Y43.924 E14.00358
G1 X60.777 Y43.934 E14.03276
G1 X61.58 Y43.993 E14.12938
G1 X61.826 Y44.019 E14.15907
G1 X62.707 Y44.145 E14.26586
G1 X62.945 Y44.188 E14.29489
G1 X63.764 Y44.362 E14.39536
G1 X64.003 Y44.421 E14.4249
G1 X64.789 Y44.645 E14.52298
G1 X65.018 Y44.719 E14.55186
G1 X65.851 Y45.018 E14.65806
G1 X66.079 Y45.108 E14.68747
G1 X66.837 Y45.44 E14.78678
G1 X67.061 Y45.548 E14.81662
G1 X67.832 Y45.951 E14.92101
G1 X68.04 Y46.068 E14.94965
G1 X68.751 Y46.502 E15.04961
G1 X68.958 Y46.639 E15.0794
G1 X69.639 Y47.122 E15.17959
G1 X69.837 Y47.273 E15.20947
G1 X70.511 Y47.825 E15.31401
G1 X70.694 Y47.985 E15.34318
G1 X71.314 Y48.567 E15.44522
G1 X71.483 Y48.737 E15.47399
G1 X72.032 Y49.326 E15.57061
G1 X72.191 Y49.508 E15.59961
G1 X72.765 Y50.213 E15.70871
G1 X72.913 Y50.409 E15.73818
G1 X73.387 Y51.08 E15.83676
G1 X73.525 Y51.289 E15.86682
G1 X73.951 Y51.991 E15.96535
G1 X74.068 Y52.199 E15.99399
G1 X74.479 Y52.99 E16.10096
G1 X74.587 Y53.217 E16.13113
G1 X74.918 Y53.98 E16.23093
G1 X75.004 Y54.199 E16.25917
G1 X75.278 Y54.964 E16.35668
G1 X75.355 Y55.206 E16.38715
G1 X75.593 Y56.055 E16.49296
G1 X75.65 Y56.287 E16.52163
G1 X75.829 Y57.139 E16.6261
G1 X75.872 Y57.382 E16.65571
G1 X75.983 Y58.178 E16.75216
G1 X76.008 Y58.421 E16.78147
G1 X76.07 Y59.297 E16.88685
G1 X76.079 Y59.542 E16.91627
G1 X76.081 Y60.38 E17.01683
G1 X76.074 Y60.621 E17.04576
G1 X76.02 Y61.458 E17.14641
G1 X75.995 Y61.704 E17.17609
G1 X75.878 Y62.577 E17.28178
G1 X75.837 Y62.818 E17.31112
G1 X75.679 Y63.593 E17.40603
G1 X75.623 Y63.829 E17.43514
G1 X75.383 Y64.701 E17.54367
G1 X75.311 Y64.932 E17.5727
G1 X75.045 Y65.694 E17.66955
G1 X74.954 Y65.929 E17.69979
G1 X74.615 Y66.718 E17.80284
G1 X74.512 Y66.936 E17.83178
G1 X74.108 Y67.726 E17.93825
G1 X73.992 Y67.937 E17.96715
G1 X73.586 Y68.615 E18.06198
G1 X73.451 Y68.823 E18.09174
G1 X72.936 Y69.562 E18.19983
G1 X72.789 Y69.755 E18.22894
G1 X72.299 Y70.366 E18.32292
G1 X72.139 Y70.553 E18.35246
G1 X71.533 Y71.211 E18.4598
G1 X71.361 Y71.385 E18.48916
G1 X70.749 Y71.965 E18.59034
G1 X70.569 Y72.125 E18.61924
G1 X69.929 Y72.655 E18.71896
G1 X69.733 Y72.806 E18.74865
G1 X69.03 Y73.311 E18.85252
G1 X68.824 Y73.449 E18.88227
G1 X68.103 Y73.895 E18.98401
G1 X67.894 Y74.014 E19.01287
G1 X67.154 Y74.406 E19.11336
G1 X66.934 Y74.513 E19.14271
G1 X66.162 Y74.857 E19.24414
G1 X65.933 Y74.95 E19.2738
G1 X65.123 Y75.246 E19.37728
G1 X64.892 Y75.322 E19.40646
G1 X64.087 Y75.556 E19.50706
G1 X63.855 Y75.615 E19.53579
G1 X63.023 Y75.798 E19.63802
G1 X62.781 Y75.843 E19.66755
G1 X61.949 Y75.967 E19.7685
G1 X61.7 Y75.995 E19.79856
G1 X60.834 Y76.063 E19.9028
G1 X60.592 Y76.074 E19.93187
G1 X59.772 Y76.083 E20.03028
G1 X59.53 Y76.077 E20.05933
G1 X58.659 Y76.028 E20.16401
G1 X58.414 Y76.006 E20.19353
G1 X57.582 Y75.902 E20.29415
G1 X57.344 Y75.864 E20.32307
G1 X56.524 Y75.705 E20.4233
G1 X56.28 Y75.649 E20.45335
G1 X55.438 Y75.424 E20.55793
G1 X55.206 Y75.354 E20.58701
G1 X54.431 Y75.09 E20.68526
G1 X54.202 Y75.003 E20.71465
G1 X53.385 Y74.661 E20.82094
G1 X53.167 Y74.561 E20.84972
G1 X52.44 Y74.198 E20.94723
G1 X52.222 Y74.079 E20.97703
G1 X51.461 Y73.631 E21.083
G1 X51.25 Y73.497 E21.113
G1 X50.577 Y73.035 E21.21095
G1 X50.384 Y72.893 E21.23971
G1 X49.71 Y72.361 E21.34275
G1 X49.525 Y72.205 E21.37179
G1 X48.888 Y71.629 E21.47484
G1 X48.709 Y71.455 E21.5048
G1 X48.12 Y70.843 E21.60673
G1 X47.96 Y70.665 E21.63545
G1 X47.434 Y70.04 E21.73347
G1 X47.282 Y69.847 E21.76295
G1 X46.762 Y69.136 E21.86866
G1 X46.621 Y68.928 E21.89881
G1 X46.185 Y68.235 E21.99706
G1 X46.064 Y68.028 E22.02583
G1 X45.637 Y67.237 E22.1337
G1 X45.529 Y67.019 E22.16289
G1 X45.202 Y66.301 E22.25757
G1 X45.109 Y66.078 E22.28656
G1 X44.8 Y65.258 E22.39172
G1 X44.721 Y65.023 E22.42147
G1 X44.478 Y64.213 E22.52295
G1 X44.416 Y63.979 E22.552
G1 X44.224 Y63.137 E22.65563
G1 X44.176 Y62.888 E22.68606
G1 X44.05 Y62.074 E22.7849
G1 X44.022 Y61.839 E22.8133
G1 X43.944 Y60.953 E22.92003
G1 X43.916 Y60.444 E22.98121
G1 X43.912 Y60.226 E23.00737
G1 X43.913 Y59.715 E23.06869
G1 X43.941 Y59.104 E23.14209
G1 X44.007 Y58.293 E23.23973
G1 X44.035 Y58.047 E23.26944
G1 X44.171 Y57.147 E23.37867
G1 X44.217 Y56.904 E23.40835
G1 X44.388 Y56.135 E23.50288
G1 X44.447 Y55.903 E23.53161
G1 X44.702 Y55.033 E23.6404
G1 X44.78 Y54.798 E23.67011
G1 X45.056 Y54.051 E23.76567
G1 X45.15 Y53.822 E23.79538
G1 X45.515 Y53.011 E23.9021
G1 X45.622 Y52.793 E23.93124
G1 X46.02 Y52.047 E24.0327
G1 X46.139 Y51.841 E24.06125
G1 X46.565 Y51.156 E24.15805
G1 X46.703 Y50.95 E24.18781
G1 X47.207 Y50.252 E24.29112
G1 X47.358 Y50.058 E24.32062
G1 X47.925 Y49.376 E24.42705
G1 X48.091 Y49.19 E24.45697
G1 X48.653 Y48.602 E24.55457
G0 F3600 X48.942 Y48.878
G1 F1800 X49.095 Y48.728 E24.58028
G1 X49.73 Y48.147 E24.68357
G1 X49.893 Y48.008 E24.70927
G1 X50.544 Y47.488 E24.80925
G1 X50.717 Y47.359 E24.83515
G1 X51.419 Y46.872 E24.93768
G1 X51.604 Y46.753 E24.96407
G1 X52.357 Y46.304 E25.06928
G1 X52.55 Y46.197 E25.09576
G1 X53.257 Y45.839 E25.19086
G1 X53.45 Y45.749 E25.21641
G1 X54.282 Y45.395 E25.32491
G1 X54.486 Y45.317 E25.35112
G1 X55.227 Y45.06 E25.44524
G1 X55.437 Y44.995 E25.47162
G1 X56.331 Y44.752 E25.58279
G1 X56.539 Y44.703 E25.60843
G1 X57.315 Y44.547 E25.70341
G1 X57.529 Y44.511 E25.72946
G1 X58.381 Y44.399 E25.83257
G1 X58.599 Y44.378 E25.85886
G1 X59.449 Y44.325 E25.96105
G1 X59.666 Y44.319 E25.9871
G1 X60.531 Y44.324 E26.09091
G1 X60.747 Y44.333 E26.11685
G1 X61.55 Y44.392 E26.21347
G1 X61.769 Y44.415 E26.23989
G1 X62.65 Y44.541 E26.34669
G1 X62.862 Y44.579 E26.37253
G1 X63.681 Y44.753 E26.47301
G1 X63.893 Y44.806 E26.49923
G1 X64.679 Y45.03 E26.59731
G1 X64.883 Y45.095 E26.623
G1 X65.716 Y45.394 E26.7292
G1 X65.919 Y45.475 E26.75543
G1 X66.677 Y45.807 E26.85473
G1 X66.875 Y45.902 E26.88109
G1 X67.646 Y46.305 E26.98548
G1 X67.831 Y46.41 E27.01101
G1 X68.542 Y46.844 E27.11097
G1 X68.726 Y46.965 E27.13739
G1 X69.407 Y47.448 E27.23758
G1 X69.584 Y47.582 E27.26422
G1 X70.258 Y48.134 E27.36877
G1 X70.42 Y48.277 E27.3947
G1 X71.04 Y48.859 E27.49674
G1 X71.191 Y49.01 E27.52237
G1 X71.74 Y49.599 E27.61899
G1 X71.881 Y49.761 E27.64476
G1 X72.455 Y50.466 E27.75385
G1 X72.587 Y50.64 E27.78006
G1 X73.061 Y51.311 E27.87865
G1 X73.183 Y51.497 E27.90534
G1 X73.609 Y52.199 E28.00388
G1 X73.713 Y52.384 E28.02934
G1 X74.124 Y53.175 E28.13631
G1 X74.22 Y53.376 E28.16304
G1 X74.551 Y54.139 E28.26285
G1 X74.628 Y54.334 E28.28801
G1 X74.902 Y55.099 E28.38552
G1 X74.97 Y55.314 E28.41258
G1 X75.208 Y56.163 E28.51838
G1 X75.259 Y56.369 E28.54385
G1 X75.438 Y57.221 E28.64832
G1 X75.475 Y57.437 E28.67462
G1 X75.586 Y58.233 E28.77106
G1 X75.609 Y58.449 E28.79713
G1 X75.671 Y59.325 E28.90251
G1 X75.679 Y59.543 E28.92869
G1 X75.681 Y60.381 E29.02925
G1 X75.674 Y60.595 E29.05494
G1 X75.62 Y61.432 E29.15559
G1 X75.599 Y61.651 E29.18199
G1 X75.482 Y62.524 E29.28769
G1 X75.446 Y62.738 E29.31373
G1 X75.288 Y63.513 E29.40864
G1 X75.237 Y63.723 E29.43458
G1 X74.997 Y64.595 E29.54311
G1 X74.933 Y64.801 E29.56899
G1 X74.667 Y65.563 E29.66584
G1 X74.586 Y65.771 E29.69263
G1 X74.247 Y66.56 E29.79568
G1 X74.156 Y66.754 E29.82139
G1 X73.752 Y67.544 E29.92787
G1 X73.648 Y67.731 E29.95355
G1 X73.242 Y68.409 E30.04838
G1 X73.122 Y68.595 E30.07494
G1 X72.607 Y69.334 E30.18303
G1 X72.477 Y69.505 E30.20881
G1 X71.987 Y70.116 E30.30279
G1 X71.845 Y70.282 E30.32901
G1 X71.239 Y70.94 E30.43635
G1 X71.086 Y71.095 E30.46249
G1 X70.474 Y71.675 E30.56367
G1 X70.314 Y71.817 E30.58934
G1 X69.674 Y72.347 E30.68905
G1 X69.5 Y72.481 E30.71541
G1 X68.797 Y72.986 E30.81928
G1 X68.613 Y73.108 E30.84577
G1 X67.892 Y73.554 E30.94751
G1 X67.707 Y73.661 E30.97315
G1 X66.967 Y74.053 E31.07364
G1 X66.771 Y74.148 E31.09978
G1 X65.999 Y74.492 E31.2012
G1 X65.795 Y74.575 E31.22763
G1 X64.985 Y74.871 E31.33112
G1 X64.78 Y74.938 E31.357
G1 X63.975 Y75.172 E31.45759
G1 X63.769 Y75.224 E31.48309
G1 X62.937 Y75.407 E31.58532
G1 X62.722 Y75.447 E31.61156
G1 X61.89 Y75.571 E31.7125
G1 X61.668 Y75.596 E31.73931
G1 X60.802 Y75.664 E31.84355
G1 X60.587 Y75.674 E31.86938
G1 X59.767 Y75.683 E31.96778
G1 X59.552 Y75.678 E31.99359
G1 X58.681 Y75.629 E32.09828
G1 X58.464 Y75.609 E32.12443
G1 X57.632 Y75.505 E32.22504
G1 X57.42 Y75.471 E32.25081
G1 X56.6 Y75.312 E32.35104
G1 X56.383 Y75.263 E32.37774
G1 X55.541 Y75.038 E32.48232
G1 X55.335 Y74.975 E32.50817
G1 X54.56 Y74.711 E32.60642
G1 X54.356 Y74.634 E32.63259
G1 X53.539 Y74.292 E32.73887
G1 X53.345 Y74.203 E32.76448
G1 X52.618 Y73.84 E32.86199
G1 X52.425 Y73.735 E32.88836
G1 X51.664 Y73.287 E32.99433
G1 X51.476 Y73.167 E33.02109
G1 X50.803 Y72.705 E33.11905
G1 X50.631 Y72.579 E33.14464
G1 X49.957 Y72.047 E33.24767
G1 X49.794 Y71.909 E33.2733
G1 X49.157 Y71.333 E33.37636
G1 X48.997 Y71.178 E33.40309
G1 X48.408 Y70.566 E33.50502
G1 X48.266 Y70.408 E33.53051
G1 X47.74 Y69.783 E33.62854
G1 X47.605 Y69.611 E33.65478
G1 X47.085 Y68.9 E33.76048
G1 X46.959 Y68.715 E33.78734
G1 X46.523 Y68.022 E33.88559
G1 X46.416 Y67.838 E33.91113
G1 X45.989 Y67.047 E34.019
G1 X45.893 Y66.853 E34.04497
G1 X45.566 Y66.135 E34.13965
G1 X45.484 Y65.937 E34.16536
G1 X45.175 Y65.117 E34.27052
G1 X45.104 Y64.909 E34.29689
G1 X44.861 Y64.099 E34.39837
G1 X44.806 Y63.89 E34.42431
G1 X44.614 Y63.048 E34.52794
G1 X44.572 Y62.827 E34.55493
G1 X44.446 Y62.013 E34.65378
G1 X44.42 Y61.804 E34.67905
G1 X44.342 Y60.918 E34.78578
G1 X44.313 Y60.31 E34.85883
G1 X44.313 Y59.716 E34.93011
G1 X44.34 Y59.136 E34.99978
G1 X44.406 Y58.325 E35.09742
G1 X44.431 Y58.107 E35.12375
G1 X44.567 Y57.207 E35.23298
G1 X44.607 Y56.99 E35.25946
G1 X44.778 Y56.221 E35.35399
G1 X44.831 Y56.016 E35.3794
G1 X45.086 Y55.146 E35.48819
G1 X45.155 Y54.937 E35.5146
G1 X45.431 Y54.19 E35.61017
G1 X45.515 Y53.986 E35.63664
G1 X45.88 Y53.175 E35.74336
G1 X45.975 Y52.982 E35.76918
G1 X46.373 Y52.236 E35.87064
G1 X46.479 Y52.052 E35.89612
