;FLAVOR:UltiGCode
;TIME:7198
;MATERIAL:6039
;MATERIAL2:0
;NOZZLE_DIAMETER:0.4
;MINX:29.439
;MINY:22.604
;MINZ:0.3
;MAXX:90.564
;MAXY:91.812
;MAXZ:11.9
;Generated with Cura_SteamEngine 4.7.1
M82 ;absolute extrusion mode
G0 F3000 Y50 ;avoid prime blob
G92 E0
G92 E0
G10
;LAYER_COUNT:118
;LAYER:0
M107
G0 F3600 X35.527 Y25.341 Z0.3
;TYPE:SKIRT
G11
G1 F1200 X36.024 Y24.732 E0.09433
G1 X36.465 Y24.291 E0.16917
G1 X37.059 Y23.817 E0.26036
G1 X37.559 Y23.492 E0.33192
G1 X38.284 Y23.129 E0.42922
G1 X38.847 Y22.915 E0.50149
G1 X39.564 Y22.731 E0.59032
G1 X40.197 Y22.639 E0.66708
G1 X40.824 Y22.604 E0.74244
G1 X41.38 Y22.616 E0.80917
G1 X41.966 Y22.69 E0.88005
G1 X42.744 Y22.855 E0.97549
G1 X43.351 Y23.029 E1.05126
G1 X49.735 Y24.943 E1.85103
G1 X52.418 Y25.706 E2.18576
G1 X55.03 Y26.369 E2.50914
G1 X57.703 Y26.968 E2.83785
G1 X60.399 Y27.493 E3.16745
G1 X63.079 Y27.936 E3.49341
G1 X65.79 Y28.307 E3.82176
G1 X68.481 Y28.597 E4.14655
G1 X70.577 Y28.769 E4.39892
G1 X71.043 Y28.838 E4.45545
G1 X71.45 Y28.949 E4.50607
G1 X72.825 Y29.413 E4.68021
G1 X72.994 Y29.473 E4.70173
G1 X75.591 Y30.305 E5.02898
G1 X78.2 Y31.06 E5.3549
G1 X80.846 Y31.747 E5.68295
G1 X84.105 Y32.473 E6.08362
G1 X84.562 Y32.578 E6.13989
G1 X85.074 Y32.737 E6.20422
G1 X85.778 Y33.109 E6.29977
G1 X86.477 Y33.613 E6.40318
G1 X86.881 Y33.964 E6.4674
G1 X87.229 Y34.372 E6.53175
G1 X87.513 Y34.828 E6.59622
G1 X87.728 Y35.326 E6.66131
G1 X87.898 Y35.827 E6.72479
G1 X88.079 Y36.469 E6.80484
G1 X88.606 Y39.03 E7.1186
G1 X89.187 Y41.52 E7.42542
G1 X89.329 Y42.096 E7.49661
G1 X89.412 Y42.534 E7.55011
G1 X89.782 Y45.096 E7.86074
G1 X90.25 Y47.799 E8.18992
G1 X90.344 Y48.275 E8.24815
G1 X90.438 Y48.802 E8.31238
G1 X90.537 Y49.522 E8.3996
G1 X90.564 Y50.083 E8.467
G1 X90.501 Y50.981 E8.57502
G1 X90.418 Y51.485 E8.63631
G1 X90.201 Y52.395 E8.74858
G1 X89.983 Y53.256 E8.85516
G1 X89.388 Y55.909 E9.18143
G1 X88.872 Y58.561 E9.50563
G1 X88.42 Y61.29 E9.83757
G1 X88.052 Y63.993 E10.16493
G1 X87.765 Y66.665 E10.48741
G1 X87.546 Y69.429 E10.82013
G1 X87.41 Y72.12 E11.14346
G1 X87.348 Y74.852 E11.47139
G1 X87.365 Y77.613 E11.80271
G1 X87.418 Y79.412 E12.01869
G1 X87.462 Y80.532 E12.15319
G1 X87.442 Y81.188 E12.23195
G1 X87.399 Y81.655 E12.28822
G1 X87.277 Y82.31 E12.36818
G1 X87.056 Y83.028 E12.45833
G1 X86.789 Y83.659 E12.54055
G1 X86.394 Y84.354 E12.63647
G1 X86.025 Y84.87 E12.7126
G1 X85.491 Y85.46 E12.80809
G1 X85.033 Y85.872 E12.88202
G1 X84.381 Y86.337 E12.97812
G1 X83.871 Y86.631 E13.04876
G1 X83.096 Y86.962 E13.14988
G1 X82.226 Y87.25 E13.25985
G1 X68.513 Y91.36 E14.97774
G1 X67.766 Y91.571 E15.07088
G1 X67.232 Y91.688 E15.13648
G1 X66.776 Y91.764 E15.19196
G1 X66.172 Y91.812 E15.26467
G1 X65.387 Y91.786 E15.35892
G1 X64.772 Y91.703 E15.43339
G1 X63.971 Y91.498 E15.5326
G1 X63.691 Y91.41 E15.56782
G1 X62.647 Y91.033 E15.70102
G1 X60.009 Y90.121 E16.03597
G1 X57.437 Y89.312 E16.35951
G1 X54.798 Y88.565 E16.68864
G1 X52.179 Y87.901 E17.01286
G1 X49.512 Y87.304 E17.34082
G1 X46.794 Y86.779 E17.67301
G1 X44.127 Y86.34 E17.99736
G1 X41.429 Y85.974 E18.32408
G1 X39.388 Y85.748 E18.5705
G1 X38.858 Y85.695 E18.63442
G1 X38.003 Y85.586 E18.73785
G1 X37.916 Y85.574 E18.74838
G1 X37.226 Y85.468 E18.83216
G1 X36.704 Y85.348 E18.89643
G1 X36.431 Y85.251 E18.9312
G1 X35.801 Y84.923 E19.01643
G1 X35.403 Y84.662 E19.07354
G1 X34.716 Y84.183 E19.17404
G1 X34.17 Y83.792 E19.25463
G1 X33.758 Y83.448 E19.31904
G1 X33.427 Y83.078 E19.37861
G1 X32.95 Y82.466 E19.47172
G1 X32.882 Y82.376 E19.48526
G1 X32.576 Y81.957 E19.54752
G1 X32.161 Y81.227 E19.64829
G1 X31.962 Y80.745 E19.71086
G1 X31.695 Y80.06 E19.79909
G1 X31.468 Y79.456 E19.87652
G1 X31.296 Y78.834 E19.95396
G1 X31.236 Y78.326 E20.01534
G1 X31.174 Y77.008 E20.17368
G1 X31.01 Y74.309 E20.49815
G1 X30.763 Y71.556 E20.82984
G1 X30.446 Y68.872 E21.15416
G1 X30.045 Y66.143 E21.48516
G1 X29.764 Y64.519 E21.68293
G1 X29.686 Y63.928 E21.75447
G1 X29.606 Y62.9 E21.8782
G1 X29.474 Y60.758 E22.13573
G1 X29.439 Y60.013 E22.22523
G1 X29.443 Y59.466 E22.29087
G1 X29.468 Y59.023 E22.34411
G1 X29.547 Y58.447 E22.41388
G1 X29.76 Y57.628 E22.51543
G1 X30.025 Y56.762 E22.6241
G1 X30.805 Y54.092 E22.9579
G1 X31.498 Y51.444 E23.28636
G1 X32.112 Y48.789 E23.61337
G1 X32.653 Y46.109 E23.94145
G1 X33.114 Y43.441 E24.26636
G1 X33.502 Y40.745 E24.59321
G1 X33.812 Y38.055 E24.91815
G1 X34.048 Y35.31 E25.24876
G1 X34.205 Y32.607 E25.57367
G1 X34.296 Y29.134 E25.99057
G1 X34.327 Y28.534 E26.06267
G1 X34.408 Y27.954 E26.13294
G1 X34.614 Y27.154 E26.23208
G1 X34.824 Y26.589 E26.30441
G1 X35.187 Y25.87 E26.40106
G1 X35.527 Y25.341 E26.47652
G0 F3600 X35.843 Y25.585
G1 F1200 X36.331 Y24.989 E26.56896
G1 X36.722 Y24.597 E26.6354
G1 X37.304 Y24.133 E26.72472
G1 X37.749 Y23.844 E26.78839
G1 X38.456 Y23.49 E26.88327
G1 X38.957 Y23.3 E26.94757
G1 X39.656 Y23.12 E27.03418
G1 X40.22 Y23.038 E27.10258
G1 X40.847 Y23.003 E27.17793
G1 X41.593 Y23.039 E27.26756
G1 X42.366 Y23.175 E27.36174
G1 X42.634 Y23.239 E27.39481
G1 X43.236 Y23.412 E27.46997
G1 X49.638 Y25.331 E28.27198
G1 X52.283 Y26.083 E28.60196
G1 X54.991 Y26.771 E28.93724
G1 X57.61 Y27.358 E29.25932
G1 X60.323 Y27.887 E29.59101
G1 X62.997 Y28.328 E29.91623
G1 X65.73 Y28.702 E30.24724
G1 X68.484 Y28.999 E30.57964
G1 X70.544 Y29.168 E30.82767
G1 X71.323 Y29.328 E30.9231
G1 X72.692 Y29.79 E31.09648
G1 X72.877 Y29.855 E31.12001
G1 X75.463 Y30.684 E31.44589
G1 X78.102 Y31.448 E31.77557
G1 X80.77 Y32.14 E32.10633
G1 X84.016 Y32.863 E32.50539
G1 X84.473 Y32.968 E32.56166
G1 X84.955 Y33.12 E32.62231
G1 X85.553 Y33.44 E32.7037
G1 X86.237 Y33.933 E32.80488
G1 X86.618 Y34.267 E32.86568
G1 X86.94 Y34.656 E32.92627
G1 X87.198 Y35.091 E32.98696
G1 X87.485 Y35.848 E33.08411
G1 X87.687 Y36.549 E33.17166
G1 X88.218 Y39.13 E33.48786
G1 X88.788 Y41.572 E33.78878
G1 X88.941 Y42.192 E33.86541
G1 X89.016 Y42.591 E33.91413
G1 X89.385 Y45.15 E34.22439
G1 X89.856 Y47.866 E34.55517
G1 X89.95 Y48.345 E34.61375
G1 X90.044 Y48.872 E34.67799
G1 X90.141 Y49.573 E34.76291
G1 X90.159 Y50.27 E34.84658
G1 X90.102 Y50.945 E34.92786
G1 X90.029 Y51.392 E34.98221
G1 X89.813 Y52.297 E35.09386
G1 X89.584 Y53.2 E35.20566
G1 X88.998 Y55.816 E35.52735
G1 X88.477 Y58.496 E35.85498
G1 X88.028 Y61.208 E36.18485
G1 X87.657 Y63.929 E36.51439
G1 X87.363 Y66.666 E36.84472
G1 X87.149 Y69.375 E37.17081
G1 X87.01 Y72.127 E37.50147
G1 X86.948 Y74.846 E37.82783
G1 X86.965 Y77.584 E38.1564
G1 X87.019 Y79.427 E38.37766
G1 X87.063 Y80.547 E38.51216
G1 X87.044 Y81.151 E38.58468
G1 X87.001 Y81.618 E38.64095
G1 X86.892 Y82.201 E38.71212
G1 X86.676 Y82.905 E38.80049
G1 X86.428 Y83.487 E38.87641
G1 X86.05 Y84.151 E38.96809
G1 X85.721 Y84.609 E39.03576
G1 X85.198 Y85.187 E39.1293
G1 X84.792 Y85.553 E39.1949
G1 X84.154 Y86.008 E39.28893
G1 X83.7 Y86.269 E39.35177
G1 X82.946 Y86.591 E39.45016
G1 X82.107 Y86.868 E39.55619
G1 X68.404 Y90.976 E41.27285
G1 X67.657 Y91.187 E41.36599
G1 X67.156 Y91.295 E41.4275
G1 X66.711 Y91.369 E41.48163
G1 X66.174 Y91.412 E41.54628
G1 X65.406 Y91.386 E41.63849
G1 X64.86 Y91.313 E41.70459
G1 X64.075 Y91.112 E41.80183
G1 X63.827 Y91.034 E41.83303
G1 X62.778 Y90.655 E41.96687
G1 X60.122 Y89.737 E42.30409
G1 X57.561 Y88.931 E42.62627
G1 X54.9 Y88.177 E42.95816
G1 X52.266 Y87.511 E43.28419
G1 X49.576 Y86.909 E43.61498
G1 X46.891 Y86.39 E43.94314
G1 X44.174 Y85.943 E44.27356
G1 X41.447 Y85.574 E44.60379
G1 X39.458 Y85.353 E44.84393
G1 X38.807 Y85.287 E44.92245
G1 X37.977 Y85.179 E45.02289
G1 X37.287 Y85.073 E45.10667
G1 X36.58 Y84.879 E45.19464
G1 X36.019 Y84.588 E45.27048
G1 X35.632 Y84.333 E45.32609
G1 X34.949 Y83.858 E45.42593
G1 X34.403 Y83.467 E45.50651
G1 X34.016 Y83.141 E45.56724
G1 X33.742 Y82.832 E45.61679
G1 X33.265 Y82.22 E45.70991
G1 X33.205 Y82.14 E45.72191
G1 X32.899 Y81.721 E45.78417
G1 X32.529 Y81.07 E45.87402
G1 X32.334 Y80.597 E45.93542
G1 X32.07 Y79.92 E46.02262
G1 X31.843 Y79.316 E46.10004
G1 X31.69 Y78.762 E46.16901
G1 X31.636 Y78.307 E46.224
G1 X31.576 Y77.034 E46.37693
G1 X31.406 Y74.248 E46.71187
G1 X31.164 Y71.544 E47.03764
G1 X30.84 Y68.803 E47.36885
G1 X30.443 Y66.095 E47.69729
G1 X30.158 Y64.451 E47.89751
G1 X30.085 Y63.897 E47.96457
G1 X30.005 Y62.875 E48.08758
G1 X29.874 Y60.739 E48.34438
G1 X29.839 Y59.994 E48.43388
G1 X29.842 Y59.489 E48.49448
G1 X29.867 Y59.046 E48.54773
G1 X29.938 Y58.534 E48.60975
G1 X30.145 Y57.736 E48.70868
G1 X30.422 Y56.831 E48.82226
G1 X31.19 Y54.2 E49.15115
G1 X31.882 Y51.556 E49.47912
G1 X32.505 Y48.861 E49.81105
G1 X33.046 Y46.185 E50.13867
G1 X33.511 Y43.495 E50.46625
G1 X33.896 Y40.811 E50.79163
G1 X34.212 Y38.068 E51.12297
G1 X34.445 Y35.367 E51.44829
G1 X34.606 Y32.608 E51.77993
G1 X34.696 Y29.139 E52.19635
G1 X34.726 Y28.557 E52.26629
G1 X34.798 Y28.041 E52.32881
G1 X35 Y27.261 E52.42549
G1 X35.186 Y26.758 E52.48985
G1 X35.541 Y26.056 E52.58425
G1 X35.843 Y25.585 E52.65139
G10
G0 F3600 X37.519 Y33.578
G0 X45.049 Y47.728
G0 X64.603 Y62.537
G11
G1 F1200 X64.916 Y62.405 E52.69215
G1 X64.862 Y62.791 E52.73892
G1 X64.603 Y62.537 E52.78245
G0 F3600 X64.379 Y62.868
G1 F1200 X64.119 Y62.658 E52.82256
G1 X63.817 Y62.515 E52.86266
G1 X63.374 Y62.443 E52.91651
G1 X62.817 Y62.443 E52.98335
G1 X62.466 Y62.24 E53.03201
G1 X63.323 Y62.109 E53.13605
G1 X64.02 Y62.241 E53.22117
G1 X64.352 Y62.202 E53.26129
G1 X64.717 Y62.059 E53.30833
G1 X65.79 Y61.45 E53.45638
G1 X65.901 Y61.379 E53.47219
G1 X66.576 Y60.907 E53.57103
G1 X66.674 Y60.907 E53.58279
G1 X66.748 Y60.968 E53.5943
G1 X66.665 Y61.158 E53.61918
G1 X65.881 Y61.675 E53.73188
G1 X65.626 Y61.891 E53.77198
G1 X65.429 Y62.161 E53.81208
G1 X65.302 Y62.47 E53.85217
G1 X65.252 Y62.8 E53.89223
G1 X65.281 Y63.133 E53.93234
G1 X65.389 Y63.449 E53.97241
G1 X65.56 Y63.721 E54.01097
G1 X67.122 Y65.665 E54.31022
G1 X67.516 Y66.002 E54.37244
G1 X68.018 Y66.291 E54.44195
G1 X68.005 Y66.321 E54.44587
G1 X67.56 Y66.293 E54.49937
G1 X66.675 Y65.71 E54.62655
G1 X66.059 Y64.999 E54.73943
G1 X65.421 Y63.986 E54.8831
G1 X65.242 Y63.757 E54.91797
G1 X64.379 Y62.868 E55.06665
G0 F3600 X63.805 Y63.425
G1 F1200 X63.627 Y63.299 E55.09282
G1 X63.374 Y63.243 E55.12392
G1 X62.558 Y63.243 E55.22184
G1 X62.098 Y62.958 E55.28677
G1 X61.849 Y62.944 E55.3167
G1 X60.779 Y63.112 E55.44667
G1 X60.386 Y62.825 E55.50507
G1 X60.19 Y62.731 E55.53116
G1 X59.972 Y62.713 E55.5574
G1 X59.68 Y62.825 E55.59493
G1 X59.176 Y63.192 E55.66975
G1 X58.528 Y63.192 E55.74751
G1 X58.005 Y62.811 E55.82516
G1 X57.805 Y62.195 E55.90287
G1 X58.005 Y61.579 E55.98059
G1 X58.528 Y61.198 E56.05824
G1 X59.176 Y61.198 E56.136
G1 X59.624 Y61.524 E56.20249
G1 X59.821 Y61.618 E56.22868
G1 X60.038 Y61.636 E56.25481
G1 X60.331 Y61.524 E56.29245
G1 X60.823 Y61.165 E56.36554
G1 X61.463 Y61.165 E56.44234
G1 X61.935 Y61.46 E56.50913
G1 X62.183 Y61.474 E56.53894
G1 X63.362 Y61.294 E56.68206
G1 X63.882 Y61.423 E56.74635
G1 X64.099 Y61.437 E56.77244
G1 X64.322 Y61.363 E56.80064
G1 X65.395 Y60.754 E56.94869
G1 X65.443 Y60.724 E56.95548
G1 X66.326 Y60.107 E57.08475
G1 X66.935 Y60.107 E57.15783
G1 X67.425 Y60.464 E57.23058
G1 X67.602 Y61.008 E57.29923
G1 X67.304 Y61.695 E57.38909
G1 X66.321 Y62.343 E57.53037
G1 X66.164 Y62.494 E57.55651
G1 X66.071 Y62.692 E57.58276
G1 X66.055 Y62.909 E57.60887
G1 X66.183 Y63.22 E57.64923
G1 X67.745 Y65.164 E57.94849
G1 X67.914 Y65.308 E57.97513
G1 X68.7 Y65.76 E58.08393
G1 X68.866 Y66.269 E58.14818
G1 X68.689 Y66.813 E58.21683
G1 X68.243 Y67.137 E58.28298
G1 X67.297 Y67.078 E58.39672
G1 X66.145 Y66.319 E58.56227
G1 X65.415 Y65.476 E58.69609
G1 X64.745 Y64.412 E58.84697
G1 X64.668 Y64.314 E58.86193
G1 X63.805 Y63.425 E59.0106
G0 F3600 X63.518 Y63.704
G1 F1200 X63.374 Y63.643 E59.02937
G1 X62.429 Y63.643 E59.14277
G1 X62.06 Y63.375 E59.1975
G1 X61.911 Y63.339 E59.21589
G1 X60.678 Y63.532 E59.36565
G1 X60.151 Y63.148 E59.4439
G1 X60.032 Y63.11 E59.45889
G1 X59.915 Y63.148 E59.47365
G1 X59.305 Y63.592 E59.56419
G1 X58.399 Y63.592 E59.67291
G1 X57.664 Y63.057 E59.782
G1 X57.383 Y62.195 E59.8908
G1 X57.664 Y61.333 E59.9996
G1 X58.399 Y60.798 E60.10869
G1 X59.305 Y60.798 E60.21741
G1 X59.859 Y61.201 E60.29962
G1 X59.978 Y61.239 E60.31461
G1 X60.095 Y61.201 E60.32937
G1 X60.693 Y60.765 E60.41818
G1 X61.593 Y60.765 E60.52618
G1 X61.974 Y61.043 E60.58277
G1 X62.122 Y61.079 E60.60105
G1 X63.381 Y60.887 E60.75388
G1 X63.978 Y61.035 E60.82769
G1 X64.125 Y61.015 E60.84549
G1 X65.214 Y60.396 E60.99581
G1 X66.2 Y59.707 E61.14015
G1 X67.064 Y59.707 E61.24383
G1 X67.765 Y60.217 E61.34786
G1 X68.03 Y61.028 E61.45024
G1 X67.624 Y61.964 E61.57267
G1 X66.541 Y62.677 E61.72827
G1 X66.463 Y62.775 E61.7433
G1 X66.495 Y62.969 E61.76689
G1 X68.057 Y64.913 E62.06615
G1 X68.113 Y64.961 E62.075
G1 X69.034 Y65.49 E62.20245
G1 X69.287 Y66.269 E62.30074
G1 X69.03 Y67.059 E62.40043
G1 X68.361 Y67.545 E62.49966
G1 X67.166 Y67.47 E62.64334
G1 X65.877 Y66.621 E62.82856
G1 X65.094 Y65.716 E62.97216
G1 X64.406 Y64.625 E63.12694
G1 X64.381 Y64.593 E63.13181
G1 X63.518 Y63.704 E63.28049
G0 F3600 X64.343 Y61.789
G1 F1200 X64.52 Y61.711 E63.3037
G1 X65.593 Y61.102 E63.45176
G1 X65.672 Y61.052 E63.46297
G1 X66.452 Y60.507 E63.57716
G1 X66.805 Y60.507 E63.61952
G1 X67.084 Y60.71 E63.66092
G1 X67.175 Y60.988 E63.69602
G1 X66.985 Y61.427 E63.75343
G1 X66.101 Y62.009 E63.88043
G1 X65.889 Y62.196 E63.91436
G1 X65.739 Y62.434 E63.94812
G1 X65.661 Y62.706 E63.98207
G1 X65.661 Y62.988 E64.01591
G1 X65.741 Y63.258 E64.0497
G1 X65.872 Y63.471 E64.07971
G1 X67.434 Y65.415 E64.37896
G1 X67.715 Y65.655 E64.42331
G1 X68.368 Y66.03 E64.51367
G1 X68.446 Y66.269 E64.54384
G1 X68.349 Y66.565 E64.58122
G1 X68.124 Y66.729 E64.61463
G1 X67.429 Y66.686 E64.69819
G1 X66.411 Y66.015 E64.8445
G1 X65.736 Y65.236 E64.96819
G1 X65.083 Y64.199 E65.11525
G1 X64.955 Y64.035 E65.14021
G1 X64.092 Y63.146 E65.28889
G1 X63.868 Y62.974 E65.32278
G1 X63.606 Y62.87 E65.35661
G1 X63.374 Y62.843 E65.38463
G1 X62.688 Y62.843 E65.46695
G1 X62.281 Y62.596 E65.52409
G1 X62.004 Y62.539 E65.55802
G1 X61.787 Y62.549 E65.58409
G1 X60.881 Y62.691 E65.69414
G1 X60.373 Y62.37 E65.76625
G1 X60.097 Y62.312 E65.80009
G1 X59.815 Y62.334 E65.83403
G1 X59.444 Y62.502 E65.8829
G1 X59.046 Y62.792 E65.942
G1 X58.658 Y62.792 E65.98856
G1 X58.345 Y62.564 E66.03503
G1 X58.225 Y62.195 E66.08159
G1 X58.345 Y61.826 E66.12815
G1 X58.658 Y61.598 E66.17462
G1 X59.045 Y61.598 E66.22106
G1 X59.638 Y61.98 E66.30571
G1 X59.914 Y62.037 E66.33953
G1 X60.195 Y62.015 E66.37335
G1 X60.566 Y61.847 E66.42222
G1 X60.953 Y61.565 E66.47968
G1 X61.332 Y61.565 E66.52516
G1 X61.752 Y61.821 E66.58419
G1 X62.028 Y61.879 E66.61803
G1 X62.243 Y61.87 E66.64385
G1 X63.342 Y61.702 E66.77727
G1 X63.785 Y61.812 E66.83204
G1 X64.066 Y61.84 E66.86593
G1 X64.343 Y61.789 E66.89973
G0 F3600 X61.57 Y62.178
G1 F1200 X60.983 Y62.27 E66.97103
G1 X60.819 Y62.157 E66.99492
G1 X61.083 Y61.965 E67.0341
G1 X61.203 Y61.965 E67.0485
G1 X61.57 Y62.178 E67.09942
G0 F3600 X59.19 Y62.192
G1 F1200 X58.915 Y62.392 E67.14022
G1 X58.789 Y62.392 E67.15534
G1 X58.684 Y62.316 E67.1709
G1 X58.645 Y62.195 E67.18615
G1 X58.684 Y62.074 E67.20141
G1 X58.789 Y61.998 E67.21696
G1 X58.915 Y61.998 E67.23208
G1 X59.19 Y62.192 E67.27247
G0 F3600 X51.971 Y55.896
G1 F1200 X51.287 Y56.394 E67.374
G1 X50.397 Y56.394 E67.4808
G1 X48.833 Y56.206 E67.66983
G1 X47.385 Y55.994 E67.84544
G1 X46.102 Y55.875 E68.00006
G1 X44.608 Y55.44 E68.18679
G1 X43.486 Y54.874 E68.33759
G1 X42.593 Y54.013 E68.48644
G1 X41.886 Y52.901 E68.64457
G1 X41.377 Y51.834 E68.78643
G1 X40.764 Y49.99 E69.01962
G1 X40.638 Y49.289 E69.10509
G1 X40.906 Y48.465 E69.20907
G1 X41.598 Y47.961 E69.3118
G1 X42.432 Y47.961 E69.41188
G1 X43.253 Y48.805 E69.55317
G1 X43.794 Y50.405 E69.75585
G1 X43.813 Y50.447 E69.76138
G1 X44.567 Y51.655 E69.93226
G1 X45.361 Y52.754 E70.09496
G1 X45.411 Y52.803 E70.10336
G1 X46.039 Y53.226 E70.19422
G1 X46.123 Y53.258 E70.20501
G1 X47.331 Y53.428 E70.35139
G1 X48.663 Y53.7 E70.51453
G1 X48.717 Y53.703 E70.52102
G1 X49.769 Y53.628 E70.64758
G1 X51.278 Y53.791 E70.82972
G1 X51.971 Y54.296 E70.93261
G1 X52.232 Y55.096 E71.03359
G1 X51.971 Y55.896 E71.13457
G0 F3600 X51.631 Y55.649
G1 F1200 X51.158 Y55.994 E71.20483
G1 X50.42 Y55.994 E71.29339
G1 X48.889 Y55.81 E71.47843
