;FLAVOR:UltiGCode
;TIME:2223
;MATERIAL:1860
;MATERIAL2:0
;NOZZLE_DIAMETER:0.4
;MINX:40.598
;MINY:40.015
;MINZ:0.3
;MAXX:79.406
;MAXY:79.985
;MAXZ:11.5
;Generated with Cura_SteamEngine 4.7.1
M82 ;absolute extrusion mode
G0 F3000 Y50 ;avoid prime blob
G92 E0
G92 E0
G10
;LAYER_COUNT:113
;LAYER:0
M107
G0 F3600 X45.127 Y46.026 Z0.3
;TYPE:SKIRT
G11
G1 F1200 X45.577 Y45.581 E0.07594
G1 X45.995 Y45.189 E0.14471
G1 X46.107 Y45.089 E0.16273
G1 X46.595 Y44.668 E0.24007
G1 X47.069 Y44.283 E0.31335
G1 X47.176 Y44.2 E0.3296
G1 X47.579 Y43.897 E0.3901
G1 X47.689 Y43.817 E0.40642
G1 X48.206 Y43.455 E0.48216
G1 X48.689 Y43.137 E0.55155
G1 X48.812 Y43.059 E0.56903
G1 X49.334 Y42.744 E0.64219
G1 X49.912 Y42.418 E0.72182
G1 X50.041 Y42.348 E0.73944
G1 X50.492 Y42.116 E0.8003
G1 X50.608 Y42.059 E0.81581
G1 X51.076 Y41.837 E0.87797
G1 X51.199 Y41.781 E0.89418
G1 X51.702 Y41.563 E0.95997
G1 X51.83 Y41.51 E0.97659
G1 X52.405 Y41.284 E1.05073
G1 X52.532 Y41.237 E1.06698
G1 X53.006 Y41.069 E1.12733
G1 X53.136 Y41.025 E1.1438
G1 X53.642 Y40.865 E1.20748
G1 X54.21 Y40.704 E1.27833
G1 X54.336 Y40.67 E1.29399
G1 X55.016 Y40.503 E1.37801
G1 X55.549 Y40.39 E1.44339
G1 X55.681 Y40.365 E1.45952
G1 X56.287 Y40.26 E1.53332
G1 X56.424 Y40.238 E1.54997
G1 X56.976 Y40.162 E1.61683
G1 X57.509 Y40.104 E1.68117
G1 X57.65 Y40.092 E1.69815
G1 X58.393 Y40.04 E1.78753
G1 X59.018 Y40.017 E1.86258
G1 X59.696 Y40.015 E1.94394
G1 X60.308 Y40.032 E2.01741
G1 X60.933 Y40.07 E2.09255
G1 X61.071 Y40.082 E2.10917
G1 X61.702 Y40.145 E2.18527
G1 X61.832 Y40.16 E2.20097
G1 X62.359 Y40.23 E2.26477
G1 X62.93 Y40.324 E2.33421
G1 X63.055 Y40.347 E2.34946
G1 X63.695 Y40.476 E2.42781
G1 X63.843 Y40.508 E2.44598
G1 X64.378 Y40.637 E2.51202
G1 X64.92 Y40.784 E2.57941
G1 X65.056 Y40.824 E2.59642
G1 X65.655 Y41.011 E2.67172
G1 X66.242 Y41.213 E2.74621
G1 X66.379 Y41.263 E2.76371
G1 X66.883 Y41.459 E2.82861
G1 X67.007 Y41.51 E2.84469
G1 X67.549 Y41.742 E2.91544
G1 X68.072 Y41.982 E2.98449
G1 X68.202 Y42.045 E3.00183
G1 X68.743 Y42.32 E3.07466
G1 X68.872 Y42.389 E3.09221
G1 X69.36 Y42.66 E3.1592
G1 X69.883 Y42.971 E3.23221
G1 X69.991 Y43.038 E3.24746
G1 X70.487 Y43.357 E3.31823
G1 X70.975 Y43.692 E3.38926
G1 X71.083 Y43.77 E3.40525
G1 X71.619 Y44.169 E3.48543
G1 X71.73 Y44.255 E3.50228
G1 X72.125 Y44.571 E3.56298
G1 X72.572 Y44.95 E3.63331
G1 X72.679 Y45.045 E3.65048
G1 X73.152 Y45.479 E3.72751
G1 X73.565 Y45.879 E3.79651
G1 X73.664 Y45.98 E3.81348
G1 X74.109 Y46.447 E3.89089
G1 X74.522 Y46.908 E3.96516
G1 X74.608 Y47.008 E3.98099
G1 X74.972 Y47.446 E4.04933
G1 X75.354 Y47.935 E4.12379
G1 X75.435 Y48.042 E4.1399
G1 X75.757 Y48.487 E4.20581
G1 X75.835 Y48.6 E4.22229
G1 X76.178 Y49.11 E4.29604
G1 X76.501 Y49.622 E4.36868
G1 X76.572 Y49.74 E4.38521
G1 X76.857 Y50.233 E4.45354
G1 X76.922 Y50.349 E4.4695
G1 X77.177 Y50.826 E4.53441
G1 X77.239 Y50.947 E4.55072
G1 X77.476 Y51.429 E4.61517
G1 X77.734 Y51.998 E4.69015
G1 X77.785 Y52.118 E4.70579
G1 X78.035 Y52.727 E4.78479
G1 X78.227 Y53.234 E4.84985
G1 X78.276 Y53.374 E4.86765
G1 X78.496 Y54.038 E4.95159
G1 X78.643 Y54.528 E5.01297
G1 X78.679 Y54.658 E5.02916
G1 X78.829 Y55.235 E5.1007
G1 X78.863 Y55.374 E5.11787
G1 X78.994 Y55.964 E5.1904
G1 X79.094 Y56.483 E5.25382
G1 X79.116 Y56.612 E5.26953
G1 X79.215 Y57.248 E5.34677
G1 X79.236 Y57.398 E5.36494
G1 X79.303 Y57.97 E5.43405
G1 X79.353 Y58.529 E5.5014
G1 X79.362 Y58.667 E5.518
G1 X79.394 Y59.299 E5.59393
G1 X79.406 Y59.936 E5.67039
G1 X79.398 Y60.563 E5.74563
G1 X79.394 Y60.702 E5.76232
G1 X79.362 Y61.332 E5.83802
G1 X79.316 Y61.903 E5.90676
G1 X79.303 Y62.032 E5.92232
G1 X79.236 Y62.602 E5.99119
G1 X79.216 Y62.748 E6.00887
G1 X79.117 Y63.386 E6.08635
G1 X79.019 Y63.913 E6.15067
G1 X78.994 Y64.036 E6.16573
G1 X78.863 Y64.626 E6.23826
G1 X78.828 Y64.769 E6.25592
G1 X78.678 Y65.344 E6.32723
G1 X78.536 Y65.834 E6.38845
G1 X78.494 Y65.967 E6.40519
G1 X78.273 Y66.631 E6.48917
G1 X78.086 Y67.144 E6.55469
G1 X78.038 Y67.266 E6.57042
G1 X77.789 Y67.876 E6.64949
G1 X77.53 Y68.455 E6.7256
G1 X77.476 Y68.57 E6.74085
G1 X77.245 Y69.04 E6.80369
G1 X77.184 Y69.159 E6.81974
G1 X76.923 Y69.648 E6.88625
G1 X76.855 Y69.77 E6.90301
G1 X76.57 Y70.262 E6.97124
G1 X76.253 Y70.774 E7.04351
G1 X76.18 Y70.887 E7.05965
G1 X75.839 Y71.395 E7.13307
G1 X75.757 Y71.514 E7.15041
G1 X75.433 Y71.961 E7.21666
G1 X75.06 Y72.445 E7.28999
G1 X74.973 Y72.553 E7.30663
G1 X74.607 Y72.993 E7.37531
G1 X74.206 Y73.448 E7.44809
G1 X74.111 Y73.552 E7.46499
G1 X73.664 Y74.021 E7.54274
G1 X73.241 Y74.436 E7.61385
G1 X73.157 Y74.516 E7.62777
G1 X72.683 Y74.952 E7.70505
G1 X72.219 Y75.351 E7.77848
G1 X72.128 Y75.426 E7.79264
G1 X71.731 Y75.744 E7.85367
G1 X71.621 Y75.828 E7.87028
G1 X71.086 Y76.227 E7.95037
G1 X70.592 Y76.573 E8.02275
G1 X70.493 Y76.639 E8.03702
G1 X69.999 Y76.958 E8.10759
G1 X69.466 Y77.279 E8.18225
G1 X69.361 Y77.34 E8.19682
G1 X68.875 Y77.61 E8.26354
G1 X68.744 Y77.679 E8.28131
G1 X68.201 Y77.955 E8.3544
G1 X67.664 Y78.207 E8.42558
G1 X67.55 Y78.258 E8.44057
G1 X67.005 Y78.491 E8.5117
G1 X66.883 Y78.541 E8.52752
G1 X66.379 Y78.737 E8.59241
G1 X65.776 Y78.949 E8.66911
G1 X65.655 Y78.989 E8.68441
G1 X65.056 Y79.176 E8.75971
G1 X64.496 Y79.332 E8.82947
G1 X64.371 Y79.364 E8.84495
G1 X63.836 Y79.492 E8.91096
G1 X63.701 Y79.522 E8.92756
G1 X63.061 Y79.652 E9.00593
G1 X62.494 Y79.75 E9.07497
G1 X62.359 Y79.77 E9.09135
G1 X61.833 Y79.84 E9.15503
G1 X61.702 Y79.855 E9.17085
G1 X61.071 Y79.918 E9.24695
G1 X60.44 Y79.962 E9.32285
G1 X59.836 Y79.983 E9.39537
G1 X59.697 Y79.985 E9.41206
G1 X59.018 Y79.983 E9.49354
G1 X58.391 Y79.96 E9.56883
G1 X57.649 Y79.908 E9.65809
G1 X57.102 Y79.853 E9.72406
G1 X56.978 Y79.838 E9.73904
G1 X56.425 Y79.762 E9.80603
G1 X56.285 Y79.74 E9.82303
G1 X55.681 Y79.635 E9.8966
G1 X55.159 Y79.529 E9.96052
G1 X55.019 Y79.497 E9.97775
G1 X54.337 Y79.33 E10.06201
G1 X53.763 Y79.171 E10.13349
G1 X53.64 Y79.134 E10.1489
G1 X53.135 Y78.974 E10.21247
G1 X53.007 Y78.931 E10.22867
G1 X52.53 Y78.762 E10.2894
G1 X52.407 Y78.717 E10.30511
G1 X51.835 Y78.493 E10.37883
G1 X51.7 Y78.437 E10.39637
G1 X51.196 Y78.218 E10.46231
G1 X51.076 Y78.163 E10.47815
G1 X50.608 Y77.941 E10.54031
G1 X50.492 Y77.884 E10.55582
G1 X50.041 Y77.652 E10.61668
G1 X49.913 Y77.583 E10.63413
G1 X49.441 Y77.318 E10.69909
G1 X49.331 Y77.254 E10.71436
G1 X48.811 Y76.94 E10.78725
G1 X48.316 Y76.62 E10.85798
G1 X48.201 Y76.543 E10.87459
G1 X47.684 Y76.18 E10.9504
G1 X47.58 Y76.104 E10.96585
G1 X47.178 Y75.802 E11.02619
G1 X46.705 Y75.423 E11.09892
G1 X46.589 Y75.326 E11.11707
G1 X46.102 Y74.904 E11.1944
G1 X45.675 Y74.512 E11.26395
G1 X45.571 Y74.413 E11.28118
G1 X45.122 Y73.967 E11.35713
G1 X44.705 Y73.529 E11.4297
G1 X44.61 Y73.425 E11.4466
G1 X44.263 Y73.031 E11.5096
G1 X44.177 Y72.93 E11.52552
G1 X43.766 Y72.431 E11.6031
G1 X43.44 Y72.008 E11.66718
G1 X43.361 Y71.903 E11.68295
G1 X43.007 Y71.408 E11.75598
G1 X42.93 Y71.295 E11.77239
G1 X42.593 Y70.788 E11.84544
G1 X42.303 Y70.324 E11.9111
G1 X42.231 Y70.203 E11.928
G1 X41.933 Y69.681 E12.00013
G1 X41.871 Y69.568 E12.01559
G1 X41.604 Y69.063 E12.08414
G1 X41.327 Y68.496 E12.15987
G1 X41.27 Y68.374 E12.17603
G1 X40.988 Y67.738 E12.25951
G1 X40.881 Y67.478 E12.29325
G1 X40.709 Y66.939 E12.36115
G1 X40.614 Y66.382 E12.42895
G1 X40.598 Y65.843 E12.49366
G1 X40.623 Y65.166 E12.57495
G1 X40.702 Y63.66 E12.75592
G1 X40.766 Y60.952 E13.08097
G1 X40.754 Y58.245 E13.40582
G1 X40.664 Y55.51 E13.73419
G1 X40.624 Y54.818 E13.81737
G1 X40.598 Y54.177 E13.89436
G1 X40.615 Y53.612 E13.96219
G1 X40.712 Y53.055 E14.03003
G1 X40.884 Y52.523 E14.09713
G1 X41.021 Y52.188 E14.14056
G1 X41.271 Y51.625 E14.21448
G1 X41.538 Y51.067 E14.28871
G1 X41.601 Y50.942 E14.30551
G1 X41.874 Y50.424 E14.37577
G1 X41.943 Y50.299 E14.39291
G1 X42.235 Y49.79 E14.46332
G1 X42.525 Y49.318 E14.5298
G1 X42.593 Y49.212 E14.54491
G1 X42.929 Y48.706 E14.6178
G1 X43.008 Y48.591 E14.63454
G1 X43.363 Y48.095 E14.70774
G1 X43.68 Y47.679 E14.7705
G1 X43.764 Y47.572 E14.78682
G1 X44.174 Y47.073 E14.86432
G1 X44.267 Y46.965 E14.88143
G1 X44.614 Y46.572 E14.94434
G1 X45.025 Y46.131 E15.01668
G1 X45.127 Y46.026 E15.03424
G0 F3600 X45.409 Y46.31
G1 F1200 X45.859 Y45.865 E15.11019
G1 X46.268 Y45.482 E15.17743
G1 X46.368 Y45.392 E15.19357
G1 X46.856 Y44.971 E15.27091
G1 X47.32 Y44.595 E15.34258
G1 X47.417 Y44.52 E15.35729
G1 X47.82 Y44.217 E15.4178
G1 X47.918 Y44.145 E15.43239
G1 X48.435 Y43.783 E15.50813
G1 X48.908 Y43.472 E15.57606
G1 X49.019 Y43.402 E15.5918
G1 X49.541 Y43.087 E15.66496
G1 X49.638 Y43.03 E15.67847
G1 X50.108 Y42.766 E15.74315
G1 X50.224 Y42.704 E15.75894
G1 X50.675 Y42.472 E15.8198
G1 X50.779 Y42.42 E15.83375
G1 X51.247 Y42.198 E15.89591
G1 X51.358 Y42.148 E15.91052
G1 X51.861 Y41.93 E15.9763
G1 X51.976 Y41.883 E15.99121
G1 X52.551 Y41.657 E16.06535
G1 X52.665 Y41.614 E16.07997
G1 X53.139 Y41.446 E16.14032
G1 X53.257 Y41.407 E16.15523
G1 X53.763 Y41.247 E16.21891
G1 X54.318 Y41.089 E16.28816
G1 X54.431 Y41.059 E16.30219
G1 X55.111 Y40.892 E16.38621
G1 X55.63 Y40.782 E16.44988
G1 X55.749 Y40.759 E16.46442
G1 X56.355 Y40.654 E16.53823
G1 X56.479 Y40.635 E16.55328
G1 X57.031 Y40.559 E16.62014
G1 X57.551 Y40.502 E16.68292
G1 X57.678 Y40.491 E16.69822
G1 X58.421 Y40.439 E16.78759
G1 X59.019 Y40.417 E16.8594
G1 X59.697 Y40.415 E16.94076
G1 X60.295 Y40.432 E17.01255
G1 X60.907 Y40.47 E17.08613
G1 X61.032 Y40.48 E17.10118
G1 X61.663 Y40.543 E17.17728
G1 X61.779 Y40.556 E17.19128
G1 X62.306 Y40.626 E17.25508
G1 X62.863 Y40.718 E17.32283
G1 X62.976 Y40.739 E17.33662
G1 X63.616 Y40.868 E17.41496
G1 X63.749 Y40.897 E17.4313
G1 X64.284 Y41.026 E17.49734
G1 X64.814 Y41.17 E17.56324
G1 X64.937 Y41.206 E17.57862
G1 X65.536 Y41.393 E17.65392
G1 X66.111 Y41.591 E17.7269
G1 X66.234 Y41.636 E17.74262
G1 X66.738 Y41.832 E17.80751
G1 X66.85 Y41.877 E17.82199
G1 X67.392 Y42.109 E17.89274
G1 X67.904 Y42.345 E17.96039
G1 X68.02 Y42.402 E17.9759
G1 X68.561 Y42.677 E18.04873
G1 X68.678 Y42.739 E18.06462
G1 X69.166 Y43.01 E18.1316
G1 X69.677 Y43.314 E18.20295
G1 X69.774 Y43.374 E18.21664
G1 X70.27 Y43.693 E18.28741
G1 X70.747 Y44.021 E18.35687
G1 X70.845 Y44.091 E18.37133
G1 X71.381 Y44.49 E18.45151
G1 X71.48 Y44.567 E18.46656
G1 X71.875 Y44.883 E18.52726
G1 X72.313 Y45.254 E18.59614
G1 X72.409 Y45.339 E18.61153
G1 X72.882 Y45.773 E18.68856
G1 X73.285 Y46.165 E18.75603
G1 X73.374 Y46.256 E18.7713
G1 X73.819 Y46.723 E18.84871
G1 X74.223 Y47.174 E18.92137
G1 X74.301 Y47.264 E18.93566
G1 X74.665 Y47.702 E19.004
G1 X75.038 Y48.18 E19.07676
G1 X75.111 Y48.277 E19.09133
G1 X75.433 Y48.722 E19.15724
G1 X75.503 Y48.823 E19.17199
G1 X75.846 Y49.333 E19.24574
G1 X76.162 Y49.834 E19.31682
G1 X76.226 Y49.94 E19.33168
G1 X76.511 Y50.433 E19.40001
G1 X76.569 Y50.538 E19.41441
G1 X76.824 Y51.015 E19.47931
G1 X76.88 Y51.124 E19.49402
G1 X77.117 Y51.606 E19.55847
G1 X77.369 Y52.162 E19.63173
G1 X77.415 Y52.27 E19.64581
G1 X77.665 Y52.879 E19.72481
G1 X77.852 Y53.374 E19.78831
G1 X77.896 Y53.5 E19.80432
G1 X78.116 Y54.164 E19.88826
G1 X78.292 Y54.758 E19.96261
G1 X78.442 Y55.335 E20.03415
G1 X78.472 Y55.461 E20.04969
G1 X78.603 Y56.051 E20.12221
G1 X78.701 Y56.557 E20.18406
G1 X78.721 Y56.673 E20.19819
G1 X78.82 Y57.309 E20.27543
G1 X78.839 Y57.444 E20.29179
G1 X78.906 Y58.016 E20.3609
G1 X78.954 Y58.563 E20.42679
G1 X78.962 Y58.687 E20.4417
G1 X78.994 Y59.319 E20.51764
G1 X79.007 Y59.942 E20.59241
G1 X78.999 Y60.557 E20.66622
G1 X78.994 Y60.682 E20.68123
G1 X78.962 Y61.312 E20.75693
G1 X78.917 Y61.869 E20.82399
G1 X78.905 Y61.985 E20.83798
G1 X78.838 Y62.555 E20.90685
G1 X78.82 Y62.687 E20.92284
G1 X78.721 Y63.325 E21.00031
G1 X78.626 Y63.839 E21.06304
G1 X78.603 Y63.949 E21.07652
G1 X78.472 Y64.539 E21.14905
G1 X78.441 Y64.668 E21.16497
G1 X78.291 Y65.243 E21.23628
G1 X78.115 Y65.841 E21.31108
G1 X77.894 Y66.505 E21.39506
G1 X77.711 Y67.005 E21.45895
G1 X77.668 Y67.115 E21.47312
G1 X77.419 Y67.725 E21.55219
G1 X77.166 Y68.29 E21.62647
G1 X77.117 Y68.394 E21.64027
G1 X76.886 Y68.864 E21.70311
G1 X76.831 Y68.971 E21.71755
G1 X76.57 Y69.46 E21.78407
G1 X76.509 Y69.569 E21.79906
G1 X76.224 Y70.061 E21.86729
G1 X75.914 Y70.563 E21.93809
G1 X75.848 Y70.664 E21.95256
G1 X75.507 Y71.172 E22.02598
G1 X75.433 Y71.279 E22.0416
G1 X75.109 Y71.726 E22.10784
G1 X74.744 Y72.2 E22.17963
G1 X74.666 Y72.297 E22.19457
G1 X74.3 Y72.737 E22.26325
G1 X73.907 Y73.182 E22.33449
G1 X73.821 Y73.276 E22.34978
G1 X73.374 Y73.745 E22.42753
G1 X72.962 Y74.15 E22.49686
G1 X72.886 Y74.222 E22.50942
G1 X72.412 Y74.658 E22.5867
G1 X71.959 Y75.046 E22.65828
G1 X71.878 Y75.114 E22.67097
G1 X71.481 Y75.432 E22.73201
G1 X71.382 Y75.508 E22.74698
G1 X70.847 Y75.907 E22.82707
G1 X70.366 Y76.243 E22.89748
G1 X70.276 Y76.303 E22.91046
G1 X69.782 Y76.622 E22.98103
G1 X69.261 Y76.935 E23.05396
G1 X69.166 Y76.99 E23.06713
G1 X68.68 Y77.26 E23.13385
G1 X68.563 Y77.322 E23.14974
G1 X68.02 Y77.598 E23.22283
G1 X67.495 Y77.845 E23.29246
G1 X67.393 Y77.89 E23.30584
G1 X66.848 Y78.123 E23.37696
G1 X66.738 Y78.168 E23.39122
G1 X66.234 Y78.364 E23.45612
G1 X65.645 Y78.571 E23.53103
G1 X65.536 Y78.607 E23.54481
G1 X64.937 Y78.794 E23.62011
G1 X64.39 Y78.946 E23.68824
G1 X64.278 Y78.975 E23.70212
G1 X63.743 Y79.103 E23.76813
G1 X63.622 Y79.13 E23.78301
G1 X62.982 Y79.26 E23.86138
G1 X62.428 Y79.355 E23.92883
G1 X62.306 Y79.374 E23.94364
G1 X61.78 Y79.444 E24.00732
G1 X61.663 Y79.457 E24.02145
G1 X61.032 Y79.52 E24.09754
G1 X60.414 Y79.562 E24.17187
G1 X59.823 Y79.583 E24.24284
G1 X59.698 Y79.585 E24.25784
G1 X59.019 Y79.583 E24.33932
G1 X58.419 Y79.561 E24.41137
G1 X57.677 Y79.509 E24.50063
G1 X57.144 Y79.455 E24.56492
G1 X57.033 Y79.441 E24.57834
G1 X56.48 Y79.365 E24.64533
G1 X56.353 Y79.346 E24.66073
G1 X55.749 Y79.241 E24.7343
G1 X55.24 Y79.137 E24.79664
G1 X55.114 Y79.109 E24.81213
G1 X54.432 Y78.942 E24.89639
G1 X53.871 Y78.786 E24.96626
G1 X53.761 Y78.753 E24.98005
G1 X53.256 Y78.593 E25.04361
G1 X53.141 Y78.554 E25.05819
G1 X52.664 Y78.385 E25.11891
G1 X52.553 Y78.344 E25.13311
G1 X51.981 Y78.12 E25.20683
G1 X51.859 Y78.07 E25.22265
G1 X51.355 Y77.851 E25.28859
G1 X51.247 Y77.802 E25.30282
G1 X50.779 Y77.58 E25.36498
G1 X50.675 Y77.528 E25.37894
G1 X50.224 Y77.296 E25.4398
G1 X50.109 Y77.234 E25.45547
G1 X49.637 Y76.969 E25.52043
G1 X49.538 Y76.912 E25.53414
G1 X49.018 Y76.598 E25.60703
G1 X48.534 Y76.285 E25.6762
G1 X48.431 Y76.215 E25.69114
G1 X47.914 Y75.852 E25.76695
G1 X47.821 Y75.784 E25.78077
G1 X47.419 Y75.482 E25.84111
G1 X46.955 Y75.111 E25.9124
G1 X46.85 Y75.024 E25.92876
G1 X46.363 Y74.602 E26.00609
G1 X45.946 Y74.218 E26.07412
G1 X45.853 Y74.129 E26.08956
G1 X45.404 Y73.683 E26.16551
G1 X44.996 Y73.254 E26.23655
G1 X44.91 Y73.16 E26.25184
G1 X44.563 Y72.766 E26.31484
G1 X44.486 Y72.676 E26.32906
G1 X44.075 Y72.177 E26.40663
G1 X43.757 Y71.765 E26.46909
G1 X43.687 Y71.67 E26.48325
G1 X43.333 Y71.175 E26.55627
G1 X43.263 Y71.074 E26.57102
G1 X42.926 Y70.567 E26.64407
G1 X42.643 Y70.114 E26.70817
G1 X42.579 Y70.005 E26.72334
G1 X42.224 Y69.381 E26.80949
G1 X41.957 Y68.876 E26.87804
G1 X41.687 Y68.322 E26.95199
G1 X41.636 Y68.212 E26.96654
G1 X41.354 Y67.576 E27.05003
G1 X41.252 Y67.329 E27.08209
G1 X41.091 Y66.818 E27.14639
G1 X41.007 Y66.288 E27.21078
G1 X40.997 Y65.858 E27.26239
G1 X41.023 Y65.186 E27.34309
G1 X41.101 Y63.689 E27.52298
G1 X41.166 Y60.96 E27.85055
G1 X41.154 Y58.23 E28.17815
G1 X41.065 Y55.511 E28.50461
G1 X41.024 Y54.802 E28.58983
G1 X40.998 Y54.161 E28.66681
G1 X41.016 Y53.625 E28.73117
G1 X41.114 Y53.098 E28.79549
G1 X41.337 Y52.468 E28.87569
G1 X41.387 Y52.35 E28.89107
G1 X41.637 Y51.787 E28.96499
G1 X41.898 Y51.241 E29.03761
G1 X41.955 Y51.129 E29.05269
G1 X42.228 Y50.611 E29.12296
G1 X42.29 Y50.498 E29.13842
G1 X42.582 Y49.989 E29.20884
G1 X42.865 Y49.529 E29.27365
G1 X42.926 Y49.434 E29.2872
G1 X43.262 Y48.928 E29.36009
G1 X43.334 Y48.824 E29.37527
G1 X43.689 Y48.328 E29.44846
G1 X43.997 Y47.922 E29.50961
G1 X44.073 Y47.826 E29.52431
G1 X44.483 Y47.327 E29.60181
G1 X44.566 Y47.229 E29.61722
G1 X44.913 Y46.836 E29.68013
G1 X45.317 Y46.405 E29.75102
G1 X45.409 Y46.31 E29.76689
G0 F3600 X45.69 Y46.595
G1 F1200 X46.21 Y46.082 E29.85454
G1 X46.63 Y45.695 E29.92308
