;FLAVOR:UltiGCode
;TIME:1746
;MATERIAL:1841
;MATERIAL2:0
;NOZZLE_DIAMETER:0.4
;MINX:40.598
;MINY:40.015
;MINZ:0.3
;MAXX:79.406
;MAXY:79.985
;MAXZ:11.5
;Generated with Cura_SteamEngine 4.7.1
M82 ;absolute extrusion mode
G0 F3000 Y50 ;avoid prime blob
G92 E0
G92 E0
G10
;LAYER_COUNT:113
;LAYER:0
M107
G0 F3600 X45.128 Y46.026 Z0.3
;TYPE:SKIRT
G11
G1 F1800 X45.577 Y45.582 E0.07577
G1 X45.996 Y45.19 E0.14463
G1 X46.109 Y45.089 E0.16282
G1 X46.596 Y44.669 E0.23999
G1 X47.069 Y44.284 E0.31317
G1 X47.177 Y44.2 E0.32959
G1 X47.58 Y43.897 E0.39009
G1 X47.692 Y43.814 E0.40682
G1 X48.21 Y43.452 E0.48266
G1 X48.686 Y43.138 E0.55109
G1 X48.811 Y43.059 E0.56883
G1 X49.333 Y42.744 E0.64199
G1 X49.447 Y42.678 E0.6578
G1 X49.917 Y42.415 E0.72243
G1 X50.037 Y42.351 E0.73875
G1 X50.489 Y42.118 E0.79977
G1 X50.608 Y42.059 E0.81571
G1 X51.076 Y41.837 E0.87787
G1 X51.196 Y41.782 E0.89371
G1 X51.7 Y41.563 E0.95965
G1 X51.834 Y41.508 E0.97703
G1 X52.408 Y41.283 E1.05102
G1 X52.532 Y41.237 E1.06689
G1 X53.006 Y41.069 E1.12723
G1 X53.131 Y41.027 E1.14306
G1 X53.638 Y40.866 E1.20689
G1 X54.212 Y40.703 E1.2785
G1 X54.34 Y40.669 E1.29439
G1 X55.02 Y40.503 E1.37839
G1 X55.544 Y40.391 E1.44269
G1 X55.682 Y40.365 E1.45954
G1 X56.288 Y40.26 E1.53334
G1 X56.424 Y40.239 E1.54985
G1 X56.975 Y40.163 E1.6166
G1 X57.511 Y40.104 E1.68131
G1 X57.65 Y40.092 E1.69805
G1 X58.391 Y40.04 E1.78719
G1 X59.018 Y40.017 E1.86248
G1 X59.697 Y40.015 E1.94396
G1 X60.308 Y40.032 E2.01731
G1 X60.933 Y40.07 E2.09245
G1 X61.071 Y40.082 E2.10907
G1 X61.702 Y40.145 E2.18517
G1 X61.832 Y40.16 E2.20087
G1 X62.359 Y40.23 E2.26466
G1 X62.93 Y40.324 E2.33411
G1 X63.055 Y40.347 E2.34936
G1 X63.695 Y40.476 E2.4277
G1 X63.843 Y40.508 E2.44587
G1 X64.378 Y40.637 E2.51191
G1 X64.92 Y40.784 E2.5793
G1 X65.056 Y40.824 E2.59631
G1 X65.655 Y41.011 E2.67162
G1 X66.242 Y41.213 E2.74611
G1 X66.379 Y41.263 E2.76361
G1 X66.883 Y41.459 E2.8285
G1 X67.007 Y41.51 E2.84459
G1 X67.549 Y41.742 E2.91534
G1 X68.072 Y41.982 E2.98439
G1 X68.202 Y42.045 E3.00173
G1 X68.743 Y42.32 E3.07455
G1 X68.872 Y42.389 E3.09211
G1 X69.36 Y42.66 E3.15909
G1 X69.883 Y42.971 E3.23211
G1 X69.991 Y43.038 E3.24736
G1 X70.487 Y43.357 E3.31813
G1 X70.975 Y43.692 E3.38916
G1 X71.083 Y43.77 E3.40515
G1 X71.619 Y44.169 E3.48533
G1 X71.73 Y44.255 E3.50218
G1 X72.125 Y44.571 E3.56288
G1 X72.572 Y44.95 E3.63321
G1 X72.679 Y45.045 E3.65038
G1 X73.152 Y45.479 E3.72741
G1 X73.565 Y45.879 E3.79641
G1 X73.664 Y45.98 E3.81338
G1 X74.109 Y46.447 E3.89078
G1 X74.522 Y46.908 E3.96506
G1 X74.608 Y47.008 E3.98089
G1 X74.972 Y47.446 E4.04923
G1 X75.354 Y47.935 E4.12369
G1 X75.435 Y48.042 E4.13979
G1 X75.757 Y48.487 E4.20571
G1 X75.835 Y48.6 E4.22218
G1 X76.178 Y49.11 E4.29594
G1 X76.501 Y49.622 E4.36858
G1 X76.572 Y49.74 E4.38511
G1 X76.857 Y50.233 E4.45344
G1 X76.922 Y50.349 E4.4694
G1 X77.177 Y50.826 E4.5343
G1 X77.239 Y50.947 E4.55062
G1 X77.476 Y51.429 E4.61507
G1 X77.734 Y51.998 E4.69004
G1 X77.785 Y52.118 E4.70569
G1 X78.035 Y52.727 E4.78469
G1 X78.227 Y53.234 E4.84974
G1 X78.276 Y53.374 E4.86754
G1 X78.496 Y54.038 E4.95148
G1 X78.643 Y54.528 E5.01287
G1 X78.679 Y54.658 E5.02906
G1 X78.829 Y55.235 E5.1006
G1 X78.863 Y55.374 E5.11777
G1 X78.994 Y55.964 E5.1903
G1 X79.094 Y56.483 E5.25372
G1 X79.116 Y56.612 E5.26943
G1 X79.215 Y57.248 E5.34667
G1 X79.236 Y57.398 E5.36484
G1 X79.303 Y57.97 E5.43395
G1 X79.353 Y58.529 E5.5013
G1 X79.362 Y58.667 E5.51789
G1 X79.394 Y59.299 E5.59383
G1 X79.406 Y59.936 E5.67028
G1 X79.398 Y60.563 E5.74553
G1 X79.394 Y60.702 E5.76222
G1 X79.362 Y61.332 E5.83791
G1 X79.316 Y61.903 E5.90666
G1 X79.303 Y62.032 E5.92221
G1 X79.236 Y62.602 E5.99109
G1 X79.216 Y62.748 E6.00877
G1 X79.117 Y63.386 E6.08625
G1 X79.019 Y63.913 E6.15057
G1 X78.994 Y64.036 E6.16563
G1 X78.863 Y64.626 E6.23816
G1 X78.828 Y64.769 E6.25582
G1 X78.678 Y65.344 E6.32713
G1 X78.536 Y65.834 E6.38835
G1 X78.494 Y65.967 E6.40509
G1 X78.273 Y66.631 E6.48906
G1 X78.086 Y67.144 E6.55459
G1 X78.038 Y67.266 E6.57032
G1 X77.789 Y67.876 E6.64938
G1 X77.53 Y68.455 E6.7255
G1 X77.476 Y68.57 E6.74074
G1 X77.245 Y69.04 E6.80359
G1 X77.184 Y69.159 E6.81963
G1 X76.923 Y69.648 E6.88615
G1 X76.855 Y69.77 E6.90291
G1 X76.57 Y70.262 E6.97114
G1 X76.253 Y70.774 E7.0434
G1 X76.18 Y70.887 E7.05955
G1 X75.839 Y71.395 E7.13297
G1 X75.757 Y71.514 E7.15031
G1 X75.433 Y71.961 E7.21656
G1 X75.06 Y72.445 E7.28988
G1 X74.973 Y72.553 E7.30653
G1 X74.607 Y72.993 E7.3752
G1 X74.206 Y73.448 E7.44798
G1 X74.111 Y73.552 E7.46489
G1 X73.664 Y74.021 E7.54263
G1 X73.241 Y74.436 E7.61374
G1 X73.157 Y74.516 E7.62766
G1 X72.683 Y74.952 E7.70495
G1 X72.219 Y75.351 E7.77838
G1 X72.128 Y75.426 E7.79253
G1 X71.731 Y75.744 E7.85357
G1 X71.621 Y75.828 E7.87018
G1 X71.086 Y76.227 E7.95027
G1 X70.592 Y76.573 E8.02264
G1 X70.493 Y76.639 E8.03692
G1 X69.999 Y76.958 E8.10749
G1 X69.466 Y77.279 E8.18215
G1 X69.361 Y77.34 E8.19672
G1 X68.875 Y77.61 E8.26344
G1 X68.744 Y77.679 E8.28121
G1 X68.201 Y77.955 E8.3543
G1 X67.664 Y78.207 E8.42548
G1 X67.55 Y78.258 E8.44047
G1 X67.005 Y78.491 E8.5116
G1 X66.883 Y78.541 E8.52742
G1 X66.379 Y78.737 E8.59231
G1 X65.776 Y78.949 E8.66901
G1 X65.655 Y78.989 E8.6843
G1 X65.056 Y79.176 E8.75961
G1 X64.496 Y79.332 E8.82936
G1 X64.371 Y79.364 E8.84485
G1 X63.836 Y79.492 E8.91086
G1 X63.701 Y79.522 E8.92745
G1 X63.061 Y79.652 E9.00582
G1 X62.494 Y79.75 E9.07487
G1 X62.359 Y79.77 E9.09125
G1 X61.833 Y79.84 E9.15493
G1 X61.702 Y79.855 E9.17075
G1 X61.071 Y79.918 E9.24684
G1 X60.44 Y79.962 E9.32275
G1 X59.836 Y79.983 E9.39527
G1 X59.697 Y79.985 E9.41195
G1 X59.018 Y79.983 E9.49343
G1 X58.391 Y79.96 E9.56872
G1 X57.649 Y79.908 E9.65798
G1 X57.102 Y79.853 E9.72395
G1 X56.978 Y79.838 E9.73894
G1 X56.425 Y79.762 E9.80593
G1 X56.285 Y79.74 E9.82293
G1 X55.681 Y79.635 E9.8965
G1 X55.159 Y79.529 E9.96042
G1 X55.019 Y79.497 E9.97765
G1 X54.337 Y79.33 E10.06191
G1 X53.763 Y79.171 E10.13338
G1 X53.64 Y79.134 E10.1488
G1 X53.135 Y78.974 E10.21237
G1 X53.007 Y78.931 E10.22857
G1 X52.53 Y78.762 E10.2893
G1 X52.407 Y78.717 E10.30501
G1 X51.835 Y78.493 E10.37873
G1 X51.7 Y78.437 E10.39627
G1 X51.196 Y78.218 E10.46221
G1 X51.076 Y78.163 E10.47805
G1 X50.608 Y77.941 E10.54021
G1 X50.492 Y77.884 E10.55572
G1 X50.041 Y77.652 E10.61658
G1 X49.913 Y77.583 E10.63403
G1 X49.441 Y77.318 E10.69898
G1 X49.331 Y77.254 E10.71426
G1 X48.811 Y76.94 E10.78715
G1 X48.316 Y76.62 E10.85788
G1 X48.201 Y76.543 E10.87449
G1 X47.684 Y76.18 E10.95029
G1 X47.58 Y76.104 E10.96575
G1 X47.178 Y75.802 E11.02609
G1 X46.705 Y75.423 E11.09882
G1 X46.589 Y75.326 E11.11697
G1 X46.102 Y74.904 E11.19429
G1 X45.675 Y74.512 E11.26385
G1 X45.571 Y74.413 E11.28108
G1 X45.122 Y73.967 E11.35703
G1 X44.705 Y73.529 E11.4296
G1 X44.61 Y73.425 E11.4465
G1 X44.263 Y73.031 E11.5095
G1 X44.177 Y72.93 E11.52542
G1 X43.766 Y72.431 E11.603
G1 X43.44 Y72.008 E11.66708
G1 X43.361 Y71.903 E11.68285
G1 X43.007 Y71.408 E11.75588
G1 X42.93 Y71.295 E11.77229
G1 X42.593 Y70.788 E11.84534
G1 X42.303 Y70.324 E11.911
G1 X42.231 Y70.203 E11.9279
G1 X41.933 Y69.681 E12.00003
G1 X41.871 Y69.568 E12.01549
G1 X41.604 Y69.063 E12.08404
G1 X41.327 Y68.496 E12.15977
G1 X41.27 Y68.374 E12.17593
G1 X40.988 Y67.738 E12.25941
G1 X40.881 Y67.478 E12.29315
G1 X40.709 Y66.939 E12.36104
G1 X40.614 Y66.382 E12.42885
G1 X40.598 Y65.844 E12.49344
G1 X40.623 Y65.163 E12.57521
G1 X40.706 Y63.564 E12.76735
G1 X40.769 Y60.856 E13.0924
G1 X40.755 Y58.154 E13.41664
G1 X40.604 Y54.274 E13.8826
G1 X40.616 Y53.768 E13.94333
G1 X40.631 Y53.597 E13.96393
G1 X40.72 Y53.039 E14.03174
G1 X40.961 Y52.323 E14.12239
G1 X41.272 Y51.623 E14.21431
G1 X41.54 Y51.064 E14.2887
G1 X41.603 Y50.94 E14.30539
G1 X41.877 Y50.421 E14.37582
G1 X41.945 Y50.297 E14.39279
G1 X42.236 Y49.79 E14.46294
G1 X42.522 Y49.322 E14.52876
G1 X42.592 Y49.214 E14.5442
G1 X42.927 Y48.709 E14.61692
G1 X43.008 Y48.591 E14.6341
G1 X43.364 Y48.094 E14.70746
G1 X43.677 Y47.681 E14.76964
G1 X43.764 Y47.572 E14.78638
G1 X44.175 Y47.072 E14.86405
G1 X44.27 Y46.961 E14.88158
G1 X44.697 Y46.48 E14.95876
G1 X45.128 Y46.026 E15.03388
G0 F3600 X45.41 Y46.31
G1 F1800 X45.859 Y45.866 E15.10966
G1 X46.269 Y45.482 E15.17707
G1 X46.37 Y45.392 E15.1933
G1 X46.857 Y44.972 E15.27047
G1 X47.32 Y44.595 E15.34212
G1 X47.821 Y44.217 E15.41743
G1 X47.921 Y44.142 E15.43243
G1 X48.439 Y43.78 E15.50827
G1 X48.905 Y43.473 E15.57523
G1 X49.018 Y43.402 E15.59125
G1 X49.54 Y43.087 E15.66441
G1 X49.642 Y43.027 E15.67861
G1 X50.112 Y42.764 E15.74324
G1 X50.221 Y42.706 E15.75805
G1 X50.673 Y42.473 E15.81908
G1 X50.779 Y42.42 E15.8333
G1 X51.247 Y42.198 E15.89546
G1 X51.355 Y42.149 E15.90969
G1 X51.859 Y41.93 E15.97563
G1 X51.98 Y41.88 E15.99134
G1 X52.554 Y41.655 E16.06532
G1 X52.665 Y41.614 E16.07952
G1 X53.139 Y41.446 E16.13987
G1 X53.252 Y41.408 E16.15418
G1 X53.759 Y41.247 E16.21801
G1 X54.32 Y41.088 E16.28798
G1 X54.435 Y41.058 E16.30224
G1 X55.115 Y40.892 E16.38624
G1 X55.627 Y40.783 E16.44906
G1 X55.75 Y40.759 E16.4641
G1 X56.356 Y40.654 E16.5379
G1 X56.479 Y40.635 E16.55283
G1 X57.03 Y40.559 E16.61958
G1 X57.553 Y40.502 E16.68271
G1 X57.678 Y40.491 E16.69777
G1 X58.419 Y40.439 E16.78691
G1 X59.019 Y40.417 E16.85896
G1 X59.698 Y40.415 E16.94044
G1 X60.295 Y40.432 E17.01211
G1 X60.907 Y40.47 E17.08569
G1 X61.032 Y40.48 E17.10074
G1 X61.663 Y40.543 E17.17683
G1 X61.779 Y40.556 E17.19084
G1 X62.306 Y40.626 E17.25463
G1 X62.863 Y40.718 E17.32238
G1 X62.976 Y40.739 E17.33617
G1 X63.616 Y40.868 E17.41452
G1 X63.749 Y40.897 E17.43085
G1 X64.284 Y41.026 E17.49689
G1 X64.814 Y41.17 E17.5628
G1 X64.937 Y41.206 E17.57818
G1 X65.536 Y41.393 E17.65348
G1 X66.111 Y41.591 E17.72645
G1 X66.234 Y41.636 E17.74217
G1 X66.738 Y41.832 E17.80706
G1 X66.85 Y41.877 E17.82155
G1 X67.392 Y42.109 E17.8923
G1 X67.904 Y42.345 E17.95995
G1 X68.02 Y42.402 E17.97546
G1 X68.561 Y42.677 E18.04828
G1 X68.678 Y42.739 E18.06417
G1 X69.166 Y43.01 E18.13116
G1 X69.677 Y43.314 E18.20251
G1 X69.774 Y43.374 E18.21619
G1 X70.27 Y43.693 E18.28696
G1 X70.747 Y44.021 E18.35643
G1 X70.845 Y44.091 E18.37088
G1 X71.381 Y44.49 E18.45107
G1 X71.48 Y44.567 E18.46612
G1 X71.875 Y44.883 E18.52682
G1 X72.313 Y45.254 E18.5957
G1 X72.409 Y45.339 E18.61108
G1 X72.882 Y45.773 E18.68812
G1 X73.285 Y46.165 E18.75558
G1 X73.374 Y46.256 E18.77086
G1 X73.819 Y46.723 E18.84826
G1 X74.223 Y47.174 E18.92092
G1 X74.301 Y47.264 E18.93521
G1 X74.665 Y47.702 E19.00356
G1 X75.038 Y48.18 E19.07631
G1 X75.111 Y48.277 E19.09088
G1 X75.433 Y48.722 E19.15679
G1 X75.503 Y48.823 E19.17154
G1 X75.846 Y49.333 E19.24529
G1 X76.162 Y49.834 E19.31637
G1 X76.226 Y49.94 E19.33123
G1 X76.511 Y50.433 E19.39957
G1 X76.569 Y50.538 E19.41396
G1 X76.824 Y51.015 E19.47887
G1 X76.88 Y51.124 E19.49357
G1 X77.117 Y51.606 E19.55803
G1 X77.369 Y52.162 E19.63128
G1 X77.415 Y52.27 E19.64537
G1 X77.665 Y52.879 E19.72436
G1 X77.852 Y53.374 E19.78786
G1 X77.896 Y53.5 E19.80388
G1 X78.116 Y54.164 E19.88782
G1 X78.292 Y54.758 E19.96216
G1 X78.442 Y55.335 E20.0337
G1 X78.472 Y55.461 E20.04924
G1 X78.603 Y56.051 E20.12177
G1 X78.701 Y56.557 E20.18362
G1 X78.721 Y56.673 E20.19774
G1 X78.82 Y57.309 E20.27498
G1 X78.839 Y57.444 E20.29134
G1 X78.906 Y58.016 E20.36045
G1 X78.954 Y58.563 E20.42634
G1 X78.962 Y58.687 E20.44125
G1 X78.994 Y59.319 E20.51719
G1 X79.007 Y59.942 E20.59197
G1 X78.999 Y60.557 E20.66577
G1 X78.994 Y60.682 E20.68078
G1 X78.962 Y61.312 E20.75648
G1 X78.917 Y61.869 E20.82354
G1 X78.905 Y61.985 E20.83753
G1 X78.838 Y62.555 E20.90641
G1 X78.82 Y62.687 E20.92239
G1 X78.721 Y63.325 E20.99987
G1 X78.626 Y63.839 E21.06259
G1 X78.603 Y63.949 E21.07608
G1 X78.472 Y64.539 E21.1486
G1 X78.441 Y64.668 E21.16452
G1 X78.291 Y65.243 E21.23583
G1 X78.115 Y65.841 E21.31064
G1 X77.894 Y66.505 E21.39461
G1 X77.711 Y67.005 E21.45851
G1 X77.668 Y67.115 E21.47268
G1 X77.419 Y67.725 E21.55174
G1 X77.166 Y68.29 E21.62603
G1 X77.117 Y68.394 E21.63982
G1 X76.886 Y68.864 E21.70267
G1 X76.831 Y68.971 E21.71711
G1 X76.57 Y69.46 E21.78362
G1 X76.509 Y69.569 E21.79861
G1 X76.224 Y70.061 E21.86684
G1 X75.914 Y70.563 E21.93764
G1 X75.848 Y70.664 E21.95212
G1 X75.507 Y71.172 E22.02554
G1 X75.433 Y71.279 E22.04115
G1 X75.109 Y71.726 E22.1074
G1 X74.744 Y72.2 E22.17919
G1 X74.666 Y72.297 E22.19413
G1 X74.3 Y72.737 E22.26281
G1 X73.907 Y73.182 E22.33405
G1 X73.821 Y73.276 E22.34934
G1 X73.374 Y73.745 E22.42708
G1 X72.962 Y74.15 E22.49641
G1 X72.886 Y74.222 E22.50897
G1 X72.412 Y74.658 E22.58626
G1 X71.959 Y75.046 E22.65783
G1 X71.878 Y75.114 E22.67052
G1 X71.481 Y75.432 E22.73156
G1 X71.382 Y75.508 E22.74654
G1 X70.847 Y75.907 E22.82663
G1 X70.366 Y76.243 E22.89704
G1 X70.276 Y76.303 E22.91002
G1 X69.782 Y76.622 E22.98058
G1 X69.261 Y76.935 E23.05352
G1 X69.166 Y76.99 E23.06669
G1 X68.68 Y77.26 E23.1334
G1 X68.563 Y77.322 E23.14929
G1 X68.02 Y77.598 E23.22239
G1 X67.495 Y77.845 E23.29201
G1 X67.393 Y77.89 E23.30539
G1 X66.848 Y78.123 E23.37652
G1 X66.738 Y78.168 E23.39078
G1 X66.234 Y78.364 E23.45567
G1 X65.645 Y78.571 E23.53059
G1 X65.536 Y78.607 E23.54436
G1 X64.937 Y78.794 E23.61966
G1 X64.39 Y78.946 E23.68779
G1 X64.278 Y78.975 E23.70168
G1 X63.743 Y79.103 E23.76769
G1 X63.622 Y79.13 E23.78256
G1 X62.982 Y79.26 E23.86093
G1 X62.428 Y79.355 E23.92838
G1 X62.306 Y79.374 E23.9432
G1 X61.78 Y79.444 E24.00688
G1 X61.663 Y79.457 E24.021
G1 X61.032 Y79.52 E24.0971
G1 X60.414 Y79.562 E24.17143
G1 X59.823 Y79.583 E24.24239
G1 X59.698 Y79.585 E24.2574
G1 X59.019 Y79.583 E24.33888
G1 X58.419 Y79.561 E24.41093
G1 X57.677 Y79.509 E24.50018
G1 X57.144 Y79.455 E24.56447
G1 X57.033 Y79.441 E24.5779
G1 X56.48 Y79.365 E24.64488
G1 X56.353 Y79.346 E24.66029
G1 X55.749 Y79.241 E24.73386
G1 X55.24 Y79.137 E24.7962
G1 X55.114 Y79.109 E24.81169
G1 X54.432 Y78.942 E24.89595
G1 X53.871 Y78.786 E24.96582
G1 X53.761 Y78.753 E24.9796
G1 X53.256 Y78.593 E25.04317
G1 X53.141 Y78.554 E25.05774
G1 X52.664 Y78.385 E25.11847
G1 X52.553 Y78.344 E25.13267
G1 X51.981 Y78.12 E25.20638
G1 X51.859 Y78.07 E25.22221
G1 X51.355 Y77.851 E25.28815
G1 X51.247 Y77.802 E25.30238
G1 X50.779 Y77.58 E25.36454
G1 X50.675 Y77.528 E25.37849
G1 X50.224 Y77.296 E25.43935
G1 X50.109 Y77.234 E25.45503
G1 X49.637 Y76.969 E25.51999
G1 X49.538 Y76.912 E25.53369
G1 X49.018 Y76.598 E25.60659
G1 X48.534 Y76.285 E25.67576
G1 X48.431 Y76.215 E25.6907
G1 X47.914 Y75.852 E25.7665
G1 X47.821 Y75.784 E25.78033
G1 X47.419 Y75.482 E25.84067
G1 X46.955 Y75.111 E25.91196
G1 X46.85 Y75.024 E25.92832
G1 X46.363 Y74.602 E26.00565
G1 X45.946 Y74.218 E26.07367
G1 X45.853 Y74.129 E26.08912
G1 X45.404 Y73.683 E26.16506
G1 X44.996 Y73.254 E26.23611
G1 X44.91 Y73.16 E26.2514
G1 X44.563 Y72.766 E26.3144
G1 X44.486 Y72.676 E26.32861
G1 X44.075 Y72.177 E26.40619
G1 X43.757 Y71.765 E26.46864
G1 X43.687 Y71.67 E26.4828
G1 X43.333 Y71.175 E26.55583
G1 X43.263 Y71.074 E26.57057
G1 X42.926 Y70.567 E26.64363
G1 X42.643 Y70.114 E26.70772
G1 X42.579 Y70.005 E26.72289
G1 X42.224 Y69.381 E26.80904
G1 X41.957 Y68.876 E26.87759
G1 X41.687 Y68.322 E26.95155
G1 X41.636 Y68.212 E26.9661
G1 X41.354 Y67.576 E27.04958
G1 X41.252 Y67.329 E27.08165
G1 X41.091 Y66.818 E27.14594
G1 X41.007 Y66.288 E27.21034
G1 X40.997 Y65.859 E27.26183
G1 X41.023 Y65.183 E27.34301
G1 X41.105 Y63.593 E27.53406
G1 X41.169 Y60.863 E27.86175
G1 X41.155 Y58.129 E28.18984
G1 X41.004 Y54.258 E28.65471
G1 X41.03 Y53.632 E28.72989
G1 X41.116 Y53.103 E28.79421
G1 X41.326 Y52.485 E28.87253
G1 X41.637 Y51.785 E28.96445
G1 X41.9 Y51.238 E29.03728
G1 X41.956 Y51.126 E29.05231
G1 X42.23 Y50.607 E29.12274
G1 X42.292 Y50.496 E29.13799
G1 X42.583 Y49.989 E29.20814
G1 X42.863 Y49.532 E29.27246
G1 X42.925 Y49.435 E29.28627
G1 X43.26 Y48.93 E29.35899
G1 X43.333 Y48.824 E29.37444
G1 X43.689 Y48.327 E29.4478
G1 X43.995 Y47.924 E29.50852
G1 X44.073 Y47.826 E29.52355
G1 X44.484 Y47.326 E29.60122
G1 X44.569 Y47.226 E29.61697
G1 X44.916 Y46.834 E29.67979
G1 X45.318 Y46.404 E29.75043
G1 X45.41 Y46.31 E29.76621
G0 F3600 X45.691 Y46.595
G1 F1800 X46.21 Y46.083 E29.8537
G1 X46.631 Y45.695 E29.9224
G1 X47.118 Y45.275 E29.99957
G1 X47.571 Y44.907 E30.06961
G1 X47.658 Y44.839 E30.08286
G1 X48.061 Y44.536 E30.14336
G1 X48.15 Y44.47 E30.15666
G1 X48.747 Y44.054 E30.24398
