;FLAVOR:UltiGCode
;TIME:2758
;MATERIAL:1027
;MATERIAL2:0
;NOZZLE_DIAMETER:0.4
;MINX:43.518
;MINY:43.517
;MINZ:0.3
;MAXX:76.483
;MAXY:76.478
;MAXZ:12
;Generated with Cura_SteamEngine 4.7.1
M82 ;absolute extrusion mode
G0 F3000 Y50 ;avoid prime blob
G92 E0
G92 E0
G10
;LAYER_COUNT:196
;LAYER:0
M107
G0 F3600 X48.524 Y48.168 Z0.3
;TYPE:SKIRT
G11
G1 F810 X48.724 Y47.976 E0.0366
G1 X49.35 Y47.418 E0.14729
G1 X49.563 Y47.241 E0.18385
G1 X50.254 Y46.706 E0.2992
G1 X50.478 Y46.545 E0.33562
G1 X51.177 Y46.077 E0.44665
G1 X51.411 Y45.932 E0.48299
G1 X52.183 Y45.489 E0.60048
G1 X52.428 Y45.359 E0.63709
G1 X53.195 Y44.987 E0.74962
G1 X53.442 Y44.877 E0.78531
G1 X54.219 Y44.563 E0.89593
G1 X54.487 Y44.466 E0.93355
G1 X55.362 Y44.183 E1.05494
G1 X55.625 Y44.108 E1.09104
G1 X56.415 Y43.911 E1.19852
G1 X56.679 Y43.854 E1.23417
G1 X57.529 Y43.702 E1.34815
G1 X57.809 Y43.663 E1.38546
G1 X58.69 Y43.569 E1.50242
G1 X58.966 Y43.549 E1.53894
G1 X59.802 Y43.518 E1.64937
G1 X60.073 Y43.517 E1.68514
G1 X60.951 Y43.544 E1.80109
G1 X61.234 Y43.563 E1.83853
G1 X62.097 Y43.651 E1.95304
G1 X62.361 Y43.687 E1.98821
G1 X63.179 Y43.826 E2.09773
G1 X63.452 Y43.882 E2.13452
G1 X64.326 Y44.094 E2.25323
G1 X64.591 Y44.168 E2.28955
G1 X65.38 Y44.418 E2.3988
G1 X65.651 Y44.514 E2.43675
G1 X66.483 Y44.845 E2.55495
G1 X66.729 Y44.953 E2.59041
G1 X67.499 Y45.321 E2.70306
G1 X67.744 Y45.449 E2.73955
G1 X68.479 Y45.865 E2.85103
G1 X68.713 Y46.008 E2.88723
G1 X69.434 Y46.484 E3.00128
G1 X69.658 Y46.643 E3.03754
G1 X70.356 Y47.176 E3.15346
G1 X70.57 Y47.352 E3.19004
G1 X71.202 Y47.908 E3.30115
G1 X71.404 Y48.098 E3.33775
G1 X72.033 Y48.734 E3.45583
G1 X72.219 Y48.935 E3.49198
G1 X72.75 Y49.551 E3.59933
G1 X72.928 Y49.774 E3.63699
G1 X73.479 Y50.514 E3.75878
G1 X73.632 Y50.733 E3.79404
G1 X74.071 Y51.413 E3.90088
G1 X74.21 Y51.646 E3.93669
G1 X74.635 Y52.414 E4.05256
G1 X74.766 Y52.673 E4.09087
G1 X75.131 Y53.463 E4.20574
G1 X75.233 Y53.705 E4.24041
G1 X75.54 Y54.503 E4.35327
G1 X75.633 Y54.771 E4.39072
G1 X75.881 Y55.583 E4.50279
G1 X75.952 Y55.847 E4.53887
G1 X76.151 Y56.705 E4.65514
G1 X76.204 Y56.976 E4.69159
G1 X76.342 Y57.837 E4.80669
G1 X76.376 Y58.113 E4.8434
G1 X76.45 Y58.938 E4.95273
G1 X76.465 Y59.214 E4.98922
G1 X76.483 Y60.098 E5.10593
G1 X76.479 Y60.374 E5.14237
G1 X76.437 Y61.236 E5.25629
G1 X76.414 Y61.512 E5.29284
G1 X76.311 Y62.38 E5.40822
G1 X76.271 Y62.646 E5.44373
G1 X76.12 Y63.452 E5.55197
G1 X76.057 Y63.73 E5.5896
G1 X75.825 Y64.614 E5.71024
G1 X75.747 Y64.875 E5.7462
G1 X75.481 Y65.665 E5.85623
G1 X75.381 Y65.929 E5.89349
G1 X75.053 Y66.715 E6.00592
G1 X74.944 Y66.955 E6.04071
G1 X74.56 Y67.728 E6.15464
G1 X74.426 Y67.976 E6.19185
G1 X73.972 Y68.748 E6.31007
G1 X73.821 Y68.984 E6.34706
G1 X73.363 Y69.651 E6.45386
G1 X73.199 Y69.874 E6.4904
G1 X72.629 Y70.592 E6.61141
G1 X72.453 Y70.799 E6.64727
G1 X71.899 Y71.407 E6.75585
G1 X71.707 Y71.603 E6.79207
G1 X71.06 Y72.222 E6.91026
G1 X70.852 Y72.408 E6.94709
G1 X70.218 Y72.935 E7.05592
G1 X69.999 Y73.105 E7.09251
G1 X69.277 Y73.625 E7.20996
G1 X69.049 Y73.777 E7.24613
G1 X68.316 Y74.232 E7.36001
G1 X68.074 Y74.371 E7.39685
G1 X67.33 Y74.764 E7.50792
G1 X67.086 Y74.883 E7.54375
G1 X66.289 Y75.237 E7.65887
G1 X66.034 Y75.339 E7.69512
G1 X65.224 Y75.634 E7.80891
G1 X64.955 Y75.722 E7.84627
G1 X64.14 Y75.955 E7.95816
G1 X63.877 Y76.021 E7.99395
G1 X62.998 Y76.209 E8.11261
G1 X62.722 Y76.257 E8.14959
G1 X61.903 Y76.373 E8.25877
G1 X61.631 Y76.403 E8.29489
G1 X60.762 Y76.466 E8.4099
G1 X60.482 Y76.476 E8.44689
G1 X59.601 Y76.478 E8.56318
G1 X59.332 Y76.47 E8.5987
G1 X58.502 Y76.416 E8.70849
G1 X58.222 Y76.387 E8.74565
G1 X57.342 Y76.267 E8.86289
G1 X57.074 Y76.222 E8.89876
G1 X56.24 Y76.05 E9.01116
G1 X55.97 Y75.984 E9.04785
G1 X55.166 Y75.759 E9.15806
G1 X54.901 Y75.675 E9.19475
G1 X54.051 Y75.372 E9.31387
G1 X53.795 Y75.27 E9.35024
G1 X53.02 Y74.932 E9.46185
G1 X52.771 Y74.813 E9.49828
G1 X52.007 Y74.415 E9.61199
G1 X51.769 Y74.281 E9.64804
G1 X51.018 Y73.822 E9.76422
G1 X50.786 Y73.669 E9.80091
G1 X50.125 Y73.199 E9.90797
G1 X49.9 Y73.027 E9.94535
G1 X49.181 Y72.435 E10.06829
G1 X48.981 Y72.258 E10.10355
G1 X48.393 Y71.704 E10.21018
G1 X48.195 Y71.504 E10.24733
G1 X47.596 Y70.854 E10.36401
G1 X47.418 Y70.647 E10.40005
G1 X46.873 Y69.968 E10.51498
G1 X46.707 Y69.748 E10.55136
G1 X46.228 Y69.059 E10.66212
G1 X46.078 Y68.827 E10.69859
G1 X45.624 Y68.067 E10.81545
G1 X45.488 Y67.821 E10.85255
G1 X45.087 Y67.028 E10.96985
G1 X44.785 Y66.36 E11.06662
G1 X44.603 Y65.894 E11.13265
G1 X44.556 Y65.764 E11.1509
G1 X44.28 Y64.958 E11.26336
G1 X44.2 Y64.697 E11.29939
G1 X43.976 Y63.861 E11.41364
G1 X43.915 Y63.598 E11.44927
G1 X43.744 Y62.729 E11.56618
G1 X43.7 Y62.451 E11.60333
G1 X43.596 Y61.615 E11.71454
G1 X43.571 Y61.34 E11.75099
G1 X43.524 Y60.484 E11.86415
G1 X43.518 Y60.207 E11.90072
G1 X43.531 Y59.317 E12.01821
G1 X43.544 Y59.047 E12.0539
G1 X43.612 Y58.221 E12.1633
G1 X43.645 Y57.943 E12.20025
G1 X43.777 Y57.082 E12.31523
G1 X43.83 Y56.805 E12.35246
G1 X44.023 Y55.952 E12.4679
G1 X44.091 Y55.692 E12.50337
G1 X44.339 Y54.86 E12.61797
G1 X44.427 Y54.598 E12.65446
G1 X44.743 Y53.756 E12.77317
G1 X45.033 Y53.076 E12.87075
G1 X45.305 Y52.53 E12.95127
G1 X45.72 Y51.767 E13.06592
G1 X45.856 Y51.536 E13.1013
G1 X46.329 Y50.79 E13.2179
G1 X46.489 Y50.556 E13.25532
G1 X46.986 Y49.883 E13.36575
G1 X47.155 Y49.67 E13.40165
G1 X47.717 Y49.008 E13.51627
G1 X47.904 Y48.803 E13.5529
G1 X48.524 Y48.168 E13.67005
G0 F3600 X48.81 Y48.447
G1 F810 X48.991 Y48.275 E13.70301
G1 X49.617 Y47.717 E13.8137
G1 X49.808 Y47.557 E13.84659
G1 X50.499 Y47.022 E13.96194
G1 X50.7 Y46.878 E13.99458
G1 X51.399 Y46.41 E14.10562
G1 X51.61 Y46.279 E14.1384
G1 X52.382 Y45.836 E14.25589
G1 X52.603 Y45.719 E14.2889
G1 X53.37 Y45.347 E14.40143
G1 X53.592 Y45.248 E14.43351
G1 X54.369 Y44.934 E14.54413
G1 X54.61 Y44.847 E14.57796
G1 X55.485 Y44.564 E14.69935
G1 X55.722 Y44.496 E14.73189
G1 X56.512 Y44.299 E14.83937
G1 X56.749 Y44.248 E14.87137
G1 X57.599 Y44.096 E14.98535
G1 X57.851 Y44.06 E15.01895
G1 X58.732 Y43.966 E15.1359
G1 X58.981 Y43.948 E15.16885
G1 X59.817 Y43.917 E15.27928
G1 X60.061 Y43.917 E15.31149
G1 X60.939 Y43.944 E15.42744
G1 X61.193 Y43.961 E15.46104
G1 X62.056 Y44.049 E15.57555
G1 X62.294 Y44.081 E15.60725
G1 X63.112 Y44.22 E15.71677
G1 X63.358 Y44.27 E15.74991
G1 X64.232 Y44.482 E15.86862
G1 X64.47 Y44.549 E15.90126
G1 X65.259 Y44.799 E16.01051
G1 X65.503 Y44.886 E16.0447
G1 X66.335 Y45.217 E16.1629
G1 X66.556 Y45.314 E16.19476
G1 X67.326 Y45.682 E16.30741
G1 X67.547 Y45.797 E16.34029
G1 X68.282 Y46.213 E16.45178
G1 X68.492 Y46.342 E16.48431
G1 X69.213 Y46.818 E16.59835
G1 X69.415 Y46.961 E16.63102
G1 X70.113 Y47.494 E16.74695
G1 X70.306 Y47.652 E16.77987
G1 X70.938 Y48.208 E16.89098
G1 X71.12 Y48.38 E16.92404
G1 X71.749 Y49.016 E17.04211
G1 X71.916 Y49.197 E17.07462
G1 X72.447 Y49.813 E17.18197
G1 X72.607 Y50.013 E17.21578
G1 X73.158 Y50.753 E17.33757
G1 X73.295 Y50.95 E17.36924
G1 X73.734 Y51.63 E17.47608
G1 X73.86 Y51.84 E17.50841
G1 X74.285 Y52.608 E17.62427
G1 X74.403 Y52.841 E17.65875
G1 X74.768 Y53.631 E17.77362
G1 X74.86 Y53.848 E17.80473
G1 X75.167 Y54.646 E17.91759
G1 X75.25 Y54.887 E17.95124
G1 X75.498 Y55.699 E18.06331
G1 X75.562 Y55.938 E18.09597
G1 X75.761 Y56.796 E18.21223
G1 X75.809 Y57.039 E18.24493
G1 X75.947 Y57.9 E18.36003
G1 X75.978 Y58.148 E18.39302
G1 X76.052 Y58.973 E18.50236
G1 X76.065 Y59.222 E18.53527
G1 X76.083 Y60.106 E18.65198
G1 X76.08 Y60.354 E18.68472
G1 X76.038 Y61.216 E18.79864
G1 X76.017 Y61.465 E18.83162
G1 X75.914 Y62.333 E18.947
G1 X75.877 Y62.572 E18.97893
G1 X75.726 Y63.378 E19.08717
G1 X75.67 Y63.629 E19.12112
G1 X75.438 Y64.513 E19.24176
G1 X75.368 Y64.748 E19.27412
G1 X75.102 Y65.538 E19.38416
G1 X75.012 Y65.775 E19.41762
G1 X74.684 Y66.561 E19.53004
G1 X74.586 Y66.777 E19.56135
G1 X74.202 Y67.55 E19.67529
G1 X74.081 Y67.773 E19.70878
G1 X73.627 Y68.545 E19.82699
G1 X73.492 Y68.758 E19.86028
G1 X73.034 Y69.425 E19.96708
G1 X72.886 Y69.625 E19.99993
G1 X72.316 Y70.343 E20.12094
G1 X72.157 Y70.53 E20.15334
G1 X71.603 Y71.138 E20.26191
G1 X71.431 Y71.314 E20.2944
G1 X70.784 Y71.933 E20.41259
G1 X70.596 Y72.1 E20.44579
G1 X69.962 Y72.627 E20.55461
G1 X69.765 Y72.78 E20.58754
G1 X69.043 Y73.3 E20.70498
G1 X68.838 Y73.438 E20.7376
G1 X68.105 Y73.893 E20.85149
G1 X67.887 Y74.017 E20.88459
G1 X67.143 Y74.41 E20.99566
G1 X66.923 Y74.517 E21.02795
G1 X66.126 Y74.871 E21.14307
G1 X65.897 Y74.964 E21.17569
G1 X65.087 Y75.259 E21.28948
G1 X64.845 Y75.337 E21.32304
G1 X64.03 Y75.57 E21.43493
G1 X63.793 Y75.629 E21.46717
G1 X62.914 Y75.817 E21.58582
G1 X62.666 Y75.861 E21.61907
G1 X61.847 Y75.977 E21.72826
G1 X61.602 Y76.004 E21.76079
G1 X60.733 Y76.067 E21.8758
G1 X60.481 Y76.076 E21.90909
G1 X59.6 Y76.078 E22.02538
G1 X59.358 Y76.07 E22.05734
G1 X58.528 Y76.016 E22.16713
G1 X58.276 Y75.991 E22.20056
G1 X57.396 Y75.871 E22.3178
G1 X57.155 Y75.83 E22.35007
G1 X56.321 Y75.658 E22.46247
G1 X56.078 Y75.599 E22.49548
G1 X55.274 Y75.374 E22.60568
G1 X55.035 Y75.298 E22.63879
G1 X54.185 Y74.995 E22.7579
G1 X53.955 Y74.904 E22.79055
G1 X53.18 Y74.566 E22.90216
G1 X52.956 Y74.459 E22.93493
G1 X52.192 Y74.061 E23.04864
G1 X51.978 Y73.94 E23.08109
G1 X51.227 Y73.481 E23.19727
G1 X51.018 Y73.343 E23.23033
G1 X50.357 Y72.873 E23.33739
G1 X50.155 Y72.718 E23.371
G1 X49.436 Y72.126 E23.49394
G1 X49.255 Y71.967 E23.52574
G1 X48.667 Y71.413 E23.63238
G1 X48.489 Y71.233 E23.6658
G1 X47.89 Y70.583 E23.78247
G1 X47.73 Y70.396 E23.81496
G1 X47.185 Y69.717 E23.92989
G1 X47.035 Y69.52 E23.96257
G1 X46.556 Y68.831 E24.07334
G1 X46.421 Y68.622 E24.10618
G1 X45.967 Y67.862 E24.22304
G1 X45.845 Y67.641 E24.25636
G1 X45.444 Y66.848 E24.37366
G1 X45.152 Y66.201 E24.46736
G1 X44.934 Y65.634 E24.54754
G1 X44.658 Y64.828 E24.66
G1 X44.587 Y64.594 E24.69228
G1 X44.363 Y63.758 E24.80652
G1 X44.308 Y63.521 E24.83864
G1 X44.137 Y62.652 E24.95554
G1 X44.097 Y62.401 E24.98909
G1 X43.993 Y61.565 E25.1003
G1 X43.97 Y61.318 E25.13304
G1 X43.923 Y60.462 E25.2462
G1 X43.918 Y60.212 E25.27921
G1 X43.931 Y59.322 E25.3967
G1 X43.943 Y59.08 E25.42869
G1 X44.011 Y58.254 E25.53809
G1 X44.041 Y58.003 E25.57146
G1 X44.173 Y57.142 E25.68644
G1 X44.22 Y56.894 E25.71975
G1 X44.413 Y56.041 E25.8352
G1 X44.474 Y55.807 E25.86712
G1 X44.722 Y54.975 E25.98172
G1 X44.802 Y54.738 E26.01473
G1 X45.118 Y53.896 E26.13345
G1 X45.398 Y53.24 E26.2276
G1 X45.657 Y52.721 E26.30416
G1 X46.072 Y51.958 E26.41881
G1 X46.194 Y51.75 E26.45064
G1 X46.667 Y51.004 E26.56724
G1 X46.811 Y50.793 E26.60096
G1 X47.308 Y50.12 E26.71139
G1 X47.46 Y49.929 E26.74362
G1 X48.022 Y49.267 E26.85824
G1 X48.19 Y49.082 E26.89123
G1 X48.81 Y48.447 E27.00838
G0 F3600 X49.096 Y48.726
G1 F810 X49.257 Y48.573 E27.03769
G1 X49.883 Y48.015 E27.14839
G1 X50.053 Y47.874 E27.17754
G1 X50.744 Y47.339 E27.2929
G1 X50.923 Y47.21 E27.32202
G1 X51.622 Y46.742 E27.43306
G1 X51.809 Y46.626 E27.46211
G1 X52.581 Y46.183 E27.5796
G1 X52.778 Y46.079 E27.609
G1 X53.545 Y45.707 E27.72153
G1 X53.742 Y45.619 E27.75001
G1 X54.519 Y45.305 E27.86063
G1 X54.733 Y45.227 E27.8907
G1 X55.608 Y44.944 E28.01209
G1 X55.819 Y44.884 E28.04104
G1 X56.609 Y44.687 E28.14852
G1 X56.82 Y44.642 E28.17699
G1 X57.67 Y44.49 E28.29097
G1 X57.893 Y44.458 E28.32071
G1 X58.774 Y44.364 E28.43766
G1 X58.995 Y44.348 E28.46691
G1 X59.831 Y44.317 E28.57734
G1 X60.048 Y44.317 E28.60598
G1 X60.926 Y44.344 E28.72193
G1 X61.153 Y44.359 E28.75196
G1 X62.016 Y44.447 E28.86647
G1 X62.227 Y44.475 E28.89457
G1 X63.045 Y44.614 E29.00409
G1 X63.263 Y44.659 E29.03347
G1 X64.137 Y44.871 E29.15219
G1 X64.35 Y44.93 E29.18136
G1 X65.139 Y45.18 E29.29061
G1 X65.355 Y45.258 E29.32093
G1 X66.187 Y45.589 E29.43912
G1 X66.384 Y45.675 E29.4675
G1 X67.154 Y46.043 E29.58015
G1 X67.35 Y46.145 E29.60931
G1 X68.085 Y46.561 E29.7208
G1 X68.272 Y46.675 E29.7497
G1 X68.993 Y47.151 E29.86375
G1 X69.172 Y47.279 E29.89279
G1 X69.87 Y47.812 E30.00872
G1 X70.042 Y47.952 E30.038
G1 X70.674 Y48.508 E30.14911
G1 X70.835 Y48.661 E30.17843
G1 X71.464 Y49.297 E30.2965
G1 X71.613 Y49.458 E30.32546
G1 X72.144 Y50.074 E30.43281
G1 X72.287 Y50.252 E30.46295
G1 X72.838 Y50.992 E30.58473
G1 X72.959 Y51.167 E30.61282
G1 X73.398 Y51.847 E30.71966
G1 X73.51 Y52.034 E30.74843
G1 X73.935 Y52.802 E30.86429
G1 X74.04 Y53.009 E30.89493
G1 X74.405 Y53.799 E31.0098
G1 X74.487 Y53.992 E31.03748
G1 X74.794 Y54.79 E31.15034
G1 X74.867 Y55.004 E31.18019
G1 X75.115 Y55.816 E31.29226
G1 X75.172 Y56.028 E31.32124
G1 X75.371 Y56.886 E31.4375
G1 X75.414 Y57.103 E31.4667
G1 X75.552 Y57.964 E31.58181
G1 X75.579 Y58.184 E31.61106
G1 X75.653 Y59.009 E31.7204
G1 X75.665 Y59.23 E31.74962
G1 X75.683 Y60.114 E31.86633
G1 X75.68 Y60.335 E31.8955
G1 X75.638 Y61.197 E32.00942
G1 X75.62 Y61.418 E32.03869
G1 X75.517 Y62.286 E32.15407
G1 X75.484 Y62.498 E32.18239
G1 X75.333 Y63.304 E32.29063
G1 X75.283 Y63.527 E32.3208
G1 X75.051 Y64.411 E32.44144
G1 X74.989 Y64.62 E32.47022
G1 X74.723 Y65.41 E32.58025
G1 X74.643 Y65.621 E32.61004
G1 X74.315 Y66.407 E32.72246
G1 X74.228 Y66.599 E32.75028
G1 X73.844 Y67.372 E32.86422
G1 X73.736 Y67.57 E32.89399
G1 X73.282 Y68.342 E33.01221
G1 X73.162 Y68.531 E33.04176
G1 X72.704 Y69.198 E33.14856
G1 X72.572 Y69.377 E33.17792
G1 X72.002 Y70.095 E33.29893
G1 X71.861 Y70.26 E33.32758
G1 X71.307 Y70.868 E33.43615
G1 X71.154 Y71.025 E33.46509
G1 X70.507 Y71.644 E33.58329
G1 X70.341 Y71.793 E33.61273
G1 X69.707 Y72.32 E33.72156
G1 X69.531 Y72.456 E33.75092
G1 X68.809 Y72.976 E33.86836
G1 X68.627 Y73.098 E33.89729
G1 X67.894 Y73.553 E34.01117
G1 X67.701 Y73.664 E34.04056
G1 X66.957 Y74.057 E34.15162
G1 X66.761 Y74.151 E34.18032
G1 X65.964 Y74.505 E34.29543
G1 X65.76 Y74.588 E34.3245
G1 X64.95 Y74.883 E34.43829
G1 X64.735 Y74.953 E34.46814
G1 X63.92 Y75.186 E34.58003
G1 X63.709 Y75.238 E34.60872
G1 X62.83 Y75.426 E34.72737
G1 X62.61 Y75.465 E34.75686
G1 X61.791 Y75.581 E34.86605
G1 X61.573 Y75.605 E34.895
G1 X60.704 Y75.668 E35.01001
G1 X60.48 Y75.676 E35.03959
G1 X59.599 Y75.678 E35.15589
G1 X59.384 Y75.671 E35.18428
G1 X58.554 Y75.617 E35.29407
G1 X58.33 Y75.595 E35.32378
G1 X57.45 Y75.475 E35.44102
G1 X57.236 Y75.438 E35.46968
G1 X56.402 Y75.266 E35.58209
G1 X56.186 Y75.214 E35.61142
G1 X55.382 Y74.989 E35.72162
G1 X55.17 Y74.921 E35.75101
G1 X54.32 Y74.618 E35.87013
G1 X54.115 Y74.537 E35.89922
G1 X53.34 Y74.199 E36.01083
G1 X53.141 Y74.104 E36.03994
G1 X52.377 Y73.706 E36.15365
G1 X52.186 Y73.598 E36.18261
G1 X51.435 Y73.139 E36.29879
G1 X51.25 Y73.017 E36.32804
G1 X50.589 Y72.547 E36.4351
G1 X50.409 Y72.409 E36.46504
G1 X49.69 Y71.817 E36.58798
G1 X49.53 Y71.676 E36.61613
G1 X48.942 Y71.122 E36.72277
G1 X48.783 Y70.962 E36.75255
G1 X48.184 Y70.312 E36.86922
G1 X48.041 Y70.146 E36.89814
G1 X47.496 Y69.467 E37.01307
G1 X47.364 Y69.292 E37.04201
G1 X46.885 Y68.603 E37.15277
G1 X46.765 Y68.417 E37.18199
G1 X46.311 Y67.657 E37.29885
G1 X46.202 Y67.46 E37.32857
G1 X45.801 Y66.667 E37.44587
G1 X45.519 Y66.042 E37.53638
G1 X45.313 Y65.505 E37.6123
G1 X45.037 Y64.699 E37.72475
G1 X44.973 Y64.49 E37.75361
G1 X44.749 Y63.654 E37.86785
G1 X44.7 Y63.444 E37.89631
G1 X44.529 Y62.575 E38.01322
G1 X44.493 Y62.352 E38.04304
G1 X44.389 Y61.516 E38.15424
G1 X44.37 Y61.296 E38.18339
G1 X44.323 Y60.44 E38.29655
G1 X44.318 Y60.218 E38.32586
G1 X44.331 Y59.328 E38.44336
G1 X44.342 Y59.112 E38.47191
G1 X44.41 Y58.286 E38.58131
G1 X44.436 Y58.064 E38.61081
G1 X44.568 Y57.203 E38.72579
G1 X44.61 Y56.982 E38.75548
G1 X44.803 Y56.129 E38.87093
G1 X44.857 Y55.921 E38.89929
G1 X45.105 Y55.089 E39.01389
G1 X45.176 Y54.879 E39.04315
G1 X45.492 Y54.037 E39.16187
G1 X45.763 Y53.403 E39.25288
G1 X46.008 Y52.912 E39.32531
G1 X46.423 Y52.149 E39.43996
G1 X46.531 Y51.964 E39.46824
G1 X47.004 Y51.218 E39.58484
G1 X47.133 Y51.031 E39.61482
G1 X47.63 Y50.358 E39.72526
G1 X47.765 Y50.188 E39.75391
G1 X48.327 Y49.526 E39.86854
G1 X48.476 Y49.361 E39.89789
G1 X49.096 Y48.726 E40.01503
G10
;MESH:tendon_wh_1_mod.stl
G0 F3600 X52.48 Y49.196
G0 X53.245 Y50.227
G0 X56.195 Y50.026
G0 X56.213 Y50.124
;TYPE:WALL-INNER
G11
G1 F810 X55.54 Y50.382 E40.11493
G1 X54.805 Y50.76 E40.22948
G1 X54.107 Y51.188 E40.34297
