;FLAVOR:UltiGCode
;TIME:1199
;MATERIAL:725
;MATERIAL2:0
;NOZZLE_DIAMETER:0.4
;MINX:42.519
;MINY:36.683
;MINZ:0.3
;MAXX:77.48
;MAXY:76.697
;MAXZ:4.68
;Generated with Cura_SteamEngine 4.7.1
M82 ;absolute extrusion mode
G0 F3000 Y50 ;avoid prime blob
G92 E0
G92 E0
G10
;LAYER_COUNT:74
;LAYER:0
M107
G0 F3600 X44.288 Y43.426 Z0.3
;TYPE:SKIRT
G11
G1 F1800 X44.733 Y43.026 E0.0718
G1 X45.379 Y42.571 E0.16662
G1 X45.927 Y42.272 E0.24153
G1 X46.307 Y42.092 E0.29199
G1 X48.574 Y41.1 E0.58893
G1 X50.996 Y39.956 E0.91036
G1 X53.462 Y38.706 E1.24213
G1 X54.433 Y38.18 E1.37465
G1 X54.969 Y37.902 E1.44711
G1 X55.648 Y37.582 E1.53718
G1 X56.22 Y37.356 E1.61098
G1 X56.769 Y37.17 E1.68054
G1 X57.37 Y37.005 E1.75533
G1 X57.96 Y36.877 E1.82778
G1 X58.659 Y36.767 E1.91269
G1 X59.169 Y36.716 E1.9742
G1 X59.777 Y36.686 E2.04724
G1 X60.062 Y36.683 E2.08145
G1 X60.62 Y36.702 E2.14844
G1 X61.165 Y36.745 E2.21405
G1 X61.918 Y36.851 E2.3053
G1 X62.523 Y36.978 E2.37948
G1 X63.037 Y37.111 E2.44319
G1 X63.742 Y37.34 E2.53214
G1 X64.553 Y37.672 E2.6373
G1 X65.099 Y37.938 E2.71018
G1 X65.916 Y38.375 E2.82137
G1 X68.389 Y39.651 E3.1553
G1 X70.831 Y40.826 E3.4805
G1 X73.304 Y41.929 E3.80544
G1 X74.001 Y42.231 E3.89659
G1 X74.488 Y42.489 E3.96273
G1 X74.98 Y42.806 E4.03296
G1 X75.605 Y43.321 E4.13014
G1 X75.97 Y43.698 E4.19311
G1 X76.469 Y44.349 E4.29154
G1 X76.719 Y44.756 E4.34886
G1 X76.98 Y45.258 E4.41675
G1 X77.194 Y45.851 E4.49241
G1 X77.323 Y46.342 E4.55333
G1 X77.396 Y46.714 E4.59882
G1 X77.463 Y47.227 E4.6609
G1 X77.48 Y47.491 E4.69265
G1 X77.476 Y48.053 E4.76009
G1 X77.379 Y49.321 E4.91269
G1 X77.206 Y52.07 E5.24322
G1 X77.11 Y54.814 E5.57271
G1 X77.092 Y57.521 E5.89755
G1 X77.152 Y60.231 E6.22283
G1 X77.286 Y62.927 E6.54675
G1 X77.43 Y64.753 E6.76655
G1 X77.479 Y65.51 E6.85758
G1 X77.451 Y66.307 E6.95328
G1 X77.369 Y66.875 E7.02215
G1 X77.158 Y67.649 E7.11842
G1 X76.976 Y68.118 E7.17879
G1 X76.941 Y68.201 E7.1896
G1 X76.566 Y68.892 E7.28394
G1 X76.221 Y69.386 E7.35625
G1 X75.711 Y69.959 E7.4483
G1 X75.271 Y70.355 E7.51933
G1 X74.621 Y70.813 E7.61475
G1 X74.097 Y71.1 E7.68644
G1 X73.759 Y71.262 E7.73142
G1 X71.418 Y72.288 E8.03814
G1 X68.992 Y73.434 E8.3601
G1 X66.522 Y74.686 E8.69241
G1 X65.451 Y75.265 E8.83851
G1 X64.941 Y75.528 E8.90736
G1 X64.35 Y75.802 E8.98553
G1 X63.841 Y76.007 E9.05138
G1 X63.346 Y76.179 E9.11427
G1 X62.641 Y76.377 E9.20214
G1 X62.07 Y76.502 E9.27228
G1 X61.558 Y76.589 E9.3346
G1 X60.836 Y76.668 E9.42176
G1 X60.316 Y76.696 E9.48425
G1 X59.674 Y76.697 E9.56129
G1 X59.056 Y76.661 E9.63558
G1 X58.456 Y76.591 E9.70806
G1 X57.749 Y76.469 E9.79416
G1 X57.225 Y76.345 E9.85878
G1 X56.658 Y76.179 E9.92967
G1 X56.125 Y75.996 E9.9973
G1 X55.504 Y75.74 E10.0779
G1 X55.195 Y75.592 E10.11901
G1 X54.021 Y74.967 E10.27861
G1 X51.552 Y73.698 E10.61174
G1 X49.103 Y72.526 E10.93754
G1 X46.6 Y71.413 E11.26625
G1 X46.024 Y71.164 E11.34155
G1 X45.519 Y70.896 E11.41016
G1 X45.073 Y70.612 E11.47361
G1 X44.961 Y70.535 E11.48992
G1 X44.38 Y70.049 E11.58081
G1 X44.021 Y69.676 E11.64294
G1 X43.535 Y69.042 E11.7388
G1 X43.256 Y68.588 E11.80274
G1 X43.221 Y68.527 E11.81118
G1 X42.892 Y67.79 E11.90804
G1 X42.784 Y67.463 E11.94936
G1 X42.637 Y66.869 E12.02279
G1 X42.534 Y66.115 E12.11411
G1 X42.519 Y65.86 E12.14476
G1 X42.524 Y65.317 E12.20993
G1 X42.625 Y64.011 E12.36711
G1 X42.794 Y61.318 E12.69091
G1 X42.89 Y58.573 E13.02051
G1 X42.908 Y55.868 E13.34512
G1 X42.848 Y53.157 E13.67052
G1 X42.714 Y50.462 E13.99432
G1 X42.565 Y48.573 E14.2217
G1 X42.52 Y47.88 E14.30504
G1 X42.549 Y47.08 E14.4011
G1 X42.619 Y46.583 E14.46133
G1 X42.634 Y46.495 E14.47204
G1 X42.844 Y45.73 E14.56724
G1 X43.028 Y45.256 E14.62825
G1 X43.057 Y45.187 E14.63723
G1 X43.434 Y44.493 E14.73201
G1 X43.781 Y43.994 E14.80494
G1 X44.288 Y43.426 E14.89631
G0 F3600 X44.56 Y43.719
G1 F1800 X44.994 Y43.328 E14.96641
G1 X45.575 Y42.92 E15.0516
G1 X46.1 Y42.633 E15.1234
G1 X46.468 Y42.459 E15.17225
G1 X48.727 Y41.471 E15.46812
G1 X51.169 Y40.317 E15.79223
G1 X53.626 Y39.071 E16.12282
G1 X54.618 Y38.535 E16.25812
G1 X55.154 Y38.257 E16.33058
G1 X55.812 Y37.947 E16.41786
G1 X56.352 Y37.733 E16.48757
G1 X56.88 Y37.554 E16.55447
G1 X57.472 Y37.392 E16.62812
G1 X58.029 Y37.271 E16.69652
G1 X58.712 Y37.164 E16.77948
G1 X59.405 Y37.1 E16.86299
G1 X60.066 Y37.083 E16.94234
G1 X60.602 Y37.102 E17.0067
G1 X61.117 Y37.142 E17.06869
G1 X61.855 Y37.246 E17.15812
G1 X62.427 Y37.366 E17.22826
G1 X62.92 Y37.494 E17.28938
G1 X63.614 Y37.719 E17.37692
G1 X64.395 Y38.039 E17.47821
G1 X64.91 Y38.291 E17.54701
G1 X65.764 Y38.748 E17.66324
G1 X68.21 Y40.01 E17.99352
G1 X70.631 Y41.174 E18.31588
G1 X73.165 Y42.305 E18.64887
G1 X73.838 Y42.597 E18.73691
G1 X74.464 Y42.945 E18.82285
G1 X74.758 Y43.139 E18.86512
G1 X75.32 Y43.602 E18.9525
G1 X75.679 Y43.972 E19.01436
G1 X76.129 Y44.559 E19.10312
G1 X76.379 Y44.966 E19.16044
G1 X76.624 Y45.442 E19.22468
G1 X76.815 Y45.977 E19.29285
G1 X77.004 Y46.791 E19.39313
G1 X77.081 Y47.517 E19.48074
G1 X77.078 Y48.022 E19.54134
G1 X76.977 Y49.343 E19.70032
G1 X76.805 Y52.067 E20.02785
G1 X76.71 Y54.797 E20.35565
G1 X76.692 Y57.527 E20.68326
G1 X76.751 Y60.224 E21.00697
G1 X76.889 Y62.979 E21.33799
G1 X77.03 Y64.778 E21.55453
G1 X77.079 Y65.535 E21.64556
G1 X77.054 Y66.253 E21.73177
G1 X76.974 Y66.809 E21.79918
G1 X76.785 Y67.505 E21.88573
G1 X76.572 Y68.046 E21.9555
G1 X76.235 Y68.667 E22.04028
G1 X75.899 Y69.15 E22.11089
G1 X75.439 Y69.665 E22.19375
G1 X75.009 Y70.053 E22.26325
G1 X74.425 Y70.464 E22.34895
G1 X73.922 Y70.741 E22.41785
G1 X73.598 Y70.895 E22.4609
G1 X71.266 Y71.917 E22.76644
G1 X68.819 Y73.073 E23.09119
G1 X66.345 Y74.327 E23.42403
G1 X65.267 Y74.91 E23.5711
G1 X64.766 Y75.168 E23.63872
G1 X64.187 Y75.437 E23.71533
G1 X63.707 Y75.63 E23.77742
G1 X63.223 Y75.798 E23.8389
G1 X62.54 Y75.991 E23.92407
G1 X61.999 Y76.108 E23.99049
G1 X61.257 Y76.224 E24.08061
G1 X60.647 Y76.281 E24.15413
G1 X59.896 Y76.301 E24.24428
G1 X59.358 Y76.281 E24.30888
G1 X58.507 Y76.194 E24.41154
G1 X57.826 Y76.076 E24.49447
G1 X57.32 Y75.956 E24.55688
G1 X56.783 Y75.8 E24.62398
G1 X56.273 Y75.625 E24.68868
G1 X55.661 Y75.372 E24.76815
G1 X55.383 Y75.239 E24.80513
G1 X54.203 Y74.611 E24.96554
G1 X51.714 Y73.332 E25.30134
G1 X49.273 Y72.164 E25.62607
G1 X46.789 Y71.059 E25.95231
G1 X46.186 Y70.798 E26.03116
G1 X45.731 Y70.557 E26.09295
G1 X45.299 Y70.283 E26.15433
G1 X45.187 Y70.206 E26.17064
G1 X44.665 Y69.768 E26.25241
G1 X44.312 Y69.402 E26.31343
G1 X43.875 Y68.832 E26.39962
G1 X43.602 Y68.389 E26.46207
G1 X43.567 Y68.328 E26.47051
G1 X43.272 Y67.665 E26.55759
G1 X43.164 Y67.338 E26.59891
G1 X43.031 Y66.803 E26.66506
G1 X42.933 Y66.091 E26.75131
G1 X42.923 Y65.347 E26.8406
G1 X43.02 Y64.092 E26.99165
G1 X43.195 Y61.321 E27.32483
G1 X43.29 Y58.59 E27.65275
G1 X43.308 Y55.862 E27.98011
G1 X43.249 Y53.164 E28.30395
G1 X43.111 Y50.41 E28.63485
G1 X42.965 Y48.547 E28.85909
G1 X42.92 Y47.854 E28.94243
G1 X42.945 Y47.134 E29.02888
G1 X43.028 Y46.562 E29.09824
G1 X43.217 Y45.873 E29.18397
G1 X43.426 Y45.342 E29.25245
G1 X43.765 Y44.717 E29.33777
G1 X44.104 Y44.231 E29.40888
G1 X44.56 Y43.719 E29.49115
G0 F3600 X44.832 Y44.013
G1 F1800 X45.255 Y43.631 E29.55955
G1 X45.772 Y43.268 E29.63535
G1 X46.273 Y42.994 E29.70388
G1 X46.628 Y42.825 E29.75106
G1 X48.892 Y41.834 E30.04763
G1 X51.371 Y40.664 E30.37657
G1 X53.804 Y39.43 E30.70394
G1 X54.802 Y38.89 E30.84011
G1 X55.338 Y38.612 E30.91256
G1 X55.977 Y38.311 E30.99732
G1 X56.484 Y38.111 E31.06273
G1 X56.992 Y37.938 E31.12712
G1 X57.574 Y37.778 E31.19956
G1 X58.099 Y37.665 E31.264
G1 X58.764 Y37.56 E31.34479
G1 X59.421 Y37.5 E31.42396
G1 X60.07 Y37.483 E31.50186
G1 X60.584 Y37.501 E31.56358
G1 X61.339 Y37.571 E31.65457
G1 X61.962 Y37.673 E31.73032
G1 X62.64 Y37.831 E31.81386
G1 X63.486 Y38.098 E31.92032
G1 X64.236 Y38.406 E32.01761
G1 X64.722 Y38.644 E32.08255
G1 X65.549 Y39.086 E32.19508
G1 X68.032 Y40.368 E32.53041
G1 X70.502 Y41.556 E32.85931
G1 X72.988 Y42.665 E33.18597
G1 X73.676 Y42.963 E33.27594
G1 X74.253 Y43.285 E33.35523
G1 X74.536 Y43.471 E33.39587
G1 X75.036 Y43.884 E33.47369
G1 X75.388 Y44.247 E33.53437
G1 X75.788 Y44.768 E33.61319
G1 X76.038 Y45.175 E33.67051
G1 X76.348 Y45.842 E33.75877
G1 X76.538 Y46.496 E33.84049
G1 X76.664 Y47.278 E33.93554
G1 X76.679 Y47.992 E34.02124
G1 X76.578 Y49.313 E34.18022
G1 X76.405 Y52.062 E34.51076
G1 X76.31 Y54.781 E34.83724
G1 X76.292 Y57.534 E35.1676
G1 X76.352 Y60.252 E35.49384
G1 X76.489 Y62.995 E35.82341
G1 X76.631 Y64.804 E36.04116
G1 X76.68 Y65.561 E36.13219
G1 X76.658 Y66.199 E36.2088
G1 X76.579 Y66.743 E36.27476
G1 X76.411 Y67.362 E36.35173
G1 X76.204 Y67.89 E36.41978
G1 X75.904 Y68.443 E36.49528
G1 X75.576 Y68.913 E36.56406
G1 X75.167 Y69.372 E36.63783
G1 X74.748 Y69.75 E36.70555
G1 X74.228 Y70.116 E36.78185
G1 X73.747 Y70.381 E36.84775
G1 X73.438 Y70.529 E36.88887
G1 X71.1 Y71.554 E37.19521
G1 X68.617 Y72.726 E37.52469
G1 X66.181 Y73.961 E37.85243
G1 X65.083 Y74.555 E38.00224
G1 X64.591 Y74.809 E38.06868
G1 X64.023 Y75.072 E38.14379
G1 X63.254 Y75.366 E38.24259
G1 X62.727 Y75.528 E38.30875
G1 X62.027 Y75.695 E38.3951
G1 X61.456 Y75.795 E38.46467
G1 X60.76 Y75.871 E38.54868
G1 X59.892 Y75.901 E38.65291
G1 X59.386 Y75.882 E38.71367
G1 X58.559 Y75.797 E38.81343
G1 X57.903 Y75.683 E38.89333
G1 X57.416 Y75.568 E38.95338
G1 X56.909 Y75.42 E39.01676
G1 X56.42 Y75.253 E39.07876
G1 X55.818 Y75.004 E39.15694
G1 X55.571 Y74.886 E39.18979
G1 X54.37 Y74.247 E39.35304
G1 X51.905 Y72.98 E39.68563
G1 X49.445 Y71.803 E40.01287
G1 X46.943 Y70.69 E40.34148
G1 X46.348 Y70.432 E40.4193
G1 X45.641 Y70.029 E40.51696
G1 X45.414 Y69.876 E40.54981
G1 X44.949 Y69.487 E40.62256
G1 X44.604 Y69.128 E40.68231
G1 X44.215 Y68.621 E40.75899
G1 X43.949 Y68.19 E40.81977
G1 X43.914 Y68.129 E40.82821
G1 X43.651 Y67.54 E40.90561
G1 X43.426 Y66.737 E41.00569
G1 X43.333 Y66.068 E41.08674
G1 X43.322 Y65.378 E41.16955
G1 X43.419 Y64.118 E41.3212
G1 X43.595 Y61.327 E41.65678
G1 X43.69 Y58.606 E41.9835
G1 X43.708 Y55.855 E42.31363
G1 X43.648 Y53.137 E42.63987
G1 X43.511 Y50.392 E42.96968
G1 X43.364 Y48.521 E43.19489
G1 X43.319 Y47.828 E43.27822
G1 X43.341 Y47.188 E43.35507
G1 X43.422 Y46.629 E43.42285
G1 X43.591 Y46.017 E43.49904
G1 X43.795 Y45.497 E43.56607
G1 X44.096 Y44.941 E43.64194
G1 X44.426 Y44.468 E43.71115
G1 X44.832 Y44.013 E43.78432
G10
;MESH:enc_holder_2.stl
G0 F3600 X54.001 Y42.903
G0 X54.875 Y43.545
G0 X55.834 Y42.96
G0 X56.805 Y42.772
;TYPE:WALL-INNER
G11
G1 F1800 X56.558 Y42.727 E43.81445
G1 X56.3 Y42.68 E43.84592
G1 X56.177 Y42.706 E43.86101
G1 X55.902 Y42.765 E43.89476
G1 X56.146 Y42.565 E43.90404
G1 X56.196 Y42.531
G1 X56.412 Y42.381 E43.9276
G1 X56.592 Y42.256 E43.9539
G1 X57.046 Y41.996 E44.01668
G1 X57.523 Y41.772 E44.07991
G1 X58.021 Y41.587 E44.14366
G1 X58.531 Y41.446 E44.20716
G1 X59.048 Y41.346 E44.27035
G1 X59.589 Y41.288 E44.33564
G1 X60.119 Y41.273 E44.39927
G1 X60.647 Y41.306 E44.46275
G1 X61.172 Y41.381 E44.52639
G1 X61.703 Y41.504 E44.5918
G1 X62.192 Y41.661 E44.65343
G1 X62.699 Y41.87 E44.71923
G1 X63.155 Y42.105 E44.78079
G1 X63.629 Y42.403 E44.84798
G1 X64.035 Y42.706 E44.90877
G1 X64.443 Y43.067 E44.97415
G1 X64.805 Y43.446 E45.03704
G1 X65.138 Y43.86 E45.1008
G1 X65.445 Y44.312 E45.16636
G1 X65.699 Y44.764 E45.22858
G1 X65.948 Y45.307 E45.30027
G1 X66.194 Y45.717 E45.35764
G1 X66.59 Y46.052 E45.41989
G1 X67.056 Y46.238 E45.48009
G1 X67.384 Y46.273 E45.51968
G1 X70.201 Y46.273 E45.85772
G1 X70.537 Y46.273 E45.89804
G1 X70.753 Y46.273 E45.92396
G1 X70.537 Y46.385 E45.93011
G1 X70.305 Y46.628 E45.95706
G1 X70.171 Y46.768 E45.98032
G1 X69.949 Y47.25 E46.044
G1 X69.896 Y47.775 E46.10732
G1 X70.017 Y48.29 E46.1708
G1 X70.266 Y48.689 E46.22724
G1 X70.296 Y48.738 E46.23413
G1 X70.707 Y49.073 E46.29776
G1 X70.296 Y49.073 E46.31615
G1 X70.238 Y49.073 E46.32262
G1 X67.357 Y49.073 E46.66834
G1 X66.894 Y49.152 E46.7247
G1 X66.441 Y49.395 E46.78639
G1 X66.087 Y49.77 E46.84827
G1 X65.836 Y50.297 E46.91832
G1 X65.589 Y50.791 E46.9846
G1 X65.357 Y51.17 E47.03792
G1 X65.316 Y51.238 E47.04745
G1 X65.155 Y51.456 E47.07997
G1 X64.989 Y51.68 E47.11343
G1 X64.915 Y51.765 E47.12695
G1 X64.932 Y51.67 E47.12727
G1 X64.993 Y51.337 E47.14343
G1 X64.987 Y51.308
G1 X64.971 Y51.23 E47.15227
G1 X64.887 Y50.838 E47.20038
G1 X64.597 Y50.417 E47.26172
G1 X64.169 Y50.136 E47.32316
G1 X63.959 Y50.097 E47.34879
G1 X63.702 Y50.051 E47.38012
G1 X63.712 Y50.038 E47.38209
G1 X63.833 Y49.807 E47.40125
G1 X64.057 Y49.38 E47.45911
G1 X64.288 Y48.668 E47.54894
G1 X64.393 Y47.932 E47.63815
G1 X64.377 Y47.187 E47.72757
G1 X64.231 Y46.454 E47.81726
G1 X63.964 Y45.757 E47.90683
G1 X63.582 Y45.115 E47.99647
G1 X63.1 Y44.548 E48.08578
G1 X62.527 Y44.069 E48.1754
G1 X61.883 Y43.695 E48.26476
G1 X61.183 Y43.433 E48.35445
G1 X60.452 Y43.294 E48.44375
G1 X59.705 Y43.279 E48.5334
G1 X58.959 Y43.395 E48.624
G1 X58.251 Y43.633 E48.71363
G1 X57.863 Y43.843 E48.76657
G1 X57.628 Y43.969 E48.79857
G1 X57.573 Y43.708 E48.81776
G1 X57.523 Y43.474 E48.84648
G1 X57.233 Y43.053 E48.90782
G1 X56.805 Y42.772 E48.96926
G0 F3600 X57.372 Y43.54
G0 X56.664 Y45.065
G0 X55.968 Y46.36
G0 X55.76 Y47.769
G0 X56.04 Y49.193
G0 X58.305 Y52.778
G1 F1800 X58.156 Y52.241 E49.03614
G1 X58.022 Y52.086 E49.06073
G1 X57.879 Y51.943 E49.08499
G1 X57.608 Y51.671 E49.13107
G1 X57.088 Y51.151 E49.21932
G1 X56.561 Y50.624 E49.30875
G1 X56.04 Y50.103 E49.39717
G1 X55.727 Y49.79 E49.45029
G1 X55.52 Y49.583 E49.48541
G1 X55.033 Y49.368 E49.5493
G1 X54.508 Y49.516 E49.61475
G1 X54.355 Y49.641 E49.63846
G1 X54.135 Y49.861 E49.6758
G1 X54.07 Y49.926 E49.68683
G1 X54.014 Y49.982 E49.69633
G1 X53.916 Y49.773 E49.71227
G1 X53.852 Y49.706 E49.72156
G1 X53.546 Y49.384 E49.77487
G1 X53.094 Y49.149 E49.836
G1 X52.633 Y49.073 E49.89207
G1 X49.766 Y49.073 E50.23611
G1 X49.662 Y49.073 E50.24859
G1 X49.277 Y49.073 E50.29479
G1 X49.662 Y48.784 E50.32103
G1 X49.72 Y48.698 E50.33194
G1 X49.958 Y48.349 E50.38263
G1 X50.099 Y47.849 E50.44497
G1 X50.067 Y47.308 E50.51
G1 X49.862 Y46.819 E50.57363
G1 X49.695 Y46.63 E50.6039
G1 X49.512 Y46.423 E50.63705
G1 X49.247 Y46.273 E50.67359
G1 X49.512 Y46.273 E50.67858
G1 X49.789 Y46.273 E50.70237
G1 X52.643 Y46.273 E51.04485
G1 X53.106 Y46.194 E51.10121
G1 X53.559 Y45.951 E51.1629
G1 X53.913 Y45.576 E51.22479
G1 X54.164 Y45.048 E51.29494
G1 X54.411 Y44.555 E51.36111
G1 X54.643 Y44.176 E51.41443
G1 X54.69 Y44.1 E51.42516
G1 X54.844 Y43.89 E51.45641
G1 X55.011 Y43.664 E51.49013
G1 X55.085 Y43.579 E51.50365
G1 X55.068 Y43.674 E51.50397
G1 X55.007 Y44.009 E51.5202
G1 X55.011 Y44.031
G1 X55.029 Y44.119 E51.53008
G1 X55.113 Y44.508 E51.57783
G1 X55.403 Y44.929 E51.63918
G1 X55.831 Y45.21 E51.70062
G1 X56.146 Y45.268 E51.73906
G1 X56.165 Y45.271 E51.74136
G1 X56.312 Y45.298 E51.7593
G1 X56.099 Y45.633 E51.79154
G1 X56.092 Y45.651 E51.79378
G1 X55.814 Y46.314 E51.88005
G1 X55.644 Y47.042 E51.96976
G1 X55.599 Y47.778 E52.05825
G1 X55.683 Y48.537 E52.14988
G1 X55.891 Y49.254 E52.23947
G1 X56.024 Y49.527 E52.27591
G1 X56.217 Y49.925 E52.31924
G1 X56.652 Y50.532 E52.36341
G1 X57.183 Y51.055 E52.39293
G1 X57.795 Y51.483 E52.43822
G1 X58.143 Y51.647 E52.4767
G1 X58.47 Y51.801 E52.52008
G1 X59.189 Y51.999 E52.60957
G1 X59.931 Y52.073 E52.69905
G1 X60.675 Y52.024 E52.78852
G1 X61.399 Y51.847 E52.87796
G1 X62.037 Y51.572 E52.96133
G1 X62.081 Y51.553 E52.96708
G1 X62.373 Y51.362 E53.00895
G1 X62.371 Y51.373
G1 X62.395 Y51.486
G1 X62.404 Y51.533 E53.01425
G1 X62.477 Y51.872 E53.05586
G1 X62.767 Y52.294 E53.11731
G1 X63.195 Y52.572 E53.17855
G1 X63.444 Y52.619 E53.20896
G1 X63.7 Y52.666 E53.24019
G1 X63.828 Y52.639 E53.25589
G1 X64.099 Y52.58 E53.28917
G1 X63.859 Y52.778 E53.29832
G1 X63.804 Y52.816
G1 X63.59 Y52.964 E53.32168
G1 X63.412 Y53.087 E53.34765
G1 X62.958 Y53.347 E53.41043
G1 X62.487 Y53.569 E53.47291
G1 X61.984 Y53.756 E53.53731
G1 X61.472 Y53.899 E53.6011
G1 X60.963 Y53.998 E53.66333
G1 X60.419 Y54.058 E53.729
G1 X59.89 Y54.072 E53.7925
G1 X59.363 Y54.041 E53.85585
G1 X58.836 Y53.966 E53.91973
G1 X58.33 Y53.852 E53.98197
G1 X58.04 Y53.759 E54.01852
G1 X57.806 Y53.685 E54.04797
G1 X57.706 Y53.643 E54.06098
G1 X57.735 Y53.614
G1 X57.909 Y53.44 E54.08106
