;FLAVOR:UltiGCode
;TIME:1825
;MATERIAL:1102
;MATERIAL2:0
;NOZZLE_DIAMETER:0.4
;MINX:42.918
;MINY:32.792
;MINZ:0.3
;MAXX:77.082
;MAXY:87.274
;MAXZ:4.68
;Generated with Cura_SteamEngine 4.7.1
M82 ;absolute extrusion mode
G0 F3000 Y50 ;avoid prime blob
G92 E0
G92 E0
G10
;LAYER_COUNT:74
;LAYER:0
M107
G0 F3600 X44.559 Y39.429 Z0.3
;TYPE:SKIRT
G11
G1 F1800 X44.998 Y39.034 E0.07087
G1 X45.577 Y38.627 E0.15579
G1 X46.105 Y38.339 E0.22797
G1 X46.466 Y38.169 E0.27585
G1 X48.715 Y37.183 E0.57053
G1 X51.23 Y35.994 E0.90435
G1 X53.644 Y34.769 E1.2292
G1 X54.502 Y34.304 E1.34631
G1 X55.057 Y34.015 E1.4214
G1 X55.62 Y33.741 E1.49653
G1 X56.186 Y33.504 E1.57017
G1 X56.786 Y33.293 E1.64649
G1 X57.482 Y33.098 E1.73322
G1 X58.063 Y32.974 E1.80451
G1 X58.654 Y32.879 E1.87634
G1 X59.211 Y32.822 E1.94353
G1 X59.781 Y32.795 E2.01201
G1 X60.066 Y32.792 E2.04621
G1 X60.602 Y32.811 E2.11057
G1 X61.117 Y32.851 E2.17256
G1 X61.855 Y32.955 E2.26199
G1 X62.418 Y33.073 E2.33102
G1 X63.095 Y33.254 E2.41512
G1 X63.727 Y33.47 E2.49526
G1 X64.364 Y33.733 E2.57796
G1 X64.87 Y33.98 E2.64553
G1 X65.682 Y34.414 E2.75601
G1 X68.174 Y35.701 E3.09258
G1 X70.597 Y36.866 E3.4152
G1 X73.087 Y37.979 E3.74249
G1 X73.814 Y38.295 E3.83762
G1 X74.269 Y38.536 E3.89941
G1 X74.701 Y38.81 E3.96079
G1 X74.813 Y38.887 E3.9771
G1 X75.335 Y39.325 E4.05887
G1 X75.688 Y39.691 E4.11989
G1 X76.126 Y40.262 E4.20625
G1 X76.42 Y40.743 E4.2739
G1 X76.728 Y41.428 E4.36402
G1 X76.836 Y41.755 E4.40535
G1 X76.962 Y42.253 E4.46699
G1 X77.063 Y42.944 E4.55079
G1 X77.081 Y43.223 E4.58434
G1 X77.078 Y43.73 E4.64518
G1 X77.037 Y44.266 E4.70969
G1 X76.865 Y46.989 E5.0371
G1 X76.77 Y49.721 E5.36514
G1 X76.752 Y52.45 E5.69263
G1 X76.811 Y55.178 E6.02006
G1 X76.947 Y57.884 E6.34519
G1 X76.99 Y58.411 E6.40864
G1 X77.082 Y59.844 E6.58096
G1 X77.079 Y60.348 E6.64144
G1 X77.033 Y60.952 E6.71413
G1 X76.861 Y63.679 E7.04202
G1 X76.768 Y66.404 E7.36921
G1 X76.75 Y69.136 E7.69706
G1 X76.81 Y71.864 E8.0245
G1 X76.947 Y74.567 E8.34927
G1 X77 Y75.245 E8.43088
G1 X77.081 Y76.504 E8.58227
G1 X77.055 Y77.22 E8.66825
G1 X76.979 Y77.757 E8.73333
G1 X76.782 Y78.488 E8.82418
G1 X76.572 Y79.02 E8.89282
G1 X76.235 Y79.641 E8.9776
G1 X75.899 Y80.124 E9.04821
G1 X75.44 Y80.639 E9.13099
G1 X75.006 Y81.03 E9.20109
G1 X74.425 Y81.438 E9.28628
G1 X73.908 Y81.722 E9.35707
G1 X73.546 Y81.893 E9.40511
G1 X71.273 Y82.887 E9.70281
G1 X68.831 Y84.041 E10.02692
G1 X66.374 Y85.287 E10.35751
G1 X65.382 Y85.823 E10.49281
G1 X64.846 Y86.101 E10.56527
G1 X64.15 Y86.427 E10.6575
G1 X63.648 Y86.625 E10.72225
G1 X63.12 Y86.804 E10.78916
G1 X62.528 Y86.966 E10.86281
G1 X61.971 Y87.087 E10.93121
G1 X61.265 Y87.197 E11.01695
G1 X60.631 Y87.255 E11.09335
G1 X59.958 Y87.274 E11.17414
G1 X59.362 Y87.254 E11.2457
G1 X58.614 Y87.184 E11.33585
G1 X57.954 Y87.076 E11.41611
G1 X57.263 Y86.915 E11.50125
G1 X56.746 Y86.761 E11.56598
G1 X56.194 Y86.568 E11.63615
G1 X55.602 Y86.318 E11.71327
G1 X55.113 Y86.078 E11.77863
G1 X54.3 Y85.643 E11.88928
G1 X51.822 Y84.364 E12.22391
G1 X49.384 Y83.192 E12.54852
G1 X46.865 Y82.066 E12.87963
G1 X46.625 Y81.965 E12.91087
G1 X46.167 Y81.762 E12.97099
G1 X45.724 Y81.527 E13.03117
G1 X45.227 Y81.208 E13.10203
G1 X44.685 Y80.761 E13.18634
G1 X44.321 Y80.386 E13.24905
G1 X43.878 Y79.809 E13.33635
G1 X43.586 Y79.331 E13.40356
G1 X43.557 Y79.28 E13.4106
G1 X43.269 Y78.635 E13.49537
G1 X43.094 Y78.081 E13.56509
G1 X42.963 Y77.4 E13.6483
G1 X42.918 Y76.816 E13.71859
G1 X42.922 Y76.319 E13.77823
G1 X42.964 Y75.776 E13.84359
G1 X43.139 Y73.006 E14.17665
G1 X43.232 Y70.281 E14.50384
G1 X43.25 Y67.549 E14.83169
G1 X43.19 Y64.821 E15.15913
G1 X43.053 Y62.118 E15.4839
G1 X43 Y61.438 E15.56575
G1 X42.918 Y60.154 E15.72015
G1 X42.922 Y59.645 E15.78123
G1 X42.961 Y59.15 E15.84081
G1 X43.135 Y56.388 E16.17291
G1 X43.23 Y53.657 E16.50083
G1 X43.248 Y50.927 E16.82843
G1 X43.189 Y48.2 E17.15575
G1 X43.053 Y45.505 E17.47956
G1 X43.01 Y44.953 E17.546
G1 X42.92 Y43.556 E17.71399
G1 X42.946 Y42.84 E17.79997
G1 X43.026 Y42.284 E17.86737
G1 X43.217 Y41.582 E17.95468
G1 X43.426 Y41.051 E18.02316
G1 X43.765 Y40.426 E18.10848
G1 X44.104 Y39.94 E18.17958
G1 X44.559 Y39.429 E18.26169
G0 F3600 X44.831 Y39.723
G1 F1800 X45.259 Y39.338 E18.33077
G1 X45.774 Y38.976 E18.40631
G1 X46.277 Y38.7 E18.47516
G1 X46.626 Y38.535 E18.52148
G1 X48.91 Y37.534 E18.82073
G1 X51.374 Y36.369 E19.1478
G1 X53.851 Y35.112 E19.48112
G1 X54.687 Y34.659 E19.59522
G1 X55.314 Y34.333 E19.68002
G1 X55.783 Y34.106 E19.74255
G1 X56.332 Y33.876 E19.81398
G1 X56.902 Y33.675 E19.8865
G1 X57.585 Y33.484 E19.97161
G1 X58.132 Y33.368 E20.03871
G1 X58.709 Y33.275 E20.10884
G1 X59.25 Y33.221 E20.17408
G1 X59.785 Y33.195 E20.23836
G1 X60.07 Y33.192 E20.27256
G1 X60.584 Y33.21 E20.33428
G1 X61.339 Y33.28 E20.42527
G1 X61.962 Y33.382 E20.50102
G1 X62.62 Y33.534 E20.58206
G1 X63.407 Y33.778 E20.68094
G1 X63.877 Y33.96 E20.74142
G1 X64.362 Y34.173 E20.80498
G1 X64.681 Y34.333 E20.84781
G1 X65.499 Y34.77 E20.9591
G1 X67.968 Y36.045 E21.29255
G1 X70.439 Y37.234 E21.62161
G1 X72.947 Y38.354 E21.95122
G1 X73.653 Y38.661 E22.0436
G1 X74.359 Y39.064 E22.14115
G1 X74.586 Y39.217 E22.174
G1 X75.051 Y39.606 E22.24675
G1 X75.396 Y39.965 E22.3065
G1 X75.786 Y40.473 E22.38336
G1 X76.074 Y40.945 E22.44971
G1 X76.349 Y41.553 E22.52978
G1 X76.568 Y42.323 E22.62585
G1 X76.663 Y42.97 E22.70432
G1 X76.679 Y43.699 E22.79182
G1 X76.638 Y44.235 E22.85633
G1 X76.465 Y46.983 E23.18674
G1 X76.37 Y49.705 E23.51358
G1 X76.352 Y52.456 E23.84371
G1 X76.411 Y55.171 E24.16958
G1 X76.548 Y57.903 E24.49784
G1 X76.59 Y58.437 E24.56211
G1 X76.682 Y59.87 E24.73443
G1 X76.68 Y60.318 E24.78819
G1 X76.634 Y60.922 E24.86088
G1 X76.461 Y63.672 E25.19153
G1 X76.368 Y66.389 E25.51776
G1 X76.35 Y69.143 E25.84825
G1 X76.41 Y71.857 E26.17401
G1 X76.55 Y74.618 E26.50575
G1 X76.6 Y75.271 E26.58434
G1 X76.681 Y76.53 E26.73574
G1 X76.659 Y77.166 E26.8121
G1 X76.584 Y77.694 E26.8761
G1 X76.409 Y78.344 E26.95687
G1 X76.204 Y78.864 E27.02395
G1 X75.904 Y79.417 E27.09944
G1 X75.576 Y79.887 E27.16822
G1 X75.168 Y80.345 E27.24183
G1 X74.745 Y80.727 E27.31022
G1 X74.228 Y81.09 E27.38603
G1 X73.734 Y81.361 E27.45364
G1 X73.386 Y81.527 E27.49991
G1 X71.107 Y82.524 E27.79841
G1 X68.629 Y83.694 E28.12725
G1 X66.196 Y84.928 E28.45462
G1 X65.198 Y85.468 E28.59078
G1 X64.662 Y85.746 E28.66324
G1 X63.987 Y86.062 E28.75268
G1 X63.516 Y86.247 E28.8134
G1 X63.008 Y86.42 E28.8778
G1 X62.426 Y86.58 E28.95023
G1 X61.901 Y86.693 E29.01467
G1 X61.213 Y86.8 E29.09823
G1 X60.61 Y86.856 E29.1709
G1 X59.952 Y86.874 E29.24989
G1 X59.38 Y86.854 E29.31857
G1 X58.661 Y86.787 E29.40522
G1 X58.038 Y86.685 E29.48098
G1 X57.36 Y86.527 E29.56452
G1 X56.874 Y86.382 E29.62538
G1 X56.343 Y86.196 E29.69289
G1 X55.761 Y85.95 E29.76872
G1 X55.302 Y85.726 E29.83001
G1 X54.483 Y85.288 E29.94146
G1 X52 Y84.006 E30.27679
G1 X49.542 Y82.824 E30.60408
G1 X47.001 Y81.689 E30.93804
G1 X46.787 Y81.6 E30.96585
G1 X46.329 Y81.397 E31.02597
G1 X45.694 Y81.038 E31.1135
G1 X45.45 Y80.876 E31.14865
G1 X44.969 Y80.479 E31.22349
G1 X44.612 Y80.112 E31.28493
G1 X44.218 Y79.599 E31.36255
G1 X43.933 Y79.134 E31.42799
G1 X43.904 Y79.083 E31.43503
G1 X43.649 Y78.509 E31.51041
G1 X43.478 Y77.968 E31.57849
G1 X43.361 Y77.363 E31.65244
G1 X43.317 Y76.792 E31.72116
G1 X43.321 Y76.35 E31.7742
G1 X43.363 Y75.805 E31.8398
G1 X43.539 Y73.013 E32.1755
G1 X43.632 Y70.296 E32.50173
G1 X43.65 Y67.542 E32.83222
G1 X43.59 Y64.828 E33.15798
G1 X43.45 Y62.067 E33.48972
G1 X43.4 Y61.413 E33.56843
G1 X43.318 Y60.129 E33.72283
G1 X43.359 Y59.185 E33.83621
G1 X43.535 Y56.394 E34.1718
G1 X43.63 Y53.673 E34.49852
G1 X43.648 Y50.908 E34.83033
G1 X43.589 Y48.207 E35.15452
G1 X43.451 Y45.455 E35.48518
G1 X43.41 Y44.928 E35.54861
G1 X43.32 Y43.531 E35.7166
G1 X43.342 Y42.894 E35.79308
G1 X43.421 Y42.35 E35.85905
G1 X43.591 Y41.726 E35.93666
G1 X43.795 Y41.206 E36.00369
G1 X44.096 Y40.65 E36.07956
G1 X44.426 Y40.177 E36.14876
G1 X44.831 Y39.723 E36.22177
G10
;MESH:enc_holder_1.stl(2)
G0 F3600 X54.001 Y38.612
G0 X54.875 Y39.254
G0 X55.834 Y38.669
G0 X56.805 Y38.481
;TYPE:WALL-INNER
G11
G1 F1800 X56.559 Y38.436 E36.25178
G1 X56.3 Y38.389 E36.28337
G1 X56.175 Y38.415 E36.29869
G1 X55.902 Y38.474 E36.33221
G1 X56.144 Y38.275 E36.34139
G1 X56.196 Y38.239
G1 X56.413 Y38.09 E36.36503
G1 X56.597 Y37.963 E36.39186
G1 X57.046 Y37.703 E36.45412
G1 X57.517 Y37.483 E36.5165
G1 X58.018 Y37.297 E36.58063
G1 X58.537 Y37.152 E36.64529
G1 X59.045 Y37.056 E36.70733
G1 X59.589 Y36.997 E36.773
G1 X60.119 Y36.982 E36.83662
G1 X60.647 Y37.015 E36.9001
G1 X61.172 Y37.09 E36.96374
G1 X61.694 Y37.211 E37.02805
G1 X62.195 Y37.37 E37.09112
G1 X62.703 Y37.581 E37.15713
G1 X63.161 Y37.817 E37.21896
G1 X63.618 Y38.102 E37.28359
G1 X64.04 Y38.42 E37.347
G1 X64.437 Y38.771 E37.41058
G1 X64.815 Y39.165 E37.47611
G1 X65.144 Y39.576 E37.53928
G1 X65.439 Y40.011 E37.60235
G1 X65.699 Y40.473 E37.66597
G1 X65.948 Y41.016 E37.73765
G1 X66.194 Y41.426 E37.79503
G1 X66.591 Y41.762 E37.85744
G1 X67.056 Y41.946 E37.91745
G1 X67.383 Y41.982 E37.95693
G1 X70.201 Y41.982 E38.29509
G1 X70.537 Y41.982 E38.33541
G1 X70.754 Y41.982 E38.36145
G1 X70.537 Y42.095 E38.36766
G1 X70.305 Y42.337 E38.3946
G1 X70.172 Y42.476 E38.41769
G1 X69.949 Y42.956 E38.4812
G1 X69.896 Y43.485 E38.545
G1 X70.017 Y43.999 E38.60836
G1 X70.266 Y44.397 E38.6647
G1 X70.296 Y44.446 E38.67159
G1 X70.707 Y44.781 E38.73522
G1 X70.297 Y44.781 E38.75352
G1 X70.239 Y44.781 E38.76
G1 X67.358 Y44.782 E39.10572
G1 X66.894 Y44.859 E39.16216
G1 X66.44 Y45.105 E39.22412
G1 X66.087 Y45.479 E39.28583
G1 X65.836 Y46.006 E39.35588
G1 X65.587 Y46.503 E39.42259
G1 X65.357 Y46.877 E39.47527
G1 X65.315 Y46.947 E39.48507
G1 X65.156 Y47.164 E39.51735
G1 X64.992 Y47.387 E39.55057
G1 X64.915 Y47.475 E39.5646
G1 X64.932 Y47.377 E39.56494
G1 X64.993 Y47.045 E39.58123
G1 X64.988 Y47.017
G1 X64.971 Y46.937 E39.59029
G1 X64.887 Y46.547 E39.63816
G1 X64.597 Y46.124 E39.6997
G1 X64.169 Y45.846 E39.76095
G1 X63.959 Y45.806 E39.7866
G1 X63.703 Y45.759 E39.81783
G1 X63.712 Y45.748 E39.81954
G1 X63.833 Y45.517 E39.83867
G1 X64.057 Y45.089 E39.89663
G1 X64.288 Y44.376 E39.98657
G1 X64.393 Y43.64 E40.07579
G1 X64.377 Y42.895 E40.16521
G1 X64.231 Y42.162 E40.2549
G1 X63.964 Y41.466 E40.34435
G1 X63.583 Y40.824 E40.43394
G1 X63.1 Y40.256 E40.52341
G1 X62.527 Y39.778 E40.61295
G1 X61.883 Y39.403 E40.70238
G1 X61.183 Y39.142 E40.79203
G1 X60.452 Y39.003 E40.88132
G1 X59.705 Y38.988 E40.97098
G1 X58.96 Y39.104 E41.06145
G1 X58.252 Y39.34 E41.15101
G1 X57.862 Y39.55 E41.20416
G1 X57.628 Y39.676 E41.23606
G1 X57.573 Y39.416 E41.25516
G1 X57.523 Y39.183 E41.28376
G1 X57.233 Y38.762 E41.3451
G1 X56.805 Y38.481 E41.40654
G0 F3600 X57.372 Y39.249
G0 X57.749 Y40.043
G0 X56.667 Y40.774
G0 X55.968 Y42.07
G0 X55.76 Y43.478
G0 X56.041 Y44.902
G0 X56.775 Y46.136
G0 X57.877 Y47.053
G0 X59.22 Y47.549
G0 X60.576 Y47.579
G0 X62.371 Y47.081
G1 F1800 X62.395 Y47.195 E41.42052
G1 X62.405 Y47.242 E41.42629
G1 X62.477 Y47.58 E41.46776
G1 X62.767 Y48.001 E41.5291
G1 X63.195 Y48.282 E41.59054
G1 X63.441 Y48.327 E41.62055
G1 X63.7 Y48.374 E41.65214
G1 X63.825 Y48.348 E41.66746
G1 X64.098 Y48.289 E41.70098
G1 X63.856 Y48.488 E41.71017
G1 X63.804 Y48.524
G1 X63.587 Y48.673 E41.7338
G1 X63.402 Y48.8 E41.76073
G1 X62.954 Y49.06 E41.82289
G1 X62.483 Y49.28 E41.88527
G1 X61.982 Y49.466 E41.9494
G1 X61.463 Y49.611 E42.01406
G1 X60.955 Y49.707 E42.0761
G1 X60.411 Y49.766 E42.14176
G1 X59.881 Y49.781 E42.20539
G1 X59.353 Y49.748 E42.26887
G1 X58.828 Y49.673 E42.33251
G1 X58.306 Y49.552 E42.39681
G1 X57.805 Y49.393 E42.45989
G1 X57.297 Y49.182 E42.5259
G1 X56.839 Y48.946 E42.58772
G1 X56.388 Y48.665 E42.65149
G1 X55.95 Y48.335 E42.7173
G1 X55.563 Y47.992 E42.77935
G1 X55.185 Y47.598 E42.84487
G1 X54.856 Y47.187 E42.90805
G1 X54.561 Y46.753 E42.97102
G1 X54.301 Y46.29 E43.03474
G1 X54.052 Y45.748 E43.10632
G1 X53.806 Y45.338 E43.16369
G1 X53.409 Y45.001 E43.22618
G1 X52.942 Y44.817 E43.28642
G1 X52.616 Y44.782 E43.32576
G1 X49.766 Y44.782 E43.66776
G1 X49.662 Y44.782 E43.68024
G1 X49.277 Y44.782 E43.72644
G1 X49.662 Y44.493 E43.75268
G1 X49.72 Y44.407 E43.76359
G1 X49.958 Y44.056 E43.81448
G1 X50.099 Y43.558 E43.87659
G1 X50.067 Y43.017 E43.94163
G1 X49.862 Y42.528 E44.00525
G1 X49.695 Y42.339 E44.03552
G1 X49.512 Y42.132 E44.06867
G1 X49.247 Y41.982 E44.10521
G1 X49.512 Y41.982 E44.1102
G1 X49.789 Y41.982 E44.13399
G1 X52.643 Y41.982 E44.47647
G1 X53.106 Y41.903 E44.53284
G1 X53.56 Y41.658 E44.59474
G1 X53.913 Y41.284 E44.65646
G1 X54.164 Y40.757 E44.7265
G1 X54.415 Y40.256 E44.79375
G1 X54.643 Y39.885 E44.846
G1 X54.685 Y39.816 E44.85569
G1 X54.844 Y39.599 E44.88798
G1 X55.011 Y39.373 E44.9217
G1 X55.085 Y39.288 E44.93522
G1 X55.068 Y39.383 E44.93554
G1 X55.007 Y39.718 E44.95177
G1 X55.012 Y39.746
G1 X55.029 Y39.826 E44.96083
G1 X55.113 Y40.216 E45.00871
G1 X55.403 Y40.639 E45.07025
G1 X55.831 Y40.917 E45.13149
G1 X56.148 Y40.976 E45.17019
G1 X56.166 Y40.979 E45.17238
G1 X56.312 Y41.007 E45.19021
G1 X56.099 Y41.342 E45.22256
G1 X56.092 Y41.359 E45.2247
G1 X55.814 Y42.022 E45.31097
G1 X55.644 Y42.751 E45.4008
G1 X55.599 Y43.487 E45.48928
G1 X55.683 Y44.246 E45.58092
G1 X55.891 Y44.962 E45.67039
G1 X56.217 Y45.634 E45.76002
G1 X56.652 Y46.24 E45.84953
G1 X57.183 Y46.765 E45.93914
G1 X57.796 Y47.192 E46.02879
G1 X58.47 Y47.509 E46.11816
G1 X59.189 Y47.707 E46.20766
G1 X59.93 Y47.782 E46.29703
G1 X60.675 Y47.733 E46.38662
G1 X61.399 Y47.556 E46.47606
G1 X62.037 Y47.281 E46.55943
G1 X62.081 Y47.262 E46.56474
G1 X62.373 Y47.071 E46.59229
G1 X62.371 Y47.081
G0 F3600 X62.83 Y47.802
G0 X63.346 Y47.903
;TYPE:WALL-OUTER
G1 F1800 X63.694 Y47.966 E46.63473
G1 X64.038 Y47.893 E46.67693
G1 X64.329 Y47.693 E46.7193
G1 X64.522 Y47.399 E46.7615
G1 X64.585 Y47.051 E46.80394
G1 X64.512 Y46.708 E46.84602
G1 X64.312 Y46.416 E46.88849
G1 X64.018 Y46.225 E46.93056
G1 X63.67 Y46.16 E46.97305
G1 X63.341 Y46.231 E47.01343
G1 X63.326 Y46.234 E47.01527
G1 X63.155 Y46.35 E47.04007
G1 X63.035 Y46.432 E47.05751
G1 X62.842 Y46.729 E47.10001
G1 X62.779 Y47.075 E47.14221
G1 X62.852 Y47.419 E47.18441
G1 X63.052 Y47.71 E47.22679
G1 X63.346 Y47.903 E47.26899
G0 F3600 X63.543 Y47.938
G0 X63.488 Y48.232
G0 X64.728 Y47.521
G0 X66.209 Y45.565
G0 X66.884 Y44.979
G0 X67.026 Y45.243
G1 F1800 X66.687 Y45.426 E47.31522
G1 X66.421 Y45.708 E47.36174
G1 X66.194 Y46.185 E47.42513
G1 X65.939 Y46.694 E47.49344
G1 X65.648 Y47.169 E47.56029
G1 X65.305 Y47.636 E47.62982
G1 X64.931 Y48.064 E47.69803
G1 X64.535 Y48.448 E47.76422
G1 X64.093 Y48.81 E47.83278
G1 X63.617 Y49.138 E47.90215
G1 X63.14 Y49.414 E47.96828
G1 X62.632 Y49.651 E48.03555
G1 X62.106 Y49.846 E48.10286
G1 X61.552 Y50.001 E48.1719
G1 X61.011 Y50.104 E48.23798
G1 X60.44 Y50.166 E48.30691
G1 X59.879 Y50.181 E48.37425
G1 X59.308 Y50.146 E48.4429
G1 X58.752 Y50.066 E48.51031
G1 X58.206 Y49.94 E48.57755
G1 X57.66 Y49.766 E48.64631
G1 X57.139 Y49.55 E48.71399
G1 X56.637 Y49.291 E48.78178
G1 X56.154 Y48.99 E48.85007
G1 X55.709 Y48.655 E48.91691
G1 X55.279 Y48.274 E48.98585
G1 X54.888 Y47.866 E49.05367
G1 X54.531 Y47.421 E49.12213
G1 X54.22 Y46.963 E49.18856
G1 X53.943 Y46.47 E49.25642
G1 X53.698 Y45.935 E49.32703
G1 X53.497 Y45.6 E49.37391
G1 X53.201 Y45.349 E49.42048
G1 X52.846 Y45.209 E49.46628
G1 X52.595 Y45.182 E49.49657
G1 X48.505 Y45.182 E49.98737
G1 X48.088 Y45.132 E50.03777
G1 X47.704 Y44.994 E50.08673
G1 X47.356 Y44.768 E50.13653
G1 X47.069 Y44.471 E50.18609
G1 X46.859 Y44.119 E50.23527
G1 X46.734 Y43.721 E50.28533
G1 X46.702 Y43.316 E50.33409
G1 X46.766 Y42.902 E50.38436
G1 X46.918 Y42.525 E50.43313
G1 X47.159 Y42.183 E50.48334
G1 X47.464 Y41.911 E50.53238
G1 X47.827 Y41.714 E50.58194
G1 X48.232 Y41.602 E50.63237
G1 X48.502 Y41.582 E50.66485
G1 X52.609 Y41.582 E51.15769
G1 X52.974 Y41.52 E51.20212
G1 X53.313 Y41.337 E51.24835
G1 X53.579 Y41.055 E51.29487
G1 X53.806 Y40.578 E51.35826
G1 X54.062 Y40.067 E51.42685
G1 X54.352 Y39.594 E51.49342
G1 X54.698 Y39.124 E51.56346
G1 X55.071 Y38.697 E51.6315
G1 X55.465 Y38.315 E51.69735
G1 X55.907 Y37.953 E51.76591
G1 X56.382 Y37.625 E51.83518
G1 X56.86 Y37.349 E51.90141
