;FLAVOR:UltiGCode
;TIME:2507
;MATERIAL:2722
;MATERIAL2:0
;NOZZLE_DIAMETER:0.4
;MINX:34.15
;MINY:46.284
;MINZ:0.3
;MAXX:89
;MAXY:73.715
;MAXZ:18
;Generated with Cura_SteamEngine 4.7.1
M82 ;absolute extrusion mode
G0 F3000 Y50 ;avoid prime blob
G92 E0
G92 E0
G10
;LAYER_COUNT:178
;LAYER:0
M107
G0 F3600 X35.554 Y49.662 Z0.3
;TYPE:SKIRT
G11
G1 F1800 X36.001 Y49.366 E0.06433
G1 X36.661 Y49.078 E0.15075
G1 X37.321 Y48.866 E0.23393
G1 X44.349 Y46.707 E1.11619
G1 X45.023 Y46.511 E1.20042
G1 X45.586 Y46.383 E1.2697
G1 X45.84 Y46.339 E1.30064
G1 X46.396 Y46.286 E1.36766
G1 X46.521 Y46.284 E1.38266
G1 X47.057 Y46.301 E1.44701
G1 X47.981 Y46.365 E1.55816
G1 X50.691 Y46.518 E1.88388
G1 X53.457 Y46.595 E2.21593
G1 X56.151 Y46.593 E2.53921
G1 X58.893 Y46.515 E2.86838
G1 X61.384 Y46.357 E3.1679
G1 X62.563 Y46.293 E3.30959
G1 X63.033 Y46.286 E3.366
G1 X63.635 Y46.333 E3.43846
G1 X64.261 Y46.457 E3.51503
G1 X64.627 Y46.554 E3.56047
G1 X65.18 Y46.724 E3.6299
G1 X79.748 Y51.38 E5.46517
G1 X80.386 Y51.595 E5.54596
G1 X81.094 Y51.923 E5.63959
G1 X83.595 Y53.408 E5.98863
G1 X86.006 Y54.747 E6.31958
G1 X87.105 Y55.341 E6.46949
G1 X87.556 Y55.631 E6.53383
G1 X87.959 Y55.984 E6.59812
G1 X88.306 Y56.394 E6.66257
G1 X88.587 Y56.85 E6.72685
G1 X88.798 Y57.343 E6.7912
G1 X88.933 Y57.862 E6.85555
G1 X88.99 Y58.407 E6.92131
G1 X89 Y58.83 E6.97208
G1 X89 Y60.813 E7.21004
G1 X88.99 Y61.544 E7.29777
G1 X88.942 Y62.078 E7.36211
G1 X88.816 Y62.6 E7.42655
G1 X88.614 Y63.096 E7.49082
G1 X88.341 Y63.558 E7.55521
G1 X88.001 Y63.973 E7.61959
G1 X87.604 Y64.333 E7.6839
G1 X87.138 Y64.642 E7.751
G1 X86.977 Y64.731 E7.77307
G1 X84.768 Y65.926 E8.07446
G1 X82.401 Y67.296 E8.40264
G1 X82.19 Y67.426 E8.43238
G1 X81.095 Y68.08 E8.58543
G1 X80.457 Y68.38 E8.67004
G1 X79.971 Y68.549 E8.73178
G1 X65.212 Y73.266 E10.59112
G1 X64.535 Y73.472 E10.67603
G1 X64.002 Y73.601 E10.74184
G1 X63.723 Y73.653 E10.7759
G1 X63.122 Y73.714 E10.84839
G1 X62.497 Y73.703 E10.9234
G1 X62.393 Y73.698 E10.93589
G1 X61.207 Y73.622 E11.07851
G1 X60.84 Y73.594 E11.12267
G1 X58.075 Y73.458 E11.45487
G1 X55.381 Y73.401 E11.77823
G1 X52.65 Y73.422 E12.10596
G1 X49.929 Y73.519 E12.43268
G1 X48.525 Y73.615 E12.60156
G1 X48.491 Y73.615 E12.60564
G1 X46.967 Y73.705 E12.78884
G1 X46.51 Y73.715 E12.84369
G1 X45.918 Y73.674 E12.9149
G1 X45.297 Y73.558 E12.99071
G1 X45.006 Y73.486 E13.02668
G1 X44.374 Y73.301 E13.1057
G1 X37.356 Y71.145 E13.98671
G1 X36.657 Y70.92 E14.07483
G1 X36.16 Y70.718 E14.1392
G1 X35.699 Y70.445 E14.2035
G1 X35.283 Y70.106 E14.26789
G1 X34.923 Y69.709 E14.3322
G1 X34.625 Y69.263 E14.39657
G1 X34.397 Y68.777 E14.46099
G1 X34.243 Y68.263 E14.52538
G1 X34.16 Y67.543 E14.61235
G1 X34.15 Y66.775 E14.70452
G1 X34.151 Y53.138 E16.34096
G1 X34.162 Y52.449 E16.42365
G1 X34.211 Y51.914 E16.48812
G1 X34.338 Y51.393 E16.55247
G1 X34.541 Y50.897 E16.61678
G1 X34.816 Y50.437 E16.68109
G1 X35.156 Y50.022 E16.74547
G1 X35.554 Y49.662 E16.80987
G0 F3600 X35.94 Y49.876
G1 F1800 X36.377 Y49.621 E16.87059
G1 X36.783 Y49.459 E16.92304
G1 X37.482 Y49.235 E17.01112
G1 X44.46 Y47.091 E17.88712
G1 X45.134 Y46.895 E17.97135
G1 X45.654 Y46.777 E18.03533
G1 X46.403 Y46.686 E18.12587
G1 X46.528 Y46.684 E18.14088
G1 X47.04 Y46.701 E18.20235
G1 X47.928 Y46.762 E18.30916
G1 X50.695 Y46.918 E18.64173
G1 X53.445 Y46.995 E18.97186
G1 X56.163 Y46.993 E19.29802
G1 X58.9 Y46.915 E19.62659
G1 X61.406 Y46.757 E19.92791
G1 X62.585 Y46.693 E20.0696
G1 X63.036 Y46.686 E20.12372
G1 X63.571 Y46.728 E20.18812
G1 X64.175 Y46.848 E20.26202
G1 X64.51 Y46.937 E20.30361
G1 X65.058 Y47.105 E20.37239
G1 X79.62 Y51.759 E22.20691
G1 X80.258 Y51.974 E22.2877
G1 X80.888 Y52.265 E22.37097
G1 X81.034 Y52.353 E22.39143
G1 X83.403 Y53.759 E22.72201
G1 X85.823 Y55.103 E23.05419
G1 X86.914 Y55.693 E23.20303
G1 X87.339 Y55.968 E23.26377
G1 X87.714 Y56.306 E23.32435
G1 X88.032 Y56.7 E23.38511
G1 X88.283 Y57.138 E23.44569
G1 X88.463 Y57.611 E23.50642
G1 X88.566 Y58.106 E23.56709
G1 X88.599 Y58.741 E23.6434
G1 X88.6 Y60.808 E23.89144
G1 X88.59 Y61.539 E23.97916
G1 X88.543 Y62.042 E24.03979
G1 X88.417 Y62.532 E24.1005
G1 X88.216 Y62.996 E24.16118
G1 X87.945 Y63.422 E24.22177
G1 X87.609 Y63.8 E24.28246
G1 X87.218 Y64.121 E24.34316
G1 X86.787 Y64.379 E24.40344
G1 X84.558 Y65.585 E24.70756
G1 X82.197 Y66.952 E25.03494
G1 X81.985 Y67.082 E25.06479
G1 X80.89 Y67.736 E25.21784
G1 X80.322 Y68.004 E25.2932
G1 X79.846 Y68.169 E25.35366
G1 X65.096 Y72.883 E27.21186
G1 X64.419 Y73.089 E27.29677
G1 X63.928 Y73.208 E27.3574
G1 X63.649 Y73.26 E27.39146
G1 X63.115 Y73.314 E27.45586
G1 X62.511 Y73.303 E27.52835
G1 X62.419 Y73.299 E27.5394
G1 X61.283 Y73.227 E27.676
G1 X60.855 Y73.193 E27.72752
G1 X58.104 Y73.058 E28.05804
G1 X55.386 Y73.001 E28.38427
G1 X52.632 Y73.022 E28.71476
G1 X49.92 Y73.119 E29.04041
G1 X48.498 Y73.216 E29.21144
G1 X48.459 Y73.216 E29.21612
G1 X46.944 Y73.305 E29.39824
G1 X46.505 Y73.315 E29.45093
G1 X45.978 Y73.278 E29.51433
G1 X45.377 Y73.167 E29.58767
G1 X45.118 Y73.102 E29.61971
G1 X44.491 Y72.919 E29.69809
G1 X37.479 Y70.764 E30.57837
G1 X36.78 Y70.539 E30.66649
G1 X36.312 Y70.347 E30.72719
G1 X35.881 Y70.083 E30.78784
G1 X35.496 Y69.755 E30.84854
G1 X35.168 Y69.37 E30.90923
G1 X34.905 Y68.938 E30.96992
G1 X34.713 Y68.471 E31.03051
G1 X34.597 Y67.978 E31.09129
G1 X34.56 Y67.538 E31.14427
G1 X34.55 Y66.775 E31.23584
G1 X34.551 Y53.144 E32.87156
G1 X34.562 Y52.455 E32.95425
G1 X34.61 Y51.952 E33.01489
G1 X34.737 Y51.462 E33.07563
G1 X34.939 Y50.999 E33.13625
G1 X35.212 Y50.573 E33.19696
G1 X35.548 Y50.195 E33.25765
G1 X35.94 Y49.876 E33.3183
G10
;MESH:mot_holder_1.stl
G0 F3600 X37.85 Y51.774
G0 X38.167 Y52.806
G0 X44.896 Y55.203
;TYPE:WALL-INNER
G11
G1 F1800 X44.36 Y55.239 E33.38276
G1 X41.826 Y55.698 E33.69179
G1 X41.354 Y55.85 E33.7513
G1 X40.908 Y56.135 E33.81481
G1 X40.552 Y56.51 E33.87686
G1 X40.295 Y56.974 E33.94051
G1 X40.167 Y57.469 E34.00186
G1 X40.15 Y57.735 E34.03385
G1 X40.151 Y62.294 E34.58093
G1 X40.216 Y62.785 E34.64036
G1 X40.415 Y63.277 E34.70405
G1 X40.724 Y63.696 E34.76652
G1 X41.136 Y64.032 E34.83032
G1 X41.609 Y64.249 E34.89277
G1 X41.94 Y64.323 E34.93347
G1 X44.415 Y64.77 E35.23527
G1 X44.9 Y64.796 E35.29356
G1 X45.415 Y64.694 E35.35656
G1 X45.888 Y64.468 E35.41946
G1 X46.29 Y64.131 E35.48241
G1 X46.598 Y63.706 E35.5454
G1 X46.789 Y63.217 E35.60839
G1 X46.85 Y62.735 E35.6667
G1 X46.85 Y57.265 E36.3231
G1 X46.789 Y56.783 E36.3814
G1 X46.598 Y56.294 E36.44439
G1 X46.29 Y55.869 E36.50738
G1 X45.888 Y55.532 E36.57033
G1 X45.415 Y55.306 E36.63323
G1 X44.896 Y55.203 E36.69673
G0 F3600 X54.591 Y53.914
G0 X55.396 Y53.946
G0 X56.945 Y54.32
G0 X62.368 Y57.671
G0 X62.839 Y58.436
G0 X62.839 Y61.556
G0 X62.469 Y62.466
G1 F1800 X62.875 Y62.052 E36.76631
G1 X63 Y61.578 E36.82514
G1 X63 Y58.415 E37.2047
G1 X62.866 Y57.931 E37.26496
G1 X62.452 Y57.525 E37.33454
G1 X61.978 Y57.4 E37.39337
G1 X60.448 Y57.4 E37.57697
G1 X60.431 Y57.396 E37.57906
G1 X60.09 Y56.751 E37.66661
G1 X59.619 Y56.082 E37.76479
G1 X59.065 Y55.478 E37.86315
G1 X58.436 Y54.952 E37.96154
G1 X57.744 Y54.513 E38.05988
G1 X57 Y54.169 E38.15824
G1 X56.218 Y53.924 E38.25658
G1 X55.409 Y53.785 E38.35508
G1 X54.592 Y53.752 E38.4532
G1 X53.775 Y53.825 E38.55163
G1 X52.975 Y54.006 E38.65006
G1 X52.206 Y54.29 E38.74843
G1 X51.481 Y54.671 E38.84671
G1 X50.812 Y55.146 E38.94517
G1 X50.211 Y55.702 E39.04342
G1 X49.688 Y56.333 E39.14177
G1 X49.251 Y57.028 E39.24028
G1 X48.91 Y57.773 E39.3386
G1 X48.669 Y58.556 E39.43691
G1 X48.532 Y59.365 E39.53538
G1 X48.502 Y60.184 E39.63372
G1 X48.579 Y61 E39.73208
G1 X48.762 Y61.798 E39.83032
G1 X49.05 Y62.566 E39.92875
G1 X49.435 Y63.29 E40.02715
G1 X49.912 Y63.957 E40.12555
G1 X50.47 Y64.556 E40.22379
G1 X51.103 Y65.077 E40.32217
G1 X51.799 Y65.51 E40.42053
G1 X52.546 Y65.849 E40.51897
G1 X53.33 Y66.086 E40.61725
G1 X54.138 Y66.22 E40.71554
G1 X54.958 Y66.248 E40.814
G1 X55.775 Y66.166 E40.91253
G1 X56.571 Y65.98 E41.01062
G1 X57.338 Y65.69 E41.10902
G1 X58.06 Y65.302 E41.20738
G1 X58.725 Y64.823 E41.30573
G1 X59.323 Y64.262 E41.40412
G1 X59.841 Y63.626 E41.50255
G1 X60.26 Y62.946 E41.5984
G1 X60.445 Y62.6 E41.64548
G1 X61.985 Y62.6 E41.83028
G1 X62.469 Y62.466 E41.89054
G0 F3600 X72.022 Y57.073
G1 F1800 X71.535 Y57.519 E41.96979
G1 X71.136 Y58.043 E42.04882
G1 X70.837 Y58.63 E42.12787
G1 X70.647 Y59.262 E42.20707
G1 X70.573 Y59.918 E42.28629
G1 X70.618 Y60.575 E42.36531
G1 X70.779 Y61.214 E42.44439
G1 X71.052 Y61.815 E42.5236
G1 X71.427 Y62.357 E42.60269
G1 X71.893 Y62.823 E42.68177
G1 X72.435 Y63.198 E42.76086
G1 X73.036 Y63.471 E42.84007
G1 X73.675 Y63.632 E42.91915
G1 X74.332 Y63.677 E42.99818
G1 X74.988 Y63.603 E43.07739
G1 X75.62 Y63.413 E43.15659
G1 X76.207 Y63.114 E43.23564
G1 X76.731 Y62.715 E43.31467
G1 X77.177 Y62.228 E43.39392
G1 X77.527 Y61.669 E43.47306
G1 X77.772 Y61.058 E43.55206
G1 X77.905 Y60.411 E43.63132
G1 X77.919 Y59.752 E43.71042
G1 X77.817 Y59.102 E43.78937
G1 X77.599 Y58.479 E43.86858
G1 X77.273 Y57.906 E43.94769
G1 X76.85 Y57.4 E44.02683
G1 X76.344 Y56.977 E44.10597
G1 X75.771 Y56.651 E44.18508
G1 X75.148 Y56.433 E44.26428
G1 X74.498 Y56.331 E44.34324
G1 X73.839 Y56.345 E44.42234
G1 X73.192 Y56.478 E44.5016
G1 X72.581 Y56.723 E44.5806
G1 X72.022 Y57.073 E44.65974
G0 F3600 X73.236 Y56.633
G0 X74.488 Y56.493
G0 X75.704 Y56.798
G0 X78.65 Y59.1
G1 F1800 X84.8 Y59.1 E45.39774
G1 X84.8 Y60.9 E45.61374
G1 X78.65 Y60.9 E46.35174
G1 X78.65 Y64.561 E46.79106
G1 X64.516 Y69.079 E48.57168
G1 X64.404 Y69.114 E48.58576
G1 X64.049 Y69.228 E48.63051
G1 X64.319 Y68.85 E48.65503
G1 X64.354 Y68.738 E48.6672
G1 X64.47 Y68.37 E48.7135
G1 X64.466 Y67.868 E48.77374
G1 X64.308 Y67.391 E48.83404
G1 X64.009 Y66.988 E48.89426
G1 X63.602 Y66.695 E48.95444
G1 X63.12 Y66.543 E49.01508
G1 X62.618 Y66.547 E49.07533
G1 X62.14 Y66.706 E49.13578
G1 X61.737 Y67.005 E49.19599
G1 X61.445 Y67.412 E49.2561
G1 X61.293 Y67.893 E49.31664
G1 X61.295 Y68.111 E49.3428
G1 X61.296 Y68.339 E49.37016
G1 X61.297 Y68.395 E49.37688
G1 X61.363 Y68.594 E49.40204
G1 X61.231 Y68.462 E49.40398
G1 X61.11 Y68.341 E49.41616
G1 X60.934 Y68.196 E49.43691
G1 X60.74 Y68.036 E49.46709
G1 X60.29 Y67.795 E49.52834
G1 X59.8 Y67.647 E49.58977
G1 X59.323 Y67.6 E49.64729
G1 X50.177 Y67.6 E50.74481
G1 X49.7 Y67.647 E50.80232
G1 X49.197 Y67.799 E50.86538
G1 X48.601 Y68.155 E50.94869
G1 X48.589 Y68.162 E50.95035
G1 X48.38 Y68.351 E50.98417
G1 X48.284 Y68.446 E51.00037
G1 X48.136 Y68.594 E51.02549
G1 X48.207 Y68.37 E51.03123
G1 X48.207 Y68.352
G1 X48.206 Y68.166 E51.04571
G1 X48.206 Y68.152 E51.04736
G1 X48.203 Y67.868 E51.08144
G1 X48.044 Y67.39 E51.14189
G1 X47.745 Y66.987 E51.20211
G1 X47.338 Y66.695 E51.26222
G1 X46.857 Y66.543 E51.32275
G1 X46.355 Y66.547 E51.383
G1 X45.877 Y66.706 E51.44345
G1 X45.474 Y67.005 E51.50366
G1 X45.181 Y67.413 E51.56394
G1 X45.03 Y67.893 E51.62432
G1 X45.034 Y68.395 E51.68456
G1 X45.153 Y68.758 E51.73041
G1 X45.191 Y68.873 E51.74494
G1 X45.466 Y69.244 E51.80036
G1 X45.111 Y69.135 E51.81359
G1 X44.995 Y69.1 E51.82608
G1 X38.35 Y67.057 E52.66032
G1 X38.351 Y52.943 E54.354
G1 X44.997 Y50.901 E55.18832
G1 X45.095 Y50.871 E55.20062
G1 X45.461 Y50.758 E55.24658
G1 X45.181 Y51.15 E55.27308
G1 X45.151 Y51.248 E55.28389
G1 X45.03 Y51.63 E55.33197
G1 X45.034 Y52.132 E55.39221
G1 X45.192 Y52.609 E55.45251
G1 X45.491 Y53.012 E55.51273
G1 X45.898 Y53.305 E55.57291
G1 X46.38 Y53.457 E55.63356
G1 X46.882 Y53.453 E55.6938
G1 X47.36 Y53.294 E55.75425
G1 X47.763 Y52.995 E55.81447
G1 X48.055 Y52.588 E55.87458
G1 X48.207 Y52.107 E55.93511
G1 X48.205 Y51.889 E55.96127
G1 X48.204 Y51.661 E55.98863
G1 X48.203 Y51.605 E55.99535
G1 X48.137 Y51.406 E56.02051
G1 X48.269 Y51.538 E56.02245
G1 X48.39 Y51.659 E56.03463
G1 X48.566 Y51.804 E56.05538
G1 X48.76 Y51.964 E56.08556
G1 X49.21 Y52.205 E56.14682
G1 X49.7 Y52.353 E56.20824
G1 X50.177 Y52.4 E56.26576
G1 X59.323 Y52.4 E57.36328
G1 X59.8 Y52.353 E57.4208
G1 X60.303 Y52.201 E57.48385
G1 X60.899 Y51.845 E57.56716
G1 X60.911 Y51.838 E57.56883
G1 X61.111 Y51.657 E57.60119
G1 X61.215 Y51.553 E57.61884
G1 X61.364 Y51.405 E57.64405
G1 X61.293 Y51.63 E57.64983
G1 X61.293 Y51.656
G1 X61.294 Y51.834 E57.66181
G1 X61.294 Y51.848 E57.66346
G1 X61.297 Y52.132 E57.69754
G1 X61.456 Y52.61 E57.75799
G1 X61.755 Y53.013 E57.8182
G1 X62.162 Y53.305 E57.87831
G1 X62.643 Y53.457 E57.93885
G1 X63.145 Y53.453 E57.99909
G1 X63.623 Y53.294 E58.05954
G1 X64.026 Y52.995 E58.11976
G1 X64.319 Y52.587 E58.18003
G1 X64.47 Y52.107 E58.24042
G1 X64.466 Y51.605 E58.30066
G1 X64.352 Y51.258 E58.34449
G1 X64.309 Y51.127 E58.36103
G1 X64.044 Y50.77 E58.41439
G1 X64.387 Y50.879 E58.42642
G1 X64.518 Y50.921 E58.44032
G1 X78.65 Y55.439 E60.22072
G1 X78.65 Y59.1 E60.66004
G0 F3600 X79.05 Y58.7
;TYPE:WALL-OUTER
G1 F1800 X85.2 Y58.7 E61.39804
G1 X85.2 Y61.3 E61.71004
G1 X79.05 Y61.3 E62.44804
G1 X79.05 Y64.853 E62.8744
G1 X63.436 Y69.844 E64.84147
G1 X63.044 Y69.924 E64.88948
G1 X62.649 Y69.915 E64.93689
G1 X62.273 Y69.824 E64.98332
G1 X61.914 Y69.648 E65.0313
G1 X61.602 Y69.397 E65.07935
G1 X60.841 Y68.638 E65.20832
G1 X60.516 Y68.37 E65.25887
G1 X60.136 Y68.166 E65.31063
G1 X59.722 Y68.041 E65.36252
G1 X59.303 Y68 E65.41304
G1 X50.197 Y68 E66.50576
G1 X49.778 Y68.041 E66.55628
G1 X49.36 Y68.168 E66.60871
G1 X48.828 Y68.485 E66.68302
G1 X48.655 Y68.641 E66.71098
G1 X47.89 Y69.404 E66.84063
G1 X47.587 Y69.648 E66.88732
G1 X47.239 Y69.82 E66.9339
G1 X46.862 Y69.914 E66.98052
G1 X46.469 Y69.924 E67.0277
G1 X46.083 Y69.851 E67.07484
G1 X37.95 Y67.352 E68.09583
G1 X37.951 Y52.648 E69.86031
G1 X46.083 Y50.149 E70.88119
G1 X46.469 Y50.076 E70.92833
G1 X46.862 Y50.086 E70.97551
G1 X47.239 Y50.18 E71.02213
G1 X47.587 Y50.352 E71.06871
G1 X47.897 Y50.602 E71.1165
G1 X48.659 Y51.362 E71.24565
G1 X48.984 Y51.63 E71.2962
G1 X49.364 Y51.834 E71.34795
G1 X49.778 Y51.959 E71.39985
G1 X50.197 Y52 E71.45037
G1 X59.303 Y52 E72.54309
G1 X59.722 Y51.959 E72.59361
G1 X60.14 Y51.832 E72.64603
G1 X60.672 Y51.515 E72.72035
G1 X60.836 Y51.367 E72.74686
G1 X61.611 Y50.595 E72.87812
G1 X61.914 Y50.352 E72.92473
G1 X62.273 Y50.176 E72.97271
G1 X62.649 Y50.085 E73.01913
G1 X63.044 Y50.076 E73.06655
G1 X63.436 Y50.156 E73.11456
G1 X79.05 Y55.147 E75.08163
G1 X79.05 Y58.7 E75.50799
G0 F3600 X79.25 Y58.7
G0 X79.25 Y59
G0 X76.251 Y57.11
G0 X75.165 Y56.61
G0 X73.824 Y56.45
G0 X73.884 Y56.744
G1 F1800 X73.308 Y56.863 E75.57857
G1 X72.763 Y57.081 E75.64901
G1 X72.265 Y57.393 E75.71953
G1 X71.832 Y57.79 E75.79002
G1 X71.476 Y58.257 E75.86049
G1 X71.21 Y58.78 E75.9309
G1 X71.04 Y59.343 E76.00147
G1 X70.975 Y59.927 E76.07198
G1 X71.015 Y60.512 E76.14235
G1 X71.158 Y61.082 E76.21287
G1 X71.401 Y61.617 E76.28338
G1 X71.735 Y62.1 E76.35385
G1 X72.15 Y62.515 E76.42428
G1 X72.633 Y62.849 E76.49474
G1 X73.168 Y63.092 E76.56526
G1 X73.738 Y63.235 E76.63578
G1 X74.323 Y63.275 E76.70614
G1 X74.907 Y63.21 E76.77665
G1 X75.47 Y63.04 E76.84722
G1 X75.993 Y62.774 E76.91764
G1 X76.46 Y62.418 E76.9881
G1 X76.857 Y61.985 E77.0586
G1 X77.169 Y61.487 E77.12912
G1 X77.387 Y60.942 E77.19955
G1 X77.506 Y60.366 E77.27013
G1 X77.518 Y59.779 E77.34059
G1 X77.427 Y59.2 E77.41092
G1 X77.233 Y58.645 E77.48147
G1 X76.943 Y58.135 E77.55187
G1 X76.566 Y57.684 E77.62241
G1 X76.115 Y57.307 E77.69295
G1 X75.605 Y57.017 E77.76335
G1 X75.05 Y56.823 E77.8339
G1 X74.471 Y56.732 E77.90424
G1 X73.884 Y56.744 E77.97469
G0 F3600 X73.689 Y56.784
G0 X73.629 Y56.49
G0 X64.235 Y51.221
G0 X63.949 Y51.314
G1 F1800 X63.725 Y51.012 E78.01981
G1 X63.419 Y50.793 E78.06497
G1 X63.06 Y50.68 E78.11013
G1 X62.684 Y50.683 E78.15525
G1 X62.328 Y50.801 E78.20026
G1 X62.026 Y51.025 E78.24538
G1 X61.807 Y51.33 E78.29044
G1 X61.693 Y51.69 E78.33575
G1 X61.696 Y52.066 E78.38087
G1 X61.815 Y52.423 E78.42603
G1 X62.039 Y52.724 E78.47105
G1 X62.344 Y52.943 E78.51611
G1 X62.703 Y53.057 E78.56131
G1 X63.079 Y53.054 E78.60643
G1 X63.436 Y52.935 E78.65159
G1 X63.738 Y52.711 E78.69671
G1 X63.957 Y52.406 E78.74177
G1 X64.07 Y52.047 E78.78693
G1 X64.067 Y51.671 E78.83205
G1 X63.949 Y51.314 E78.87717
G0 F3600 X63.83 Y51.154
G0 X63.702 Y50.902
G0 X64.305 Y51.632
G0 X62.839 Y61.556
G0 X62.472 Y62.319
G0 X62.259 Y62.109
G1 F1800 X62.515 Y61.848 E78.92104
