;FLAVOR:UltiGCode
;TIME:4928
;MATERIAL:4331
;MATERIAL2:0
;NOZZLE_DIAMETER:0.4
;MINX:16.412
;MINY:28.073
;MINZ:0.3
;MAXX:88.103
;MAXY:100.483
;MAXZ:19.9
;Generated with Cura_SteamEngine 4.7.1
M82 ;absolute extrusion mode
G0 F3000 Y50 ;avoid prime blob
G92 E0
G92 E0
G10
;LAYER_COUNT:197
;LAYER:0
M107
G0 F3600 X20.048 Y30.322 Z0.3
;TYPE:SKIRT
G11
G1 F1200 X20.507 Y30.044 E0.06439
G1 X21.002 Y29.837 E0.12878
G1 X21.522 Y29.706 E0.19313
G1 X22.165 Y29.65 E0.27058
G1 X22.652 Y29.643 E0.32903
G1 X24.306 Y29.643 E0.52751
G1 X25.006 Y29.653 E0.61152
G1 X25.509 Y29.696 E0.6721
G1 X25.835 Y29.76 E0.71196
G1 X26.872 Y30.015 E0.84011
G1 X29.523 Y30.626 E1.16657
G1 X32.161 Y31.158 E1.4895
G1 X34.893 Y31.626 E1.82212
G1 X37.589 Y32.011 E2.14892
G1 X40.304 Y32.32 E2.47682
G1 X43.02 Y32.551 E2.80392
G1 X45.717 Y32.705 E3.12809
G1 X48.48 Y32.784 E3.45978
G1 X51.175 Y32.784 E3.78318
G1 X53.942 Y32.707 E4.11535
G1 X56.631 Y32.555 E4.43855
G1 X59.351 Y32.325 E4.76611
G1 X62.067 Y32.016 E5.09413
G1 X64.775 Y31.631 E5.42236
G1 X67.439 Y31.176 E5.74667
G1 X70.085 Y30.646 E6.0705
G1 X72.79 Y30.025 E6.40354
G1 X75.428 Y29.338 E6.73066
G1 X78.049 Y28.577 E7.05817
G1 X78.726 Y28.366 E7.14326
G1 X78.926 Y28.31 E7.16819
G1 X79.588 Y28.19 E7.24892
G1 X80.117 Y28.151 E7.31257
G1 X81.142 Y28.097 E7.43574
G1 X81.778 Y28.073 E7.51212
G1 X82.314 Y28.092 E7.57648
G1 X82.996 Y28.236 E7.66012
G1 X83.691 Y28.455 E7.74757
G1 X84.097 Y28.597 E7.79918
G1 X84.587 Y28.814 E7.86349
G1 X85.019 Y29.082 E7.92449
G1 X85.111 Y29.146 E7.93794
G1 X85.646 Y29.529 E8.0169
G1 X86.208 Y29.951 E8.10123
G1 X86.611 Y30.304 E8.16552
G1 X86.958 Y30.713 E8.22989
G1 X87.24 Y31.169 E8.29422
G1 X87.487 Y31.773 E8.37253
G1 X87.78 Y32.727 E8.49229
G1 X87.817 Y32.853 E8.50805
G1 X87.983 Y33.473 E8.58507
G1 X88.082 Y34 E8.64941
G1 X88.103 Y34.536 E8.71378
G1 X88.043 Y35.069 E8.77815
G1 X87.919 Y35.558 E8.83868
G1 X87.803 Y35.93 E8.88544
G1 X87.024 Y38.56 E9.2146
G1 X86.333 Y41.164 E9.53789
G1 X85.71 Y43.807 E9.86374
G1 X85.154 Y46.507 E10.19454
G1 X84.685 Y49.167 E10.51867
G1 X84.282 Y51.9 E10.85017
G1 X83.961 Y54.61 E11.17765
G1 X83.718 Y57.302 E11.502
G1 X83.551 Y60.023 E11.82913
G1 X83.46 Y62.753 E12.15692
G1 X83.446 Y65.485 E12.48476
G1 X83.51 Y68.213 E12.81221
G1 X83.651 Y70.941 E13.14001
G1 X83.867 Y73.633 E13.46409
G1 X84.16 Y76.339 E13.7907
G1 X84.537 Y79.082 E14.12296
G1 X84.98 Y81.745 E14.44691
G1 X85.504 Y84.424 E14.77448
G1 X86.109 Y87.11 E15.10488
G1 X86.11 Y87.12 E15.10608
G1 X86.773 Y89.719 E15.42795
G1 X86.813 Y89.859 E15.44542
G1 X87.12 Y91.008 E15.58814
G1 X87.219 Y91.535 E15.65249
G1 X87.247 Y92.042 E15.71342
G1 X87.252 Y92.451 E15.7625
G1 X87.252 Y94.106 E15.9611
G1 X87.242 Y94.808 E16.04535
G1 X87.194 Y95.342 E16.10969
G1 X87.068 Y95.864 E16.17413
G1 X86.865 Y96.36 E16.23844
G1 X86.591 Y96.821 E16.30279
G1 X86.14 Y97.357 E16.38685
G1 X85.866 Y97.64 E16.43412
G1 X84.526 Y98.979 E16.66144
G1 X84.032 Y99.458 E16.74401
G1 X83.62 Y99.801 E16.80835
G1 X83.162 Y100.08 E16.8727
G1 X82.668 Y100.287 E16.93697
G1 X82.148 Y100.419 E17.00135
G1 X81.648 Y100.471 E17.06168
G1 X81.013 Y100.483 E17.13789
G1 X79.358 Y100.483 E17.33649
G1 X78.656 Y100.473 E17.42074
G1 X78.122 Y100.425 E17.48508
G1 X77.6 Y100.299 E17.54952
G1 X77.104 Y100.096 E17.61383
G1 X76.643 Y99.822 E17.67818
G1 X76.107 Y99.371 E17.76224
G1 X75.814 Y99.087 E17.81121
G1 X17.947 Y41.22 E27.63156
G1 X17.446 Y40.705 E27.71778
G1 X17.101 Y40.295 E27.78208
G1 X16.821 Y39.837 E27.8465
G1 X16.612 Y39.343 E27.91087
G1 X16.479 Y38.824 E27.97516
G1 X16.42 Y38.182 E28.05252
G1 X16.412 Y37.675 E28.11337
G1 X16.412 Y36.021 E28.31185
G1 X16.422 Y35.319 E28.3961
G1 X16.47 Y34.785 E28.46044
G1 X16.596 Y34.263 E28.52488
G1 X16.799 Y33.767 E28.58919
G1 X17.073 Y33.306 E28.65354
G1 X17.524 Y32.77 E28.7376
G1 X17.797 Y32.488 E28.7847
G1 X19.149 Y31.136 E29.01414
G1 X19.636 Y30.665 E29.09544
G1 X20.048 Y30.322 E29.15978
G0 F3600 X20.304 Y30.631
G1 F1200 X20.74 Y30.375 E29.22045
G1 X21.211 Y30.191 E29.28113
G1 X21.705 Y30.083 E29.34181
G1 X22.248 Y30.048 E29.4071
G1 X22.657 Y30.043 E29.45619
G1 X24.301 Y30.043 E29.65347
G1 X25.001 Y30.053 E29.73748
G1 X25.739 Y30.149 E29.82678
G1 X26.754 Y30.399 E29.95222
G1 X29.425 Y31.014 E30.28113
G1 X32.095 Y31.553 E30.60799
G1 X32.11 Y31.554 E30.6098
G1 X34.84 Y32.023 E30.94219
G1 X37.554 Y32.41 E31.27117
G1 X40.259 Y32.718 E31.59787
G1 X42.967 Y32.948 E31.924
G1 X45.717 Y33.105 E32.25453
G1 X48.469 Y33.184 E32.58491
G1 X51.187 Y33.184 E32.91107
G1 X53.938 Y33.107 E33.24132
G1 X56.654 Y32.954 E33.56776
G1 X59.394 Y32.722 E33.89773
G1 X62.136 Y32.411 E34.22888
G1 X64.822 Y32.029 E34.55445
G1 X67.513 Y31.568 E34.88207
G1 X70.181 Y31.035 E35.20856
G1 X72.883 Y30.414 E35.54125
G1 X75.536 Y29.723 E35.87023
G1 X78.183 Y28.955 E36.20097
G1 X78.74 Y28.78 E36.27103
G1 X79.034 Y28.696 E36.30772
G1 X79.622 Y28.589 E36.37944
G1 X80.141 Y28.55 E36.4419
G1 X81.157 Y28.496 E36.56399
G1 X81.793 Y28.472 E36.64036
G1 X82.298 Y28.493 E36.70102
G1 X82.876 Y28.618 E36.77198
G1 X83.571 Y28.837 E36.85942
G1 X83.963 Y28.974 E36.90925
G1 X84.424 Y29.181 E36.96989
G1 X84.879 Y29.471 E37.03464
G1 X85.346 Y29.805 E37.10354
G1 X85.967 Y30.271 E37.19671
G1 X86.346 Y30.606 E37.25741
G1 X86.668 Y30.996 E37.3181
G1 X86.924 Y31.432 E37.37877
G1 X87.105 Y31.891 E37.43798
G1 X87.398 Y32.845 E37.55773
G1 X87.43 Y32.956 E37.5716
G1 X87.596 Y33.576 E37.64862
G1 X87.688 Y34.074 E37.70939
G1 X87.7 Y34.579 E37.77
G1 X87.586 Y35.268 E37.85381
G1 X87.421 Y35.811 E37.92191
G1 X86.647 Y38.426 E38.24917
G1 X85.945 Y41.067 E38.57709
G1 X85.318 Y43.726 E38.90492
G1 X84.762 Y46.428 E39.23596
G1 X84.289 Y49.11 E39.56276
G1 X83.888 Y51.827 E39.89234
G1 X83.564 Y54.564 E40.22307
G1 X83.319 Y57.275 E40.54971
G1 X83.15 Y60.023 E40.8801
G1 X83.06 Y62.737 E41.20596
G1 X83.046 Y65.492 E41.53656
G1 X83.11 Y68.209 E41.86269
G1 X83.252 Y70.958 E42.19301
G1 X83.472 Y73.707 E42.52395
G1 X83.765 Y76.405 E42.84961
G1 X84.135 Y79.097 E43.17569
G1 X84.587 Y81.816 E43.50644
G1 X85.115 Y84.517 E43.8367
G1 X85.72 Y87.203 E44.16709
G1 X86.392 Y89.84 E44.49365
G1 X86.427 Y89.962 E44.50888
G1 X86.734 Y91.111 E44.65159
G1 X86.84 Y91.83 E44.73881
G1 X86.852 Y92.456 E44.81394
G1 X86.852 Y94.101 E45.01134
G1 X86.842 Y94.803 E45.09559
G1 X86.795 Y95.306 E45.15621
G1 X86.669 Y95.796 E45.21693
G1 X86.467 Y96.259 E45.27754
G1 X86.196 Y96.686 E45.33823
G1 X85.847 Y97.085 E45.40184
G1 X85.583 Y97.357 E45.44733
G1 X84.248 Y98.691 E45.6738
G1 X83.754 Y99.17 E45.75637
G1 X83.364 Y99.493 E45.81714
G1 X82.928 Y99.749 E45.87781
G1 X82.458 Y99.934 E45.93842
G1 X81.964 Y100.043 E45.99913
G1 X81.417 Y100.078 E46.0649
G1 X81.008 Y100.083 E46.11399
G1 X79.363 Y100.083 E46.31139
G1 X78.661 Y100.073 E46.39564
G1 X78.158 Y100.026 E46.45626
G1 X77.668 Y99.9 E46.51697
G1 X77.205 Y99.698 E46.57759
G1 X76.778 Y99.427 E46.63828
G1 X76.379 Y99.078 E46.70189
G1 X76.097 Y98.804 E46.74907
G1 X18.23 Y40.937 E56.56943
G1 X17.732 Y40.426 E56.65505
G1 X17.409 Y40.037 E56.71573
G1 X17.151 Y39.603 E56.77631
G1 X16.964 Y39.133 E56.83701
G1 X16.854 Y38.639 E56.89775
G1 X16.817 Y38.079 E56.96509
G1 X16.812 Y37.67 E57.01418
G1 X16.812 Y36.026 E57.21146
G1 X16.822 Y35.324 E57.2957
G1 X16.869 Y34.821 E57.35633
G1 X16.995 Y34.331 E57.41704
G1 X17.197 Y33.868 E57.47766
G1 X17.468 Y33.441 E57.53835
G1 X17.817 Y33.042 E57.60196
G1 X18.08 Y32.771 E57.64727
G1 X19.427 Y31.424 E57.87587
G1 X19.914 Y30.953 E57.95717
G1 X20.304 Y30.631 E58.01786
G0 F3600 X68.73 Y47.224
G1 F1200 X69.248 Y47.237 E58.08004
G1 X69.654 Y47.154 E58.12977
G1 X69.527 Y47.608 E58.18634
G1 X69.487 Y48.07 E58.24198
G1 X69.269 Y48.01 E58.26912
G1 X68.83 Y47.968 E58.32204
G1 X68.765 Y47.325 E58.39959
G1 X68.73 Y47.224 E58.41242
G0 F3600 X68.33 Y47.259
G1 F1200 X68.161 Y46.875 E58.46276
G1 X68.001 Y46.644 E58.49648
G1 X68.863 Y46.839 E58.60254
G1 X69.282 Y46.832 E58.65282
G1 X70.135 Y46.599 E58.75893
G1 X70.507 Y46.435 E58.80772
G1 X70.187 Y46.958 E58.88129
G1 X70.011 Y47.338 E58.93155
G1 X69.91 Y47.745 E58.98187
G1 X69.888 Y48.164 E59.03222
G1 X69.968 Y48.665 E59.0931
G1 X69.985 Y48.726 E59.1007
G1 X69.768 Y48.592 E59.1313
G1 X69.376 Y48.444 E59.18159
G1 X68.963 Y48.373 E59.23187
G1 X68.383 Y48.417 E59.30167
G1 X68.436 Y48.087 E59.34178
G1 X68.422 Y47.668 E59.39209
G1 X68.33 Y47.259 E59.44239
G0 F3600 X67.569 Y47.505
G1 F1200 X67.426 Y47.203 E59.48249
G1 X67.216 Y46.943 E59.5226
G1 X66.951 Y46.741 E59.56258
G1 X66.645 Y46.607 E59.60267
G1 X66.422 Y46.559 E59.63004
G1 X64.779 Y46.343 E59.8289
G1 X64.532 Y46.333 E59.85856
G1 X62.706 Y46.418 E60.07792
G1 X62.449 Y46.454 E60.10906
G1 X60.866 Y46.828 E60.30425
G1 X59.199 Y47.141 E60.50779
G1 X59.127 Y47.156 E60.51661
G1 X57.526 Y47.544 E60.71429
G1 X55.883 Y47.852 E60.91489
G1 X55.812 Y47.867 E60.9236
G1 X54.214 Y48.253 E61.12087
G1 X54.523 Y48.145 E61.16015
G1 X56.098 Y47.708 E61.35629
G1 X56.185 Y47.68 E61.36726
G1 X57.735 Y47.138 E61.5643
G1 X59.318 Y46.698 E61.76146
G1 X59.405 Y46.671 E61.77239
G1 X60.969 Y46.124 E61.97122
G1 X62.457 Y45.731 E62.1559
G1 X64.175 Y45.481 E62.36424
G1 X65.662 Y45.489 E62.54268
G1 X67.107 Y45.569 E62.71634
G1 X68.662 Y45.996 E62.90985
G1 X68.993 Y46.045 E62.95
G1 X69.473 Y45.975 E63.00821
G1 X70.186 Y45.697 E63.10005
G1 X70.446 Y45.487 E63.14015
G1 X70.645 Y45.23 E63.17916
G1 X71.503 Y43.799 E63.37938
G1 X72.371 Y42.394 E63.57756
G1 X72.455 Y42.236 E63.59903
G1 X73.197 Y40.599 E63.81471
G1 X73.246 Y40.475 E63.83071
G1 X73.865 Y38.669 E64.05981
G1 X74.705 Y37.473 E64.23519
G1 X75.627 Y36.3 E64.41422
G1 X77.7 Y34.434 E64.74892
G1 X78.959 Y33.649 E64.92696
G1 X80.192 Y33.154 E65.0864
G1 X81.749 Y33.071 E65.27351
G1 X82.246 Y33.239 E65.33646
G1 X82.856 Y33.683 E65.427
G1 X83.053 Y34.377 E65.51357
G1 X82.877 Y34.918 E65.58184
G1 X82.436 Y35.239 E65.64729
G1 X81.82 Y35.239 E65.72121
G1 X81.197 Y34.921 E65.80515
G1 X80.868 Y34.865 E65.8452
G1 X80.535 Y34.888 E65.88525
G1 X80.062 Y35.071 E65.94611
G1 X78.584 Y35.982 E66.15446
G1 X78.282 Y36.233 E66.20158
G1 X77.181 Y37.446 E66.39816
G1 X77.119 Y37.52 E66.40974
G1 X76.087 Y38.828 E66.60967
G1 X75.932 Y39.073 E66.64446
G1 X74.924 Y41.107 E66.91687
G1 X74.888 Y41.184 E66.92707
G1 X74.176 Y42.87 E67.14669
G1 X73.368 Y44.164 E67.32976
G1 X72.307 Y45.393 E67.52459
G1 X72.254 Y45.458 E67.53466
G1 X71.183 Y46.86 E67.74637
G1 X70.878 Y47.362 E67.81686
G1 X70.744 Y47.669 E67.85705
G1 X70.688 Y47.998 E67.8971
G1 X70.738 Y48.448 E67.95143
G1 X71.281 Y50.38 E68.19226
G1 X71.47 Y51.824 E68.36702
G1 X71.36 Y53.329 E68.5481
G1 X70.924 Y55.064 E68.76277
G1 X68.928 Y61.481 E69.5692
G1 X70.051 Y56.258 E70.21029
G1 X70.426 Y54.464 E70.43022
G1 X70.455 Y54.226 E70.45899
G1 X70.512 Y52.562 E70.65879
G1 X70.495 Y52.29 E70.69149
G1 X70.18 Y50.343 E70.92817
G1 X70.088 Y50.022 E70.96824
G1 X69.922 Y49.732 E71.00834
G1 X69.692 Y49.49 E71.0484
G1 X69.412 Y49.309 E71.08841
G1 X69.096 Y49.199 E71.12856
G1 X68.763 Y49.167 E71.16871
G1 X68.433 Y49.215 E71.20872
G1 X68.123 Y49.34 E71.24883
G1 X67.825 Y49.561 E71.29335
G1 X66.473 Y50.87 E71.51918
G1 X65.076 Y52.084 E71.74127
G1 X63.642 Y53.403 E71.97507
G1 X62.345 Y54.559 E72.18356
G1 X62.776 Y54.074 E72.26142
G1 X64.03 Y52.686 E72.48589
G1 X66.55 Y49.874 E72.939
G1 X66.633 Y49.771 E72.95488
G1 X67.366 Y48.778 E73.10299
G1 X67.531 Y48.488 E73.14302
G1 X67.623 Y48.167 E73.1831
G1 X67.635 Y47.833 E73.2232
G1 X67.569 Y47.505 E73.26335
G0 F3600 X67.217 Y47.735
G1 F1200 X67.119 Y47.471 E73.29714
G1 X66.951 Y47.244 E73.33103
G1 X66.727 Y47.073 E73.36485
G1 X66.37 Y46.956 E73.40993
G1 X64.727 Y46.74 E73.60879
G1 X64.551 Y46.732 E73.62993
G1 X62.725 Y46.817 E73.84929
G1 X62.541 Y46.843 E73.87159
G1 X60.945 Y47.22 E74.06838
G1 X59.273 Y47.534 E74.27252
G1 X59.221 Y47.545 E74.2789
G1 X57.616 Y47.934 E74.47708
G1 X55.957 Y48.245 E74.67963
G1 X55.906 Y48.256 E74.68589
G1 X54.306 Y48.643 E74.88342
G1 X52.639 Y48.956 E75.08696
G1 X51.02 Y49.345 E75.28677
G1 X49.339 Y49.552 E75.49001
G1 X49.28 Y49.561 E75.49717
G1 X48.607 Y49.685 E75.57929
G1 X49.533 Y49.242 E75.70247
G1 X51.044 Y48.841 E75.89007
G1 X52.782 Y48.328 E76.10753
G1 X52.829 Y48.313 E76.11345
G1 X54.397 Y47.766 E76.31273
G1 X55.991 Y47.323 E76.51126
G1 X56.053 Y47.303 E76.51907
G1 X57.617 Y46.755 E76.71794
G1 X59.211 Y46.313 E76.91644
G1 X59.273 Y46.293 E76.92426
G1 X60.838 Y45.746 E77.1232
G1 X62.377 Y45.339 E77.31423
G1 X64.152 Y45.08 E77.52948
G1 X65.686 Y45.089 E77.71356
G1 X67.17 Y45.171 E77.89192
G1 X68.768 Y45.61 E78.09078
G1 X69.048 Y45.646 E78.12466
G1 X69.347 Y45.595 E78.16106
G1 X70.011 Y45.334 E78.24667
G1 X70.302 Y45.024 E78.29769
G1 X71.163 Y43.589 E78.49851
G1 X72.031 Y42.184 E78.69669
G1 X72.091 Y42.071 E78.71204
G1 X72.833 Y40.434 E78.92772
G1 X72.868 Y40.345 E78.9392
G1 X73.506 Y38.482 E79.1755
G1 X74.38 Y37.239 E79.35784
G1 X75.335 Y36.023 E79.54339
G1 X77.454 Y34.116 E79.88548
G1 X78.777 Y33.291 E80.07258
G1 X80.104 Y32.758 E80.24418
G1 X81.805 Y32.668 E80.44859
G1 X82.432 Y32.879 E80.52797
G1 X83.203 Y33.441 E80.64246
G1 X83.471 Y34.384 E80.7601
G1 X83.216 Y35.166 E80.85881
G1 X82.567 Y35.639 E80.95518
G1 X81.711 Y35.639 E81.0579
G1 X81.041 Y35.293 E81.14838
G1 X80.76 Y35.264 E81.18228
G1 X80.482 Y35.314 E81.21618
G1 X80.272 Y35.412 E81.24399
G1 X78.794 Y36.323 E81.45233
G1 X78.579 Y36.502 E81.4859
G1 X77.478 Y37.715 E81.68248
G1 X77.433 Y37.768 E81.69083
G1 X76.401 Y39.076 E81.89076
G1 X76.29 Y39.251 E81.91563
G1 X75.282 Y41.285 E82.18803
G1 X75.257 Y41.34 E82.19528
G1 X74.532 Y43.056 E82.41883
G1 X73.692 Y44.402 E82.60922
G1 X72.61 Y45.655 E82.80788
G1 X72.572 Y45.701 E82.81504
G1 X71.501 Y47.103 E83.02675
G1 X71.223 Y47.564 E83.09136
G1 X71.116 Y47.825 E83.1252
G1 X71.087 Y48.106 E83.1591
G1 X71.123 Y48.34 E83.18751
G1 X71.673 Y50.297 E83.43145
G1 X71.872 Y51.817 E83.61541
G1 X71.757 Y53.391 E83.80479
G1 X71.31 Y55.169 E84.02479
G1 X67.928 Y66.039 E85.39087
G1 X67.911 Y66.1 E85.39847
G1 X67.464 Y67.938 E85.62546
G1 X67.06 Y68.435 E85.70231
G1 X67.024 Y68.325 E85.7162
G1 X67.352 Y67.002 E85.87977
G1 X67.704 Y65.265 E86.09245
G1 X69.66 Y56.177 E87.20798
G1 X70.035 Y54.383 E87.42791
G1 X70.055 Y54.212 E87.44857
G1 X70.112 Y52.548 E87.64837
G1 X70.1 Y52.354 E87.67169
G1 X69.785 Y50.407 E87.90837
G1 X69.701 Y50.138 E87.94219
G1 X69.545 Y49.903 E87.97604
G1 X69.33 Y49.72 E88.00992
G1 X69.073 Y49.605 E88.04371
G1 X68.793 Y49.567 E88.07761
G1 X68.514 Y49.608 E88.11145
G1 X68.257 Y49.726 E88.14539
G1 X68.103 Y49.848 E88.16896
G1 X66.739 Y51.167 E88.39666
G1 X65.347 Y52.378 E88.61806
G1 X63.925 Y53.686 E88.84991
G1 X60.994 Y56.3 E89.32119
G1 X59.552 Y57.594 E89.55369
G1 X58.081 Y58.925 E89.79174
G1 X56.867 Y60.015 E89.98752
G1 X57.317 Y59.578 E90.0628
G1 X57.371 Y59.521 E90.07222
G1 X58.607 Y58.116 E90.29677
G1 X61.244 Y55.197 E90.76882
G1 X62.485 Y53.799 E90.99314
G1 X63.736 Y52.414 E91.21711
G1 X66.252 Y49.607 E91.66945
G1 X66.312 Y49.534 E91.68079
G1 X67.045 Y48.541 E91.8289
G1 X67.178 Y48.293 E91.86267
G1 X67.238 Y48.017 E91.89656
G1 X67.217 Y47.735 E91.9305
G0 F3600 X68.93 Y46.443
G1 F1200 X69.309 Y46.425 E91.97603
G1 X70.009 Y46.219 E92.06359
G1 X70.355 Y46.063 E92.10913
G1 X70.66 Y45.838 E92.15462
G1 X70.988 Y45.436 E92.21688
G1 X71.856 Y43.989 E92.41936
G1 X72.711 Y42.604 E92.61468
G1 X72.819 Y42.401 E92.64227
G1 X73.561 Y40.764 E92.85795
G1 X73.625 Y40.604 E92.87863
G1 X74.226 Y38.85 E93.10112
G1 X75.029 Y37.707 E93.26875
G1 X75.92 Y36.573 E93.44181
G1 X77.942 Y34.754 E93.76818
G1 X79.138 Y34.008 E93.93733
G1 X80.28 Y33.549 E94.08502
G1 X81.693 Y33.474 E94.25482
G1 X82.06 Y33.598 E94.30131
G1 X82.509 Y33.925 E94.36796
G1 X82.634 Y34.368 E94.4232
G1 X82.536 Y34.671 E94.46141
G1 X82.306 Y34.839 E94.49559
G1 X81.928 Y34.839 E94.54095
G1 X81.36 Y34.553 E94.61727
G1 X80.99 Y34.473 E94.66269
G1 X80.611 Y34.473 E94.70817
G1 X80.24 Y34.551 E94.75367
G1 X79.853 Y34.731 E94.80488
G1 X78.375 Y35.642 E95.01323
G1 X77.986 Y35.964 E95.07382
G1 X76.885 Y37.177 E95.2704
G1 X76.805 Y37.272 E95.28531
G1 X75.773 Y38.58 E95.48524
G1 X75.573 Y38.896 E95.53012
G1 X74.565 Y40.93 E95.80252
G1 X74.52 Y41.028 E95.81547
G1 X73.82 Y42.685 E96.03132
G1 X73.043 Y43.93 E96.20743
G1 X72.005 Y45.132 E96.39801
G1 X71.937 Y45.215 E96.41088
