;FLAVOR:UltiGCode
;TIME:1925
;MATERIAL:1645
;MATERIAL2:0
;NOZZLE_DIAMETER:0.4
;MINX:31.663
;MINY:35.663
;MINZ:0.3
;MAXX:90.339
;MAXY:82.334
;MAXZ:2.5
;Generated with Cura_SteamEngine 4.7.1
M82 ;absolute extrusion mode
G0 F3000 Y50 ;avoid prime blob
G92 E0
G92 E0
G10
;LAYER_COUNT:23
;LAYER:0
M107
G0 F3600 X39.925 Y38.29 Z0.3
;TYPE:SKIRT
G11
G1 F1200 X40.406 Y37.821 E0.08062
G1 X41.006 Y37.321 E0.17434
G1 X41.678 Y36.872 E0.27132
G1 X42.129 Y36.617 E0.3335
G1 X42.675 Y36.355 E0.40617
G1 X43.28 Y36.121 E0.48401
G1 X44.038 Y35.896 E0.57889
G1 X44.806 Y35.749 E0.67272
G1 X45.409 Y35.686 E0.74548
G1 X45.95 Y35.663 E0.81046
G1 X46.253 Y35.665 E0.84682
G1 X47.356 Y35.719 E0.97934
G1 X48.729 Y35.8 E1.14438
G1 X51.424 Y35.883 E1.46794
G1 X54.151 Y35.889 E1.79518
G1 X56.918 Y35.816 E2.12733
G1 X58.927 Y35.715 E2.36872
G1 X59.538 Y35.678 E2.44217
G1 X60.253 Y35.665 E2.52799
G1 X61.356 Y35.719 E2.6605
G1 X62.729 Y35.8 E2.82555
G1 X65.424 Y35.883 E3.1491
G1 X68.151 Y35.889 E3.47634
G1 X70.918 Y35.816 E3.8085
G1 X72.927 Y35.715 E4.04988
G1 X73.538 Y35.678 E4.12334
G1 X73.946 Y35.663 E4.17233
G1 X74.476 Y35.677 E4.23595
G1 X75.071 Y35.732 E4.30766
G1 X75.728 Y35.846 E4.38768
G1 X76.489 Y36.041 E4.48195
G1 X77.233 Y36.314 E4.57705
G1 X77.735 Y36.547 E4.64346
G1 X78.25 Y36.828 E4.71386
G1 X78.813 Y37.194 E4.79444
G1 X79.406 Y37.651 E4.88428
G1 X80.005 Y38.216 E4.98309
G1 X80.349 Y38.595 E5.04451
G1 X80.728 Y39.076 E5.118
G1 X81.045 Y39.544 E5.18583
G1 X81.329 Y40.027 E5.25307
G1 X81.578 Y40.526 E5.31999
G1 X81.8 Y41.056 E5.38894
G1 X82.012 Y41.698 E5.47007
G1 X82.202 Y42.496 E5.56851
G1 X82.251 Y42.82 E5.60783
G1 X82.382 Y43.898 E5.73814
G1 X82.748 Y46.601 E6.06546
G1 X83.187 Y49.268 E6.38981
G1 X83.709 Y51.968 E6.71981
G1 X84.308 Y54.653 E7.04993
G1 X84.958 Y57.223 E7.36804
G1 X85.715 Y59.896 E7.70142
G1 X86.543 Y62.531 E8.03286
G1 X87.419 Y65.062 E8.35426
G1 X88.389 Y67.633 E8.684
G1 X89.268 Y69.735 E8.95741
G1 X89.317 Y69.881 E8.97589
G1 X89.799 Y71.053 E9.12796
G1 X90.012 Y71.696 E9.20924
G1 X90.199 Y72.477 E9.30561
G1 X90.302 Y73.238 E9.39777
G1 X90.339 Y73.936 E9.48164
G1 X90.321 Y74.485 E9.54756
G1 X90.252 Y75.199 E9.63364
G1 X90.082 Y76.044 E9.73707
G1 X89.931 Y76.566 E9.80228
G1 X89.746 Y77.081 E9.86794
G1 X89.46 Y77.72 E9.95195
G1 X89.092 Y78.387 E10.04337
G1 X88.635 Y79.049 E10.1399
G1 X88.232 Y79.537 E10.21585
G1 X87.646 Y80.137 E10.31649
G1 X87.022 Y80.654 E10.41373
G1 X86.489 Y81.024 E10.49159
G1 X85.804 Y81.421 E10.5866
G1 X85.066 Y81.753 E10.68371
G1 X84.567 Y81.932 E10.74732
G1 X84.003 Y82.093 E10.81771
G1 X83.475 Y82.205 E10.88248
G1 X82.884 Y82.29 E10.95413
G1 X82.349 Y82.329 E11.0185
G1 X81.733 Y82.333 E11.09242
G1 X81.541 Y82.328 E11.11547
G1 X80.139 Y82.253 E11.28395
G1 X77.431 Y82.147 E11.60915
G1 X74.992 Y82.116 E11.90186
G1 X72.24 Y82.155 E12.23213
G1 X69.91 Y82.249 E12.51196
G1 X68.429 Y82.327 E12.68993
G1 X67.805 Y82.334 E12.76481
G1 X67.54 Y82.328 E12.79662
G1 X66.139 Y82.253 E12.96498
G1 X63.431 Y82.147 E13.29019
G1 X60.992 Y82.116 E13.58289
G1 X58.24 Y82.155 E13.91316
G1 X55.91 Y82.249 E14.19299
G1 X54.429 Y82.327 E14.37096
G1 X53.805 Y82.334 E14.44584
G1 X53.54 Y82.328 E14.47765
G1 X52.139 Y82.253 E14.64601
G1 X49.431 Y82.147 E14.97122
G1 X46.992 Y82.116 E15.26392
G1 X44.24 Y82.155 E15.5942
G1 X41.91 Y82.249 E15.87402
G1 X40.429 Y82.327 E16.05199
G1 X39.805 Y82.334 E16.12688
G1 X39.251 Y82.302 E16.19347
G1 X38.632 Y82.224 E16.26833
G1 X38.098 Y82.116 E16.33371
G1 X37.573 Y81.975 E16.39894
G1 X36.899 Y81.738 E16.48468
G1 X36.172 Y81.408 E16.58049
G1 X35.513 Y81.026 E16.67189
G1 X35.054 Y80.71 E16.73876
G1 X34.613 Y80.362 E16.80617
G1 X34.116 Y79.904 E16.88728
G1 X33.575 Y79.315 E16.98325
G1 X33.114 Y78.7 E17.07548
G1 X32.762 Y78.135 E17.15536
G1 X32.383 Y77.393 E17.25534
G1 X32.107 Y76.688 E17.34619
G1 X31.94 Y76.126 E17.41655
G1 X31.816 Y75.585 E17.48315
G1 X31.728 Y75.029 E17.5507
G1 X31.677 Y74.475 E17.61746
G1 X31.663 Y73.969 E17.67821
G1 X31.687 Y73.369 E17.75027
G1 X31.749 Y72.813 E17.8174
G1 X31.853 Y72.231 E17.88835
G1 X32.024 Y71.575 E17.9697
G1 X32.282 Y70.793 E18.06851
G1 X32.97 Y68.8 E18.32152
G1 X33.782 Y66.21 E18.64724
G1 X34.52 Y63.601 E18.9726
G1 X35.199 Y60.91 E19.30564
G1 X35.779 Y58.317 E19.62449
G1 X35.78 Y58.306 E19.62582
G1 X36.299 Y55.614 E19.95481
G1 X36.744 Y52.903 E20.28448
G1 X37.108 Y50.204 E20.61129
G1 X37.397 Y47.487 E20.93917
G1 X37.606 Y44.795 E21.26318
G1 X37.681 Y43.426 E21.42771
G1 X37.746 Y42.824 E21.50037
G1 X37.853 Y42.231 E21.57268
G1 X38.025 Y41.571 E21.65452
G1 X38.296 Y40.811 E21.75135
G1 X38.611 Y40.138 E21.84052
G1 X38.88 Y39.663 E21.90602
G1 X39.215 Y39.156 E21.97894
G1 X39.555 Y38.713 E22.04596
G1 X39.925 Y38.29 E22.11339
G0 F3600 X40.224 Y38.555
G1 F1200 X40.666 Y38.124 E22.18748
G1 X41.241 Y37.645 E22.27728
G1 X41.895 Y37.207 E22.37174
G1 X42.458 Y36.899 E22.44874
G1 X43.079 Y36.618 E22.53054
G1 X43.842 Y36.362 E22.62711
G1 X44.338 Y36.239 E22.68844
G1 X44.875 Y36.143 E22.7539
G1 X45.44 Y36.084 E22.82207
G1 X45.964 Y36.063 E22.885
G1 X46.234 Y36.065 E22.9174
G1 X47.333 Y36.119 E23.04944
G1 X48.695 Y36.199 E23.21316
G1 X51.41 Y36.283 E23.53912
G1 X54.16 Y36.289 E23.86912
G1 X56.907 Y36.217 E24.19887
G1 X58.965 Y36.113 E24.44615
G1 X59.476 Y36.082 E24.50758
G1 X60.234 Y36.065 E24.59856
G1 X61.333 Y36.119 E24.7306
G1 X62.695 Y36.199 E24.89432
G1 X65.41 Y36.283 E25.22028
G1 X68.16 Y36.289 E25.55028
G1 X70.907 Y36.217 E25.88003
G1 X72.965 Y36.113 E26.12731
G1 X73.552 Y36.078 E26.19787
G1 X74.25 Y36.066 E26.28164
G1 X75.032 Y36.13 E26.3758
G1 X75.636 Y36.235 E26.44936
G1 X76.362 Y36.42 E26.53927
G1 X77.09 Y36.688 E26.63236
G1 X77.556 Y36.904 E26.694
G1 X78.056 Y37.178 E26.76241
G1 X78.574 Y37.515 E26.83657
G1 X79.142 Y37.952 E26.92257
G1 X79.725 Y38.502 E27.01875
G1 X80.153 Y38.987 E27.09637
G1 X80.58 Y39.56 E27.18212
G1 X80.983 Y40.228 E27.27574
G1 X81.215 Y40.695 E27.33831
G1 X81.43 Y41.208 E27.40506
G1 X81.625 Y41.799 E27.47974
G1 X81.807 Y42.558 E27.57341
G1 X81.854 Y42.868 E27.61103
G1 X81.985 Y43.946 E27.74134
G1 X82.351 Y46.648 E28.06854
G1 X82.798 Y49.365 E28.39897
G1 X83.32 Y52.066 E28.72908
G1 X83.916 Y54.733 E29.05702
G1 X84.571 Y57.324 E29.37772
G1 X85.335 Y60.02 E29.71398
G1 X86.159 Y62.645 E30.04413
G1 X87.042 Y65.198 E30.3683
G1 X88.021 Y67.791 E30.7009
G1 X88.898 Y69.889 E30.97377
G1 X88.943 Y70.025 E30.99096
G1 X89.429 Y71.206 E31.14421
G1 X89.625 Y71.797 E31.21893
G1 X89.804 Y72.541 E31.31076
G1 X89.905 Y73.287 E31.40109
G1 X89.939 Y73.944 E31.48004
G1 X89.923 Y74.453 E31.54115
G1 X89.857 Y75.134 E31.62325
G1 X89.692 Y75.957 E31.72398
G1 X89.55 Y76.446 E31.78508
G1 X89.371 Y76.944 E31.84858
G1 X89.106 Y77.532 E31.92598
G1 X88.755 Y78.171 E32.01347
G1 X88.31 Y78.816 E32.1075
G1 X87.932 Y79.272 E32.17858
G1 X87.382 Y79.836 E32.27311
G1 X86.771 Y80.343 E32.36838
G1 X86.282 Y80.682 E32.43979
G1 X85.629 Y81.061 E32.53039
G1 X84.907 Y81.386 E32.6254
G1 X84.32 Y81.588 E32.69989
G1 X83.61 Y81.773 E32.78794
G1 X82.829 Y81.894 E32.88278
G1 X82.189 Y81.933 E32.95972
G1 X81.562 Y81.928 E33.03496
G1 X80.205 Y81.856 E33.19803
G1 X77.414 Y81.746 E33.53321
G1 X74.991 Y81.716 E33.82399
G1 X72.219 Y81.755 E34.15667
G1 X69.904 Y81.849 E34.4347
G1 X68.408 Y81.928 E34.61447
G1 X67.803 Y81.934 E34.68707
G1 X67.561 Y81.928 E34.71612
G1 X66.205 Y81.856 E34.87907
G1 X63.414 Y81.746 E35.21425
G1 X60.991 Y81.716 E35.50503
G1 X58.219 Y81.755 E35.8377
G1 X55.904 Y81.849 E36.11573
G1 X54.408 Y81.928 E36.2955
G1 X53.803 Y81.934 E36.36811
G1 X53.561 Y81.928 E36.39715
G1 X52.205 Y81.856 E36.5601
G1 X49.414 Y81.746 E36.89528
G1 X46.991 Y81.716 E37.18607
G1 X44.219 Y81.755 E37.51874
G1 X41.904 Y81.849 E37.79677
G1 X40.408 Y81.928 E37.97654
G1 X39.803 Y81.934 E38.04914
G1 X39.284 Y81.903 E38.11153
G1 X38.685 Y81.827 E38.18399
G1 X38.189 Y81.726 E38.24473
G1 X37.678 Y81.589 E38.30822
G1 X37.056 Y81.37 E38.38735
G1 X36.364 Y81.057 E38.47849
G1 X35.718 Y80.683 E38.56806
G1 X35.29 Y80.387 E38.63051
G1 X34.863 Y80.05 E38.69578
G1 X34.405 Y79.628 E38.77052
G1 X33.89 Y79.067 E38.8619
G1 X33.437 Y78.464 E38.9524
G1 X33.115 Y77.946 E39.0256
G1 X32.753 Y77.239 E39.12091
G1 X32.482 Y76.548 E39.20998
G1 X32.327 Y76.025 E39.27544
G1 X32.206 Y75.497 E39.34044
G1 X32.125 Y74.978 E39.40347
G1 X32.075 Y74.44 E39.46831
G1 X32.066 Y73.822 E39.54248
G1 X32.114 Y73.089 E39.63063
G1 X32.246 Y72.304 E39.72615
G1 X32.404 Y71.7 E39.80107
G1 X32.66 Y70.924 E39.89913
G1 X33.343 Y68.945 E40.15035
G1 X34.173 Y66.298 E40.48324
G1 X34.907 Y63.703 E40.80686
G1 X35.583 Y61.024 E41.13841
G1 X36.173 Y58.382 E41.46326
G1 X36.694 Y55.683 E41.79312
G1 X37.141 Y52.954 E42.12497
G1 X37.504 Y50.263 E42.45081
G1 X37.795 Y47.524 E42.78134
G1 X38.007 Y44.804 E43.10873
G1 X38.081 Y43.448 E43.27169
G1 X38.141 Y42.887 E43.3394
G1 X38.246 Y42.304 E43.41048
G1 X38.405 Y41.696 E43.4859
G1 X38.661 Y40.974 E43.57782
G1 X38.971 Y40.312 E43.66554
G1 X39.222 Y39.871 E43.72643
G1 X39.547 Y39.378 E43.79729
G1 X39.865 Y38.965 E43.85984
G1 X40.224 Y38.555 E43.92523
G10
;MESH:cable_shell_1.stl(6)
G0 F3600 X43.867 Y39.028
G0 X44.433 Y40.18
G0 X46.612 Y39.998
G0 X46.627 Y39.9
;TYPE:WALL-INNER
G11
G1 F1200 X47.175 Y40.021 E43.99258
G1 X47.702 Y40.216 E44.06001
G1 X48.198 Y40.481 E44.12749
G1 X48.647 Y40.806 E44.194
G1 X49.056 Y41.193 E44.26157
G1 X49.406 Y41.629 E44.32866
G1 X49.692 Y42.106 E44.39541
G1 X49.914 Y42.624 E44.46303
G1 X50.064 Y43.166 E44.53052
G1 X50.139 Y43.717 E44.59725
G1 X50.149 Y44 E44.63123
G1 X50.111 Y44.559 E44.69846
G1 X49.998 Y45.109 E44.76584
G1 X49.812 Y45.638 E44.83313
G1 X49.556 Y46.138 E44.90054
G1 X49.239 Y46.594 E44.96718
G1 X48.863 Y47.003 E45.03385
G1 X48.427 Y47.364 E45.10178
G1 X47.95 Y47.662 E45.16927
G1 X47.449 Y47.887 E45.23517
G1 X46.896 Y48.05 E45.30436
G1 X46.352 Y48.133 E45.37039
G1 X45.791 Y48.144 E45.43772
G1 X45.232 Y48.076 E45.5053
G1 X44.692 Y47.936 E45.57224
G1 X44.168 Y47.723 E45.64012
G1 X43.692 Y47.448 E45.70609
G1 X43.247 Y47.102 E45.77373
G1 X42.848 Y46.697 E45.84195
G1 X42.521 Y46.259 E45.90754
G1 X42.245 Y45.763 E45.97566
G1 X42.042 Y45.241 E46.04287
G1 X41.911 Y44.699 E46.10978
G1 X41.854 Y44.141 E46.17709
G1 X41.873 Y43.574 E46.24517
G1 X41.965 Y43.035 E46.31078
G1 X42.135 Y42.492 E46.37906
G1 X42.375 Y41.983 E46.44659
G1 X42.676 Y41.517 E46.51316
G1 X43.041 Y41.092 E46.58039
G1 X43.459 Y40.721 E46.64746
G1 X43.926 Y40.407 E46.71499
G1 X44.426 Y40.162 E46.7818
G1 X44.961 Y39.984 E46.84946
G1 X45.515 Y39.879 E46.91713
G1 X46.066 Y39.852 E46.98332
G1 X46.627 Y39.9 E47.05089
G0 F3600 X46.612 Y39.998
G0 X47.711 Y43.986
G0 X47.611 Y43.986
G1 F1200 X47.496 Y43.405 E47.12196
G1 X47.181 Y42.906 E47.19278
G1 X46.705 Y42.552 E47.26396
G1 X46.134 Y42.395 E47.33502
G1 X45.546 Y42.456 E47.40596
G1 X45.017 Y42.725 E47.47718
G1 X44.624 Y43.166 E47.54806
G1 X44.416 Y43.717 E47.61874
G1 X44.42 Y44.311 E47.69002
G1 X44.639 Y44.858 E47.76072
G1 X45.04 Y45.293 E47.83172
G1 X45.573 Y45.552 E47.90283
G1 X46.163 Y45.602 E47.97388
G1 X46.73 Y45.435 E48.04481
G1 X47.2 Y45.074 E48.11593
G1 X47.505 Y44.569 E48.18673
G1 X47.611 Y43.986 E48.25783
G0 F3600 X47.204 Y43.989
;TYPE:WALL-OUTER
G1 F1200 X47.118 Y43.556 E48.31081
G1 X46.882 Y43.182 E48.36388
G1 X46.527 Y42.918 E48.41696
G1 X46.1 Y42.801 E48.47009
G1 X45.661 Y42.846 E48.52305
G1 X45.266 Y43.047 E48.57623
G1 X44.972 Y43.377 E48.62927
G1 X44.816 Y43.789 E48.68213
G1 X44.819 Y44.232 E48.7353
G1 X44.983 Y44.641 E48.78817
G1 X45.283 Y44.966 E48.84125
G1 X45.681 Y45.16 E48.89438
G1 X46.122 Y45.197 E48.94749
G1 X46.546 Y45.072 E49.00053
G1 X46.897 Y44.803 E49.0536
G1 X47.125 Y44.425 E49.10657
G1 X47.204 Y43.989 E49.15974
G0 F3600 X47.165 Y43.793
G0 X47.656 Y43.697
G0 X46.612 Y39.998
G0 X46.689 Y39.503
G1 F1200 X47.284 Y39.635 E49.23288
G1 X47.87 Y39.852 E49.30787
G1 X48.405 Y40.138 E49.38066
G1 X48.903 Y40.497 E49.45433
G1 X49.352 Y40.923 E49.52861
G1 X49.736 Y41.402 E49.60228
G1 X50.049 Y41.923 E49.67521
G1 X50.293 Y42.493 E49.74961
G1 X50.457 Y43.087 E49.82356
G1 X50.539 Y43.693 E49.89694
G1 X50.55 Y44.003 E49.93417
G1 X50.508 Y44.616 E50.0079
G1 X50.385 Y45.213 E50.08104
G1 X50.18 Y45.796 E50.1552
G1 X49.901 Y46.342 E50.22878
G1 X49.55 Y46.847 E50.30258
G1 X49.139 Y47.294 E50.37545
G1 X48.662 Y47.689 E50.44977
G1 X48.136 Y48.017 E50.52415
G1 X47.585 Y48.264 E50.59661
G1 X46.991 Y48.44 E50.67096
G1 X46.382 Y48.533 E50.74488
G1 X45.772 Y48.544 E50.8181
G1 X45.159 Y48.47 E50.89219
G1 X44.56 Y48.315 E50.96644
G1 X43.997 Y48.086 E51.03937
G1 X43.467 Y47.779 E51.11287
G1 X42.979 Y47.4 E51.18702
G1 X42.548 Y46.963 E51.26067
G1 X42.181 Y46.472 E51.33423
G1 X41.882 Y45.933 E51.4082
G1 X41.659 Y45.361 E51.48187
G1 X41.516 Y44.767 E51.55519
G1 X41.453 Y44.154 E51.62913
G1 X41.474 Y43.538 E51.7031
G1 X41.576 Y42.936 E51.77637
G1 X41.761 Y42.346 E51.85056
G1 X42.023 Y41.791 E51.92421
G1 X42.354 Y41.278 E51.99747
G1 X42.757 Y40.809 E52.07168
G1 X43.212 Y40.405 E52.1447
G1 X43.725 Y40.06 E52.21888
G1 X44.278 Y39.789 E52.29278
G1 X44.857 Y39.597 E52.36598
G1 X45.465 Y39.482 E52.44024
G1 X46.08 Y39.451 E52.51413
G1 X46.689 Y39.503 E52.58748
G0 F3600 X46.884 Y39.546
G0 X46.562 Y40.285
;TYPE:SKIN
G1 F1200 X47.065 Y40.396 E52.64929
G1 X47.548 Y40.575 E52.7111
G1 X47.988 Y40.811 E52.77101
G1 X48.401 Y41.11 E52.8322
G1 X48.766 Y41.453 E52.8923
G1 X49.081 Y41.847 E52.95284
G1 X49.343 Y42.284 E53.01398
G1 X49.546 Y42.757 E53.07575
G1 X49.682 Y43.249 E53.137
G1 X49.749 Y43.744 E53.19694
G1 X49.759 Y43.987 E53.22613
G1 X49.723 Y44.514 E53.28951
G1 X49.622 Y45.004 E53.34955
G1 X49.453 Y45.484 E53.41062
G1 X49.223 Y45.934 E53.47126
G1 X48.933 Y46.35 E53.53211
G1 X48.594 Y46.72 E53.59233
G1 X48.201 Y47.045 E53.65353
G1 X47.76 Y47.321 E53.71596
G1 X47.319 Y47.518 E53.77392
G1 X46.813 Y47.667 E53.83722
G1 X46.315 Y47.743 E53.89767
G1 X45.816 Y47.754 E53.95756
G1 X45.303 Y47.691 E54.01959
G1 X44.807 Y47.562 E54.08109
G1 X44.339 Y47.372 E54.1417
G1 X43.917 Y47.128 E54.20019
G1 X43.497 Y46.802 E54.26399
G1 X43.15 Y46.449 E54.32339
G1 X42.851 Y46.049 E54.38332
G1 X42.596 Y45.591 E54.44622
G1 X42.416 Y45.128 E54.50584
G1 X42.296 Y44.633 E54.56696
G1 X42.244 Y44.129 E54.62776
G1 X42.263 Y43.609 E54.6902
G1 X42.344 Y43.129 E54.74861
G1 X42.498 Y42.635 E54.81071
G1 X42.718 Y42.17 E54.87244
G1 X42.988 Y41.753 E54.93205
G1 X43.319 Y41.367 E54.99307
G1 X43.697 Y41.032 E55.05368
G1 X44.12 Y40.747 E55.11489
G1 X44.58 Y40.521 E55.17639
G1 X45.053 Y40.365 E55.23615
G1 X45.564 Y40.267 E55.29859
G1 X46.066 Y40.242 E55.35891
G1 X46.562 Y40.285 E55.41865
G0 F3600 X46.167 Y41.999
G1 F1200 X45.433 Y42.076 E55.50721
G1 X44.775 Y42.411 E55.59582
G1 X44.285 Y42.961 E55.68421
G1 X44.026 Y43.647 E55.7722
G1 X44.03 Y44.387 E55.861
G1 X44.304 Y45.07 E55.94931
G1 X44.804 Y45.611 E56.03771
G1 X45.468 Y45.934 E56.12632
G1 X46.204 Y45.996 E56.21495
G1 X46.91 Y45.788 E56.30327
G1 X47.496 Y45.339 E56.39186
G1 X47.876 Y44.709 E56.48015
G1 X48.008 Y43.982 E56.56882
G1 X47.864 Y43.258 E56.6574
G1 X47.472 Y42.637 E56.74552
G1 X46.879 Y42.195 E56.83428
G1 X46.167 Y41.999 E56.92289
G0 F3600 X49.201 Y42.413
G1 F1200 X47.591 Y40.803 E57.19612
G1 X47.521 Y40.733
G0 F3600 X46.729 Y40.506
G1 F1200 X49.503 Y43.28 E57.66688
G0 F3600 X49.575 Y43.918
G1 F1200 X46.08 Y40.423 E58.26001
G0 F3600 X45.545 Y40.454
G1 F1200 X47.594 Y42.503 E58.60773
G0 F3600 X47.61 Y42.519
G1 F1200 X49.546 Y44.455 E58.93628
G0 F3600 X49.452 Y44.927
G1 F1200 X48.111 Y43.586 E59.16386
G0 F3600 X48.151 Y44.191
G1 F1200 X49.308 Y45.348 E59.36021
G0 F3600 X49.124 Y45.73
G1 F1200 X48.064 Y44.67 E59.54009
G0 F3600 X47.879 Y45.051
G1 F1200 X48.904 Y46.076 E59.71404
G0 F3600 X48.653 Y46.39
G1 F1200 X47.666 Y45.403 E59.88154
G0 F3600 X47.364 Y45.667
G1 F1200 X48.368 Y46.671 E60.05193
G0 F3600 X48.054 Y46.922
G1 F1200 X47.043 Y45.912 E60.22341
G0 F3600 X46.625 Y46.059
G1 F1200 X47.706 Y47.14 E60.40687
G0 F3600 X47.318 Y47.318
G1 F1200 X46.174 Y46.174 E60.60101
G0 F3600 X45.555 Y46.121
G1 F1200 X46.89 Y47.456 E60.82757
G0 F3600 X46.413 Y47.544
G1 F1200 X42.449 Y43.581 E61.50019
G0 F3600 X42.539 Y43.105
G1 F1200 X43.85 Y44.416 E61.72268
G0 F3600 X43.847 Y43.847
G1 F1200 X42.677 Y42.677 E61.92123
G0 F3600 X42.858 Y42.292
