;FLAVOR:UltiGCode
;TIME:1527
;MATERIAL:1307
;MATERIAL2:0
;NOZZLE_DIAMETER:0.4
;MINX:34.903
;MINY:40.566
;MINZ:0.3
;MAXX:85.297
;MAXY:84.198
;MAXZ:8.5
;Generated with Cura_SteamEngine 4.7.1
M82 ;absolute extrusion mode
G0 F3000 Y50 ;avoid prime blob
G92 E0
G92 E0
G10
;LAYER_COUNT:83
;LAYER:0
M107
G0 F3600 X58.041 Y43.246 Z0.3
;TYPE:SKIRT
G11
G1 F1200 X58.443 Y42.755 E0.07615
G1 X58.805 Y42.381 E0.13861
G1 X59.232 Y42.009 E0.20657
G1 X59.668 Y41.688 E0.27154
G1 X60.172 Y41.382 E0.34229
G1 X60.626 Y41.154 E0.40326
G1 X61.176 Y40.934 E0.47434
G1 X61.671 Y40.784 E0.53641
G1 X62.269 Y40.656 E0.60979
G1 X62.785 Y40.59 E0.67222
G1 X63.364 Y40.566 E0.74176
G1 X63.884 Y40.589 E0.80422
G1 X64.4 Y40.655 E0.86664
G1 X64.897 Y40.744 E0.92723
G1 X67.333 Y41.276 E1.22644
G1 X70.042 Y41.786 E1.55723
G1 X72.71 Y42.212 E1.88145
G1 X75.413 Y42.565 E2.20856
G1 X78.826 Y42.892 E2.62
G1 X79.591 Y42.97 E2.71227
G1 X80.099 Y43.058 E2.77414
G1 X80.681 Y43.209 E2.84629
G1 X81.209 Y43.398 E2.91359
G1 X81.722 Y43.633 E2.9813
G1 X82.188 Y43.897 E3.04557
G1 X82.718 Y44.261 E3.12273
G1 X83.111 Y44.586 E3.18392
G1 X83.538 Y45.004 E3.25563
G1 X83.877 Y45.399 E3.31809
G1 X84.239 Y45.9 E3.39226
G1 X84.505 Y46.344 E3.45437
G1 X84.755 Y46.855 E3.52264
G1 X84.947 Y47.353 E3.58669
G1 X85.129 Y47.974 E3.66434
G1 X85.229 Y48.483 E3.72659
G1 X85.294 Y49.096 E3.80056
G1 X85.297 Y49.82 E3.88744
G1 X85.272 Y50.175 E3.93015
G1 X85.198 Y50.677 E3.99104
G1 X84.967 Y51.578 E4.10265
G1 X84.766 Y52.105 E4.17034
G1 X84.655 Y52.355 E4.20316
G1 X84.417 Y52.803 E4.26404
G1 X84.074 Y53.334 E4.3399
G1 X83.765 Y53.731 E4.40027
G1 X83.361 Y54.171 E4.47195
G1 X82.97 Y54.528 E4.53548
G1 X82.44 Y54.932 E4.61545
G1 X82.321 Y55.016 E4.63293
G1 X80.129 Y56.501 E4.95065
G1 X77.891 Y58.111 E5.28148
G1 X75.698 Y59.783 E5.61241
G1 X74.99 Y60.355 E5.72163
G1 X74.903 Y60.415 E5.73431
G1 X73.88 Y61.234 E5.89157
G1 X73.636 Y61.413 E5.92788
G1 X72.759 Y62.001 E6.05458
G1 X70.468 Y63.582 E6.38861
G1 X68.261 Y65.2 E6.717
G1 X65.848 Y67.083 E7.08429
G1 X65.12 Y67.67 E7.19651
G1 X64.971 Y67.784 E7.21903
G1 X63.936 Y68.533 E7.37234
G1 X61.713 Y70.19 E7.70505
G1 X59.577 Y71.879 E8.03182
G1 X57.467 Y73.647 E8.36216
G1 X55.43 Y75.454 E8.68891
G1 X53.461 Y77.302 E9.01296
G1 X51.521 Y79.231 E9.34126
G1 X50.713 Y80.076 E9.48155
G1 X50.682 Y80.104 E9.48657
G1 X49.732 Y81.093 E9.65113
G1 X49.588 Y81.235 E9.6754
G1 X48.676 Y82.084 E9.82492
G1 X48.505 Y82.259 E9.85428
G1 X47.862 Y82.837 E9.95803
G1 X47.437 Y83.165 E10.02245
G1 X46.823 Y83.49 E10.10582
G1 X46.105 Y83.785 E10.19897
G1 X45.601 Y83.975 E10.2636
G1 X45.086 Y84.124 E10.32794
G1 X44.555 Y84.196 E10.39224
G1 X44.184 Y84.198 E10.43676
G1 X43.551 Y84.17 E10.5128
G1 X43 Y84.131 E10.57908
G1 X42.288 Y84.005 E10.66585
G1 X41.63 Y83.819 E10.7479
G1 X41.514 Y83.784 E10.76244
G1 X40.994 Y83.618 E10.82794
G1 X40.815 Y83.556 E10.85068
G1 X40.247 Y83.341 E10.92356
G1 X40.148 Y83.302 E10.93632
G1 X39.644 Y83.094 E11.00175
G1 X39.101 Y82.814 E11.07507
G1 X38.509 Y82.431 E11.15968
G1 X37.912 Y82.018 E11.24679
G1 X37.496 Y81.68 E11.31111
G1 X37.105 Y81.248 E11.38103
G1 X36.716 Y80.74 E11.45781
G1 X36.655 Y80.658 E11.47007
G1 X36.284 Y80.144 E11.54614
G1 X35.928 Y79.532 E11.6311
G1 X35.661 Y78.947 E11.70827
G1 X35.619 Y78.852 E11.72073
G1 X35.348 Y78.21 E11.80436
G1 X35.177 Y77.702 E11.86868
G1 X35.12 Y77.434 E11.90156
G1 X35.001 Y76.752 E11.98463
G1 X34.933 Y76.277 E12.04221
G1 X34.903 Y75.559 E12.12845
G1 X34.938 Y75.038 E12.19111
G1 X35.002 Y74.401 E12.26794
G1 X35.118 Y73.786 E12.34304
G1 X35.266 Y73.282 E12.40607
G1 X35.483 Y72.619 E12.48978
G1 X35.774 Y71.963 E12.5759
G1 X36.131 Y71.364 E12.65958
G1 X36.516 Y70.758 E12.74573
G1 X36.839 Y70.32 E12.81104
G1 X37.246 Y69.859 E12.88483
G1 X37.741 Y69.332 E12.9716
G1 X37.879 Y69.192 E12.99519
G1 X38.601 Y68.504 E13.11486
G1 X39.284 Y67.872 E13.22653
G1 X41.215 Y65.983 E13.55069
G1 X43.125 Y64.004 E13.88073
G1 X44.945 Y62.009 E14.20478
G1 X46.726 Y59.943 E14.53211
G1 X48.47 Y57.8 E14.86366
G1 X50.109 Y55.664 E15.18675
G1 X51.714 Y53.447 E15.51519
G1 X53.242 Y51.205 E15.84077
G1 X54.721 Y48.896 E16.16982
G1 X56.131 Y46.551 E16.49817
G1 X57.518 Y44.088 E16.83737
G1 X57.755 Y43.669 E16.89514
G1 X58.041 Y43.246 E16.95641
G0 F3600 X58.355 Y43.494
G1 F1200 X58.749 Y43.012 E17.03111
G1 X59.24 Y42.529 E17.11376
G1 X59.697 Y42.152 E17.18486
G1 X60.157 Y41.855 E17.25056
G1 X60.779 Y41.524 E17.33511
G1 X61.319 Y41.308 E17.4049
G1 X61.992 Y41.121 E17.48872
G1 X62.807 Y40.99 E17.58778
G1 X63.375 Y40.966 E17.656
G1 X64.163 Y41.025 E17.75082
G1 X64.67 Y41.107 E17.81245
G1 X64.811 Y41.135 E17.8297
G1 X67.238 Y41.665 E18.12781
G1 X69.977 Y42.181 E18.46227
G1 X72.666 Y42.61 E18.78903
G1 X75.38 Y42.964 E19.11747
G1 X78.786 Y43.29 E19.52806
G1 X79.551 Y43.368 E19.62033
G1 X80.334 Y43.53 E19.71628
G1 X81.045 Y43.763 E19.80607
G1 X81.551 Y43.995 E19.87287
G1 X82.252 Y44.421 E19.9713
G1 X82.835 Y44.875 E20.05997
G1 X83.254 Y45.287 E20.13049
G1 X83.73 Y45.873 E20.22108
G1 X84.148 Y46.525 E20.31402
G1 X84.393 Y47.026 E20.38094
G1 X84.678 Y47.846 E20.48512
G1 X84.831 Y48.532 E20.56946
G1 X84.896 Y49.134 E20.64212
G1 X84.897 Y49.803 E20.7224
G1 X84.807 Y50.591 E20.81758
G1 X84.591 Y51.441 E20.92282
G1 X84.401 Y51.943 E20.98723
G1 X84.078 Y52.591 E21.07411
G1 X83.742 Y53.111 E21.14841
G1 X83.265 Y53.689 E21.23833
G1 X82.723 Y54.214 E21.32888
G1 X82.203 Y54.61 E21.40732
G1 X82.097 Y54.685 E21.4229
G1 X79.876 Y56.19 E21.74485
G1 X77.66 Y57.783 E22.07235
G1 X75.466 Y59.456 E22.40344
G1 X74.739 Y60.044 E22.51564
G1 X74.657 Y60.1 E22.52755
G1 X73.63 Y60.922 E22.68541
G1 X73.413 Y61.081 E22.71769
G1 X72.496 Y61.696 E22.85019
G1 X70.257 Y63.242 E23.17669
G1 X68.024 Y64.879 E23.50895
G1 X65.597 Y66.772 E23.8783
G1 X64.869 Y67.359 E23.99052
G1 X64.737 Y67.46 E24.01047
G1 X63.661 Y68.239 E24.16987
G1 X61.472 Y69.871 E24.49752
G1 X59.322 Y71.571 E24.82643
G1 X57.211 Y73.34 E25.15693
G1 X55.174 Y75.146 E25.48361
G1 X53.188 Y77.011 E25.81054
G1 X51.233 Y78.954 E26.1413
G1 X50.424 Y79.8 E26.28177
G1 X50.396 Y79.825 E26.28627
G1 X49.444 Y80.816 E26.45117
G1 X49.316 Y80.942 E26.47273
G1 X48.334 Y81.855 E26.63363
G1 X48.237 Y81.962 E26.65096
G1 X47.594 Y82.54 E26.75471
G1 X47.193 Y82.847 E26.81531
G1 X46.671 Y83.12 E26.886
G1 X45.953 Y83.415 E26.97915
G1 X45.462 Y83.6 E27.04212
G1 X44.975 Y83.739 E27.10289
G1 X44.473 Y83.799 E27.16356
G1 X44.202 Y83.799 E27.19608
G1 X43.569 Y83.771 E27.27211
G1 X43.029 Y83.732 E27.33708
G1 X42.397 Y83.62 E27.4141
G1 X41.739 Y83.434 E27.49616
G1 X41.636 Y83.403 E27.50906
G1 X41.116 Y83.237 E27.57457
G1 X40.956 Y83.182 E27.59487
G1 X40.388 Y82.967 E27.66775
G1 X40.3 Y82.932 E27.67911
G1 X39.796 Y82.724 E27.74454
G1 X39.314 Y82.475 E27.80964
G1 X38.732 Y82.099 E27.89279
G1 X38.14 Y81.689 E27.9792
G1 X37.749 Y81.369 E28.03984
G1 X37.422 Y81.005 E28.09855
G1 X37.033 Y80.497 E28.17533
G1 X36.608 Y79.91 E28.2623
G1 X36.292 Y79.366 E28.33779
G1 X36.025 Y78.781 E28.41496
G1 X35.717 Y78.054 E28.5097
G1 X35.513 Y77.365 E28.59593
G1 X35.413 Y76.797 E28.66514
G1 X35.329 Y76.22 E28.73511
G1 X35.302 Y75.582 E28.81174
G1 X35.336 Y75.078 E28.87236
G1 X35.4 Y74.441 E28.94918
G1 X35.504 Y73.895 E29.01588
G1 X35.648 Y73.399 E29.07786
G1 X35.863 Y72.744 E29.16058
G1 X36.121 Y72.16 E29.2372
G1 X36.473 Y71.571 E29.31954
G1 X36.853 Y70.973 E29.40456
G1 X37.344 Y70.347 E29.50003
G1 X37.585 Y70.081 E29.5431
G1 X38.032 Y69.605 E29.62146
G1 X38.156 Y69.481 E29.6425
G1 X38.873 Y68.797 E29.76142
G1 X39.553 Y68.168 E29.87257
G1 X41.499 Y66.264 E30.19927
G1 X43.413 Y64.281 E30.53
G1 X45.271 Y62.244 E30.86085
G1 X47.038 Y60.193 E31.18571
G1 X48.768 Y58.068 E31.51453
G1 X50.447 Y55.88 E31.84549
G1 X52.024 Y53.701 E32.16826
G1 X53.592 Y51.399 E32.5025
G1 X55.067 Y49.098 E32.83048
G1 X56.481 Y46.747 E33.15969
G1 X57.863 Y44.292 E33.49776
G1 X58.355 Y43.494 E33.61026
G0 F3600 X41.745 Y72.028
G1 F1200 X42.453 Y71.794 E33.69974
G1 X43.329 Y71.735 E33.8051
G1 X43.818 Y71.733 E33.86378
G1 X44.419 Y71.888 E33.93826
G1 X43.849 Y71.79 E34.00766
G1 X42.599 Y71.805 E34.15767
G1 X42.174 Y71.906 E34.2101
G1 X41.348 Y72.308 E34.32033
G1 X41.745 Y72.028 E34.37863
G0 F3600 X41.564 Y71.666
G1 F1200 X42.375 Y71.399 E34.48109
G1 X43.316 Y71.335 E34.59427
G1 X43.867 Y71.332 E34.66039
G1 X44.908 Y71.602 E34.78944
G1 X45.914 Y71.988 E34.91874
G1 X46.702 Y72.509 E35.0321
G1 X47.314 Y73.458 E35.16761
G1 X47.718 Y74.506 E35.30239
G1 X47.808 Y75.354 E35.40472
G1 X47.567 Y76.493 E35.54443
G1 X47.232 Y77.633 E35.68701
G1 X46.883 Y78.006 E35.74831
G1 X46.689 Y78.006 E35.77159
G1 X46.546 Y77.902 E35.79281
G1 X46.493 Y77.163 E35.88172
G1 X46.838 Y76.143 E36.01093
G1 X46.869 Y75.921 E36.03783
G1 X46.812 Y74.783 E36.17456
G1 X46.794 Y74.661 E36.18936
G1 X46.529 Y73.646 E36.31524
G1 X46.436 Y73.449 E36.34138
G1 X46.316 Y73.324 E36.36217
G1 X45.327 Y72.555 E36.51251
G1 X45.087 Y72.443 E36.54429
G1 X43.989 Y72.204 E36.67914
G1 X43.854 Y72.19 E36.69542
G1 X42.604 Y72.205 E36.84543
G1 X42.349 Y72.265 E36.87687
G1 X41.407 Y72.723 E37.00256
G1 X41.199 Y72.89 E37.03457
G1 X40.552 Y73.704 E37.15935
G1 X40.472 Y73.836 E37.17787
G1 X39.996 Y74.923 E37.32027
G1 X39.949 Y75.22 E37.35635
G1 X40.062 Y76.423 E37.50135
G1 X40.107 Y76.601 E37.52338
G1 X40.512 Y77.555 E37.64775
G1 X40.69 Y77.791 E37.68322
G1 X41.546 Y78.472 E37.81448
G1 X41.725 Y78.57 E37.83897
G1 X42.755 Y78.923 E37.96963
G1 X42.874 Y78.95 E37.98427
G1 X44.423 Y79.148 E38.17166
G1 X44.954 Y79.389 E38.24164
G1 X45.012 Y79.569 E38.26433
G1 X44.96 Y79.73 E38.28463
G1 X44.239 Y80.009 E38.37741
G1 X43.357 Y79.955 E38.48344
G1 X42.281 Y79.631 E38.61829
G1 X41.284 Y79.236 E38.74698
G1 X40.376 Y78.626 E38.87824
G1 X39.715 Y77.736 E39.01128
G1 X39.232 Y76.637 E39.15533
G1 X39.091 Y75.745 E39.2637
G1 X39.168 Y74.867 E39.36947
G1 X39.445 Y73.987 E39.48017
G1 X40.034 Y73.035 E39.61451
G1 X40.775 Y72.222 E39.74651
G1 X41.564 Y71.666 E39.86234
G0 F3600 X41.381 Y71.306
G1 F1200 X42.298 Y71.003 E39.97823
G1 X43.302 Y70.935 E40.09899
G1 X43.916 Y70.932 E40.17267
G1 X45.028 Y71.22 E40.31051
G1 X46.1 Y71.632 E40.44832
G1 X46.992 Y72.221 E40.57659
G1 X47.672 Y73.275 E40.72711
G1 X48.111 Y74.412 E40.87337
G1 X48.213 Y75.373 E40.98934
G1 X47.953 Y76.598 E41.13961
G1 X47.59 Y77.836 E41.29443
G1 X47.057 Y78.406 E41.38807
G1 X46.56 Y78.406 E41.44771
G1 X46.16 Y78.115 E41.50707
G1 X46.088 Y77.111 E41.62786
G1 X46.459 Y76.015 E41.76671
G1 X46.47 Y75.941 E41.77569
G1 X46.413 Y74.803 E41.91242
G1 X46.407 Y74.762 E41.91739
G1 X46.142 Y73.747 E42.04327
G1 X46.071 Y73.64 E42.05868
G1 X45.082 Y72.871 E42.20902
G1 X45.002 Y72.834 E42.2196
G1 X43.904 Y72.595 E42.35444
G1 X43.859 Y72.59 E42.35987
G1 X42.609 Y72.605 E42.50989
G1 X42.524 Y72.625 E42.52036
G1 X41.582 Y73.083 E42.64606
G1 X41.512 Y73.139 E42.65681
G1 X40.865 Y73.953 E42.78159
G1 X40.839 Y73.997 E42.78772
G1 X40.363 Y75.084 E42.93012
G1 X40.347 Y75.183 E42.94216
G1 X40.46 Y76.386 E43.08715
G1 X40.475 Y76.445 E43.09446
G1 X40.88 Y77.399 E43.21883
G1 X40.939 Y77.478 E43.23066
G1 X41.795 Y78.159 E43.36192
G1 X41.855 Y78.191 E43.37008
G1 X42.885 Y78.544 E43.50074
G1 X42.925 Y78.553 E43.50566
G1 X44.531 Y78.758 E43.69994
G1 X45.279 Y79.098 E43.79854
G1 X45.433 Y79.569 E43.858
G1 X45.281 Y80.034 E43.91671
G1 X44.303 Y80.413 E44.04257
G1 X43.285 Y80.351 E44.16496
G1 X42.149 Y80.009 E44.30732
G1 X41.097 Y79.592 E44.44312
G1 X40.095 Y78.919 E44.58796
G1 X39.368 Y77.94 E44.73429
G1 X38.845 Y76.75 E44.89027
G1 X38.688 Y75.757 E45.01092
G1 X38.773 Y74.793 E45.12704
G1 X39.08 Y73.816 E45.24994
G1 X39.711 Y72.797 E45.39376
G1 X40.513 Y71.917 E45.53664
G1 X41.381 Y71.306 E45.66402
G0 F3600 X40.549 Y73.065
G1 F1200 X40.262 Y73.426 E45.71936
G1 X40.351 Y73.282 E45.73967
G1 X40.549 Y73.065 E45.77492
G0 F3600 X40.103 Y73.684
G1 F1200 X39.63 Y74.763 E45.9163
G1 X39.562 Y74.949 E45.94006
G1 X39.813 Y74.152 E46.04033
G1 X40.103 Y73.684 E46.1064
G0 F3600 X39.554 Y75.047
G1 F1200 X39.55 Y75.258 E46.13173
G1 X39.663 Y76.461 E46.27672
G1 X39.739 Y76.758 E46.31351
G1 X40.076 Y77.552 E46.41702
G1 X40.066 Y77.539 E46.41898
G1 X39.619 Y76.52 E46.55251
G1 X39.494 Y75.73 E46.64849
G1 X39.554 Y75.047 E46.73077
G0 F3600 X40.551 Y78.192
G1 F1200 X41.117 Y78.641 E46.81746
G1 X40.655 Y78.331 E46.88423
G1 X40.551 Y78.192 E46.90506
G0 F3600 X41.951 Y79.07
G1 F1200 X42.626 Y79.301 E46.99067
G1 X42.823 Y79.347 E47.01495
G1 X44.313 Y79.537 E47.19519
G1 X44.176 Y79.605 E47.21355
G1 X43.428 Y79.559 E47.30348
G1 X42.418 Y79.255 E47.43005
G1 X41.951 Y79.07 E47.49033
G0 F3600 X47.185 Y76.367
G1 F1200 X47.178 Y76.4 E47.49437
G1 X46.906 Y77.327 E47.6103
G1 X46.898 Y77.215 E47.62378
G1 X47.185 Y76.367 E47.73121
G0 F3600 X46.931 Y73.601
G1 F1200 X46.956 Y73.641 E47.73687
G1 X47.327 Y74.603 E47.8606
G1 X47.404 Y75.331 E47.94844
G1 X47.241 Y76.104 E48.04324
G1 X47.269 Y75.901 E48.06783
G1 X47.212 Y74.763 E48.20456
G1 X47.181 Y74.56 E48.22921
G1 X46.931 Y73.601 E48.34813
G0 F3600 X45.69 Y72.331
G1 F1200 X45.727 Y72.345 E48.35288
G1 X46.412 Y72.797 E48.45136
G1 X46.535 Y72.988 E48.47862
G1 X45.69 Y72.331 E48.60707
G10
;MESH:leg_link_4.stl
G0 F3600 X47.842 Y70.747
G0 X48.605 Y69.986
G0 X61.733 Y63.775
G0 X62.453 Y63.218
;TYPE:WALL-INNER
G11
G1 F1200 X62.59 Y62.757 E48.66478
G1 X62.586 Y62.278 E48.72226
G1 X62.441 Y61.822 E48.77968
G1 X62.168 Y61.43 E48.837
G1 X61.793 Y61.134 E48.89433
G1 X61.346 Y60.962 E48.95181
G1 X60.869 Y60.93 E49.00918
G1 X60.403 Y61.039 E49.06661
G1 X59.988 Y61.283 E49.12438
G1 X59.666 Y61.638 E49.18189
G1 X59.461 Y62.07 E49.23927
G1 X59.395 Y62.545 E49.29682
G1 X59.469 Y63.016 E49.35403
G1 X59.681 Y63.447 E49.41167
G1 X60.01 Y63.794 E49.46905
G1 X60.426 Y64.031 E49.5265
G1 X60.892 Y64.134 E49.58377
G1 X61.37 Y64.095 E49.64132
G1 X61.816 Y63.915 E49.69904
G1 X62.185 Y63.614 E49.75618
G1 X62.453 Y63.218 E49.81356
G0 F3600 X70.961 Y56.952
G0 X71.283 Y55.263
G1 F1200 X70.992 Y54.873 E49.87195
G1 X70.605 Y54.589 E49.92956
G1 X70.152 Y54.434 E49.98701
G1 X69.674 Y54.418 E50.0444
G1 X69.211 Y54.545 E50.10201
G1 X68.808 Y54.802 E50.15937
G1 X68.498 Y55.165 E50.21665
G1 X68.308 Y55.604 E50.27406
G1 X68.257 Y56.082 E50.33174
G1 X68.348 Y56.553 E50.38931
G1 X68.574 Y56.975 E50.44675
G1 X68.914 Y57.309 E50.50394
G1 X69.337 Y57.532 E50.56133
G1 X69.809 Y57.619 E50.61892
G1 X70.286 Y57.563 E50.67655
G1 X70.722 Y57.369 E50.73382
G1 X71.085 Y57.056 E50.79134
G1 X71.338 Y56.649 E50.84884
G1 X71.458 Y56.186 E50.90624
G1 X71.439 Y55.711 E50.96328
G1 X71.283 Y55.263 E51.02021
G0 F3600 X77.183 Y49.036
G1 F1200 X77.118 Y49.509 E51.0775
G1 X77.191 Y49.981 E51.13482
G1 X77.404 Y50.413 E51.19262
G1 X77.733 Y50.759 E51.24991
G1 X78.147 Y50.995 E51.30709
G1 X78.614 Y51.1 E51.36453
G1 X79.095 Y51.06 E51.42245
G1 X79.537 Y50.88 E51.47972
G1 X79.909 Y50.58 E51.53707
G1 X80.176 Y50.182 E51.59458
G1 X80.313 Y49.722 E51.65218
G1 X80.309 Y49.243 E51.70966
G1 X80.164 Y48.788 E51.76697
G1 X79.892 Y48.395 E51.82432
G1 X79.516 Y48.099 E51.88174
G1 X79.069 Y47.927 E51.93922
G1 X78.589 Y47.895 E51.99694
G1 X78.123 Y48.006 E52.05443
G1 X77.712 Y48.249 E52.11172
G1 X77.389 Y48.601 E52.16905
G1 X77.183 Y49.036 E52.22681
G0 F3600 X65.434 Y48.679
G1 F1200 X65.003 Y48.897 E52.28477
G1 X64.506 Y49.263 E52.35884
G1 X64.198 Y49.588 E52.41257
G1 X64.085 Y49.924 E52.45511
G1 X63.053 Y56.702 E53.27784
G1 X62.995 Y57.364 E53.35759
G1 X63.244 Y57.874 E53.42569
G1 X63.687 Y58.192 E53.49113
G1 X64.239 Y58.262 E53.5579
G1 X64.678 Y58.089 E53.61452
G1 X66.38 Y56.836 E53.86814
G1 X66.815 Y56.457 E53.93737
G1 X67.197 Y55.991 E54.00968
G1 X67.488 Y55.478 E54.08046
G1 X67.68 Y55.019 E54.14016
G1 X67.886 Y54.656 E54.19025
G1 X68.14 Y54.345 E54.23843
G1 X68.441 Y54.082 E54.2864
G1 X68.784 Y53.872 E54.33466
G1 X69.154 Y53.723 E54.38252
G1 X69.562 Y53.633 E54.43266
G1 X70.058 Y53.589 E54.49241
G1 X70.634 Y53.462 E54.56319
G1 X71.191 Y53.238 E54.63524
G1 X71.683 Y52.936 E54.70451
G1 X73.387 Y51.683 E54.95832
G1 X73.688 Y51.301 E55.01668
G1 X73.779 Y50.752 E55.08346
G1 X73.6 Y50.237 E55.14889
G1 X73.207 Y49.875 E55.21301
G1 X72.878 Y49.769 E55.25448
G1 X66.103 Y48.737 E56.07686
G1 X65.434 Y48.679 E56.15744
G0 F3600 X63.083 Y48.573
G0 X61.923 Y47.903
G1 F1200 X62.214 Y48.293 E56.21584
