;FLAVOR:UltiGCode
;TIME:9605
;MATERIAL:8230
;MATERIAL2:0
;NOZZLE_DIAMETER:0.4
;MINX:14.3
;MINY:33.8
;MINZ:0.3
;MAXX:105.7
;MAXY:86.2
;MAXZ:33.8
;Generated with Cura_SteamEngine 4.7.1
M82 ;absolute extrusion mode
G0 F3000 Y50 ;avoid prime blob
G92 E0
G92 E0
G10
;LAYER_COUNT:337
;LAYER:0
M107
G0 F3600 X22.17 Y34.388 Z0.3
;TYPE:SKIRT
G11
G1 F1200 X22.606 Y34.132 E0.06067
G1 X23.077 Y33.948 E0.12135
G1 X23.571 Y33.84 E0.18203
G1 X24.114 Y33.805 E0.24733
G1 X24.523 Y33.8 E0.29641
G1 X95.339 Y33.8 E8.79433
G1 X96.041 Y33.81 E8.87858
G1 X96.544 Y33.857 E8.9392
G1 X97.034 Y33.983 E8.99992
G1 X97.497 Y34.185 E9.06053
G1 X97.924 Y34.456 E9.12122
G1 X98.323 Y34.805 E9.18483
G1 X98.574 Y35.048 E9.22676
G1 X104.316 Y40.79 E10.20121
G1 X104.774 Y41.262 E10.28013
G1 X105.096 Y41.651 E10.34073
G1 X105.353 Y42.086 E10.40135
G1 X105.538 Y42.557 E10.46208
G1 X105.658 Y43.139 E10.53339
G1 X105.7 Y44.023 E10.63959
G1 X105.7 Y75.839 E14.45751
G1 X105.69 Y76.541 E14.54176
G1 X105.643 Y77.044 E14.60238
G1 X105.517 Y77.534 E14.66309
G1 X105.315 Y77.997 E14.72371
G1 X105.044 Y78.424 E14.7844
G1 X104.695 Y78.823 E14.84801
G1 X104.431 Y79.095 E14.8935
G1 X98.717 Y84.808 E15.86311
G1 X98.223 Y85.287 E15.94568
G1 X97.833 Y85.61 E16.00645
G1 X97.397 Y85.866 E16.06712
G1 X96.927 Y86.051 E16.12773
G1 X96.433 Y86.16 E16.18844
G1 X95.886 Y86.195 E16.25421
G1 X95.477 Y86.2 E16.30329
G1 X24.661 Y86.2 E24.80121
G1 X23.959 Y86.19 E24.88546
G1 X23.456 Y86.143 E24.94609
G1 X22.966 Y86.017 E25.0068
G1 X22.503 Y85.815 E25.06742
G1 X22.076 Y85.544 E25.1281
G1 X21.677 Y85.195 E25.19172
G1 X21.395 Y84.921 E25.2389
G1 X15.688 Y79.214 E26.20741
G1 X15.218 Y78.731 E26.28828
G1 X14.895 Y78.342 E26.34896
G1 X14.637 Y77.907 E26.40965
G1 X14.451 Y77.436 E26.47041
G1 X14.342 Y76.943 E26.531
G1 X14.305 Y76.386 E26.59799
G1 X14.3 Y75.977 E26.64707
G1 X14.3 Y44.161 E30.46499
G1 X14.31 Y43.459 E30.54924
G1 X14.357 Y42.956 E30.60986
G1 X14.483 Y42.466 E30.67058
G1 X14.685 Y42.003 E30.7312
G1 X14.956 Y41.576 E30.79188
G1 X15.305 Y41.177 E30.8555
G1 X15.569 Y40.905 E30.90098
G1 X21.293 Y35.181 E31.87238
G1 X21.78 Y34.71 E31.95368
G1 X22.17 Y34.388 E32.01437
G10
;MESH:body_shell_1.stl
G0 F3600 X23.348 Y36.712
G0 X24.255 Y37.618
G0 X27.191 Y42.954
G0 X27.094 Y42.977
;TYPE:WALL-INNER
G11
G1 F1200 X26.819 Y42.34 E32.09763
G1 X26.358 Y41.823 E32.18075
G1 X25.757 Y41.48 E32.26379
G1 X25.078 Y41.343 E32.34691
G1 X24.391 Y41.43 E32.43001
G1 X23.768 Y41.729 E32.51293
G1 X23.27 Y42.211 E32.5961
G1 X22.951 Y42.825 E32.67913
G1 X22.842 Y43.508 E32.76213
G1 X22.956 Y44.192 E32.84534
G1 X23.281 Y44.803 E32.92839
G1 X23.781 Y45.28 E33.01131
G1 X24.408 Y45.576 E33.09451
G1 X25.095 Y45.655 E33.1775
G1 X25.773 Y45.514 E33.2606
G1 X26.371 Y45.166 E33.34362
G1 X26.828 Y44.646 E33.4267
G1 X27.088 Y44.03 E33.50693
G1 X27.146 Y43.656 E33.55235
G1 X27.094 Y42.977 E33.63407
G0 F3600 X27.191 Y42.954
G0 X35.689 Y39.82
G0 X35.707 Y39.918
G1 F1200 X35.184 Y40.114 E33.70109
G1 X34.759 Y40.477 E33.76816
G1 X34.484 Y40.963 E33.83517
G1 X34.392 Y41.515 E33.90232
G1 X34.494 Y42.063 E33.96921
G1 X34.777 Y42.545 E34.03628
G1 X35.208 Y42.9 E34.10329
G1 X35.734 Y43.086 E34.17024
G1 X36.293 Y43.082 E34.23732
G1 X36.816 Y42.886 E34.30434
G1 X37.241 Y42.523 E34.37141
G1 X37.516 Y42.037 E34.43842
G1 X37.608 Y41.485 E34.50558
G1 X37.506 Y40.937 E34.57247
G1 X37.223 Y40.455 E34.63954
G1 X36.792 Y40.1 E34.70654
G1 X36.266 Y39.914 E34.77349
G1 X35.707 Y39.918 E34.84058
G0 F3600 X35.689 Y39.82
G0 X43.689 Y39.82
G0 X43.707 Y39.918
G1 F1200 X43.184 Y40.114 E34.9076
G1 X42.759 Y40.477 E34.97467
G1 X42.484 Y40.963 E35.04168
G1 X42.392 Y41.515 E35.10883
G1 X42.494 Y42.063 E35.17572
G1 X42.777 Y42.545 E35.24279
G1 X43.208 Y42.9 E35.3098
G1 X43.734 Y43.086 E35.37675
G1 X44.293 Y43.082 E35.44383
G1 X44.816 Y42.886 E35.51085
G1 X45.241 Y42.523 E35.57793
G1 X45.516 Y42.037 E35.64493
G1 X45.608 Y41.485 E35.71209
G1 X45.506 Y40.937 E35.77898
G1 X45.223 Y40.455 E35.84605
G1 X44.792 Y40.1 E35.91306
G1 X44.266 Y39.914 E35.98001
G1 X43.707 Y39.918 E36.04709
G0 F3600 X43.689 Y39.82
G0 X52.079 Y39.304
G0 X53.383 Y39.792
G0 X54.191 Y40.954
G0 X54.094 Y40.977
G1 F1200 X53.819 Y40.34 E36.13035
G1 X53.358 Y39.823 E36.21347
G1 X52.757 Y39.48 E36.29651
G1 X52.078 Y39.343 E36.37963
G1 X51.391 Y39.43 E36.46273
G1 X50.768 Y39.729 E36.54565
G1 X50.27 Y40.211 E36.62882
G1 X49.951 Y40.825 E36.71185
G1 X49.842 Y41.508 E36.79485
G1 X49.956 Y42.192 E36.87806
G1 X50.281 Y42.803 E36.96111
G1 X50.781 Y43.28 E37.04403
G1 X51.408 Y43.576 E37.12723
G1 X52.095 Y43.655 E37.21022
G1 X52.773 Y43.514 E37.29332
G1 X53.371 Y43.166 E37.37634
G1 X53.828 Y42.646 E37.45942
G1 X54.088 Y42.03 E37.53965
G1 X54.146 Y41.656 E37.58507
G1 X54.094 Y40.977 E37.66679
G0 F3600 X54.191 Y40.954
G0 X63.708 Y47.592
G0 X63.77 Y47.67
G1 F1200 X63.184 Y48.252 E37.7659
G1 X62.763 Y48.918 E37.86044
G1 X62.493 Y49.677 E37.95712
G1 X62.4 Y50.465 E38.05233
G1 X62.4 Y69.533 E40.34049
G1 X62.482 Y70.282 E40.43091
G1 X62.744 Y71.044 E40.5276
G1 X63.17 Y71.73 E40.6245
G1 X63.752 Y72.316 E40.72361
G1 X64.418 Y72.737 E40.81816
G1 X65.177 Y73.007 E40.91483
G1 X65.965 Y73.1 E41.01005
G1 X89.548 Y73.099 E43.84001
G1 X90.472 Y73.018 E43.95131
G1 X91.414 Y72.765 E44.06836
G1 X92.299 Y72.354 E44.18545
G1 X93.099 Y71.794 E44.30264
G1 X93.79 Y71.103 E44.4199
G1 X94.35 Y70.304 E44.53699
G1 X94.762 Y69.419 E44.65413
G1 X95.015 Y68.477 E44.77118
G1 X95.099 Y67.54 E44.88407
G1 X95.1 Y52.462 E46.69343
G1 X95.022 Y51.548 E46.80351
G1 X94.772 Y50.605 E46.92058
G1 X94.362 Y49.718 E47.03784
G1 X93.806 Y48.918 E47.15475
G1 X93.12 Y48.225 E47.27176
G1 X92.321 Y47.661 E47.38912
G1 X91.438 Y47.246 E47.5062
G1 X90.498 Y46.989 E47.62314
G1 X89.527 Y46.9 E47.74015
G1 X65.967 Y46.9 E50.56735
G1 X65.218 Y46.982 E50.65776
G1 X64.456 Y47.244 E50.75446
G1 X63.77 Y47.67 E50.85136
G0 F3600 X63.708 Y47.592
G0 X69.396 Y43.196
G0 X70.126 Y42.04
G0 X70.191 Y40.954
G0 X70.094 Y40.977
G1 F1200 X69.819 Y40.34 E50.93462
G1 X69.358 Y39.823 E51.01774
G1 X68.757 Y39.48 E51.10078
G1 X68.078 Y39.343 E51.1839
G1 X67.392 Y39.43 E51.26688
G1 X66.767 Y39.729 E51.35002
G1 X66.269 Y40.211 E51.43319
G1 X65.951 Y40.825 E51.51616
G1 X65.842 Y41.508 E51.59916
G1 X65.956 Y42.192 E51.68237
G1 X66.28 Y42.803 E51.76536
G1 X66.78 Y43.28 E51.84829
G1 X67.409 Y43.576 E51.93171
G1 X68.095 Y43.655 E52.01457
G1 X68.773 Y43.514 E52.09767
G1 X69.371 Y43.166 E52.1807
G1 X69.828 Y42.646 E52.26377
G1 X70.088 Y42.03 E52.34401
G1 X70.146 Y41.656 E52.38942
G1 X70.094 Y40.977 E52.47114
G0 F3600 X70.191 Y40.954
G0 X75.689 Y39.82
G0 X75.707 Y39.918
G1 F1200 X75.184 Y40.114 E52.53817
G1 X74.759 Y40.477 E52.60524
G1 X74.484 Y40.963 E52.67225
G1 X74.392 Y41.515 E52.7394
G1 X74.494 Y42.063 E52.80629
G1 X74.777 Y42.545 E52.87336
G1 X75.208 Y42.9 E52.94037
G1 X75.734 Y43.086 E53.00732
G1 X76.293 Y43.082 E53.0744
G1 X76.816 Y42.886 E53.14142
G1 X77.241 Y42.523 E53.20849
G1 X77.516 Y42.037 E53.2755
G1 X77.608 Y41.485 E53.34265
G1 X77.506 Y40.937 E53.40954
G1 X77.223 Y40.455 E53.47662
G1 X76.792 Y40.1 E53.54362
G1 X76.266 Y39.914 E53.61057
G1 X75.707 Y39.918 E53.67765
G0 F3600 X75.689 Y39.82
G0 X83.689 Y39.82
G0 X83.707 Y39.918
G1 F1200 X83.184 Y40.114 E53.74468
G1 X82.759 Y40.477 E53.81175
G1 X82.484 Y40.963 E53.87876
G1 X82.392 Y41.515 E53.94591
G1 X82.494 Y42.063 E54.0128
G1 X82.777 Y42.545 E54.07987
G1 X83.208 Y42.9 E54.14688
G1 X83.734 Y43.086 E54.21383
G1 X84.293 Y43.082 E54.28091
G1 X84.816 Y42.886 E54.34793
G1 X85.241 Y42.523 E54.415
G1 X85.516 Y42.037 E54.48201
G1 X85.608 Y41.485 E54.54916
G1 X85.506 Y40.937 E54.61605
G1 X85.223 Y40.455 E54.68313
G1 X84.792 Y40.1 E54.75013
G1 X84.266 Y39.914 E54.81708
G1 X83.707 Y39.918 E54.88416
G0 F3600 X83.689 Y39.82
G0 X95.079 Y41.304
G0 X96.383 Y41.792
G0 X97.191 Y42.954
G0 X97.094 Y42.977
G1 F1200 X96.819 Y42.34 E54.96742
G1 X96.358 Y41.823 E55.05055
G1 X95.757 Y41.48 E55.13358
G1 X95.078 Y41.343 E55.21671
G1 X94.392 Y41.43 E55.29969
G1 X93.767 Y41.729 E55.38283
G1 X93.269 Y42.211 E55.46599
G1 X92.951 Y42.825 E55.54897
G1 X92.842 Y43.508 E55.63197
G1 X92.956 Y44.192 E55.71518
G1 X93.28 Y44.803 E55.79817
G1 X93.78 Y45.28 E55.88109
G1 X94.409 Y45.576 E55.96451
G1 X95.095 Y45.655 E56.04738
G1 X95.773 Y45.514 E56.13048
G1 X96.371 Y45.166 E56.2135
G1 X96.828 Y44.646 E56.29658
G1 X97.088 Y44.03 E56.37681
G1 X97.146 Y43.656 E56.42223
G1 X97.094 Y42.977 E56.50395
G0 F3600 X97.191 Y42.954
G0 X101.808 Y43.786
G0 X101.9 Y43.748
G1 F1200 X101.9 Y76.252 E60.40443
G1 X95.752 Y82.4 E61.44778
G1 X24.248 Y82.4 E70.02826
G1 X18.1 Y76.252 E71.07161
G1 X18.1 Y43.748 E74.97209
G1 X24.248 Y37.6 E76.01544
G1 X95.752 Y37.6 E84.59592
G1 X101.9 Y43.748 E85.63927
G0 F3600 X101.808 Y43.786
G0 X97.191 Y75.954
G0 X97.094 Y75.977
G1 F1200 X96.819 Y75.34 E85.72253
G1 X96.358 Y74.823 E85.80565
G1 X95.757 Y74.48 E85.88869
G1 X95.078 Y74.343 E85.97181
G1 X94.392 Y74.43 E86.05479
G1 X93.767 Y74.729 E86.13793
G1 X93.269 Y75.211 E86.2211
G1 X92.951 Y75.825 E86.30407
G1 X92.842 Y76.508 E86.38707
G1 X92.956 Y77.192 E86.47028
G1 X93.28 Y77.803 E86.55327
G1 X93.78 Y78.28 E86.6362
G1 X94.409 Y78.576 E86.71962
G1 X95.095 Y78.655 E86.80248
G1 X95.773 Y78.514 E86.88558
G1 X96.371 Y78.166 E86.96861
G1 X96.828 Y77.646 E87.05168
G1 X97.088 Y77.03 E87.13192
G1 X97.146 Y76.656 E87.17733
G1 X97.094 Y75.977 E87.25905
G0 F3600 X97.191 Y75.954
G0 X96.383 Y74.792
G0 X95.079 Y74.304
G0 X83.689 Y76.82
G0 X83.707 Y76.918
G1 F1200 X83.184 Y77.114 E87.32607
G1 X82.759 Y77.477 E87.39314
G1 X82.484 Y77.963 E87.46015
G1 X82.392 Y78.515 E87.52731
G1 X82.494 Y79.063 E87.5942
G1 X82.777 Y79.545 E87.66127
G1 X83.208 Y79.9 E87.72827
G1 X83.734 Y80.086 E87.79522
G1 X84.293 Y80.082 E87.86231
G1 X84.816 Y79.886 E87.92933
G1 X85.241 Y79.523 E87.9964
G1 X85.516 Y79.037 E88.06341
G1 X85.608 Y78.485 E88.13056
G1 X85.506 Y77.937 E88.19745
G1 X85.223 Y77.455 E88.26452
G1 X84.792 Y77.1 E88.33153
G1 X84.266 Y76.914 E88.39848
G1 X83.707 Y76.918 E88.46556
G0 F3600 X83.689 Y76.82
G0 X75.689 Y76.82
G0 X75.707 Y76.918
G1 F1200 X75.184 Y77.114 E88.53258
G1 X74.759 Y77.477 E88.59965
G1 X74.484 Y77.963 E88.66666
G1 X74.392 Y78.515 E88.73382
G1 X74.494 Y79.063 E88.80071
G1 X74.777 Y79.545 E88.86778
G1 X75.208 Y79.9 E88.93478
G1 X75.734 Y80.086 E89.00173
G1 X76.293 Y80.082 E89.06882
G1 X76.816 Y79.886 E89.13584
G1 X77.241 Y79.523 E89.20291
G1 X77.516 Y79.037 E89.26992
G1 X77.608 Y78.485 E89.33707
G1 X77.506 Y77.937 E89.40396
G1 X77.223 Y77.455 E89.47103
G1 X76.792 Y77.1 E89.53804
G1 X76.266 Y76.914 E89.60499
G1 X75.707 Y76.918 E89.67207
G0 F3600 X75.689 Y76.82
G0 X70.191 Y77.954
G0 X70.094 Y77.977
G1 F1200 X69.819 Y77.34 E89.75533
G1 X69.358 Y76.823 E89.83845
G1 X68.757 Y76.48 E89.92149
G1 X68.078 Y76.343 E90.00461
G1 X67.392 Y76.43 E90.08759
G1 X66.767 Y76.729 E90.17073
G1 X66.269 Y77.211 E90.2539
G1 X65.951 Y77.825 E90.33688
G1 X65.842 Y78.508 E90.41987
G1 X65.956 Y79.192 E90.50309
G1 X66.28 Y79.803 E90.58608
G1 X66.78 Y80.28 E90.669
G1 X67.409 Y80.576 E90.75242
G1 X68.095 Y80.655 E90.83528
G1 X68.773 Y80.514 E90.91839
G1 X69.371 Y80.166 E91.00141
G1 X69.828 Y79.646 E91.08448
G1 X70.088 Y79.03 E91.16472
G1 X70.146 Y78.656 E91.21014
G1 X70.094 Y77.977 E91.29185
G0 F3600 X70.191 Y77.954
G0 X69.383 Y76.792
G0 X56.292 Y72.408
G0 X56.23 Y72.33
G1 F1200 X56.816 Y71.748 E91.39096
G1 X57.237 Y71.082 E91.48551
G1 X57.507 Y70.323 E91.58218
G1 X57.6 Y69.535 E91.6774
G1 X57.6 Y50.467 E93.96556
G1 X57.518 Y49.718 E94.05598
G1 X57.256 Y48.956 E94.15267
G1 X56.83 Y48.27 E94.24957
G1 X56.248 Y47.684 E94.34868
G1 X55.582 Y47.263 E94.44323
G1 X54.823 Y46.993 E94.5399
G1 X54.035 Y46.9 E94.63512
G1 X30.452 Y46.901 E97.46508
G1 X29.528 Y46.982 E97.57638
G1 X28.586 Y47.235 E97.69343
G1 X27.701 Y47.646 E97.81052
G1 X26.901 Y48.206 E97.9277
G1 X26.21 Y48.897 E98.04497
G1 X25.65 Y49.696 E98.16206
G1 X25.238 Y50.581 E98.2792
G1 X24.985 Y51.523 E98.39625
G1 X24.901 Y52.46 E98.50914
G1 X24.9 Y67.538 E100.3185
G1 X24.978 Y68.452 E100.42858
G1 X25.228 Y69.395 E100.54564
G1 X25.638 Y70.282 E100.66291
G1 X26.194 Y71.082 E100.77981
G1 X26.88 Y71.775 E100.89683
G1 X27.679 Y72.339 E101.01419
G1 X28.562 Y72.754 E101.13127
G1 X29.502 Y73.011 E101.24821
G1 X30.473 Y73.1 E101.36522
G1 X54.033 Y73.1 E104.19242
G1 X54.782 Y73.018 E104.28283
G1 X55.544 Y72.756 E104.37953
G1 X56.23 Y72.33 E104.47643
G0 F3600 X56.292 Y72.408
G0 X54.191 Y77.954
G0 X54.094 Y77.977
G1 F1200 X53.819 Y77.34 E104.55969
G1 X53.358 Y76.823 E104.64281
G1 X52.757 Y76.48 E104.72585
G1 X52.078 Y76.343 E104.80897
G1 X51.391 Y76.43 E104.89207
G1 X50.768 Y76.729 E104.97499
G1 X50.27 Y77.211 E105.05816
G1 X49.951 Y77.825 E105.14119
G1 X49.842 Y78.508 E105.22419
G1 X49.956 Y79.192 E105.3074
G1 X50.281 Y79.803 E105.39045
G1 X50.781 Y80.28 E105.47337
G1 X51.408 Y80.576 E105.55657
G1 X52.095 Y80.655 E105.63956
G1 X52.773 Y80.514 E105.72266
G1 X53.371 Y80.166 E105.80568
G1 X53.828 Y79.646 E105.88876
G1 X54.088 Y79.03 E105.96899
G1 X54.146 Y78.656 E106.01441
G1 X54.094 Y77.977 E106.09613
G0 F3600 X54.191 Y77.954
G0 X53.383 Y76.792
G0 X52.212 Y76.331
G0 X43.689 Y76.82
G0 X43.707 Y76.918
G1 F1200 X43.184 Y77.114 E106.16315
G1 X42.759 Y77.477 E106.23022
G1 X42.484 Y77.963 E106.29723
G1 X42.392 Y78.515 E106.36438
G1 X42.494 Y79.063 E106.43127
G1 X42.777 Y79.545 E106.49835
G1 X43.208 Y79.9 E106.56535
G1 X43.734 Y80.086 E106.6323
G1 X44.293 Y80.082 E106.69938
G1 X44.816 Y79.886 E106.76641
G1 X45.241 Y79.523 E106.83348
G1 X45.516 Y79.037 E106.90049
G1 X45.608 Y78.485 E106.96764
G1 X45.506 Y77.937 E107.03453
G1 X45.223 Y77.455 E107.1016
G1 X44.792 Y77.1 E107.16861
G1 X44.266 Y76.914 E107.23556
G1 X43.707 Y76.918 E107.30264
G0 F3600 X43.689 Y76.82
G0 X35.689 Y76.82
G0 X35.707 Y76.918
G1 F1200 X35.184 Y77.114 E107.36966
G1 X34.759 Y77.477 E107.43673
G1 X34.484 Y77.963 E107.50374
G1 X34.392 Y78.515 E107.57089
G1 X34.494 Y79.063 E107.63778
G1 X34.777 Y79.545 E107.70486
G1 X35.208 Y79.9 E107.77186
G1 X35.734 Y80.086 E107.83881
G1 X36.293 Y80.082 E107.90589
G1 X36.816 Y79.886 E107.97292
G1 X37.241 Y79.523 E108.03999
G1 X37.516 Y79.037 E108.107
G1 X37.608 Y78.485 E108.17415
G1 X37.506 Y77.937 E108.24104
G1 X37.223 Y77.455 E108.30811
G1 X36.792 Y77.1 E108.37512
G1 X36.266 Y76.914 E108.44207
G1 X35.707 Y76.918 E108.50915
G0 F3600 X35.689 Y76.82
G0 X27.191 Y75.954
G0 X27.094 Y75.977
G1 F1200 X26.819 Y75.34 E108.59241
G1 X26.358 Y74.823 E108.67553
G1 X25.757 Y74.48 E108.75857
G1 X25.078 Y74.343 E108.84169
G1 X24.391 Y74.43 E108.92479
G1 X23.768 Y74.729 E109.00771
G1 X23.27 Y75.211 E109.09088
G1 X22.951 Y75.825 E109.17391
G1 X22.842 Y76.508 E109.25691
G1 X22.956 Y77.192 E109.34012
G1 X23.281 Y77.803 E109.42317
G1 X23.781 Y78.28 E109.50609
G1 X24.408 Y78.576 E109.58929
G1 X25.095 Y78.655 E109.67228
G1 X25.773 Y78.514 E109.75538
G1 X26.371 Y78.166 E109.8384
G1 X26.828 Y77.646 E109.92148
G1 X27.088 Y77.03 E110.00171
G1 X27.146 Y76.656 E110.04713
G1 X27.094 Y75.977 E110.12885
G0 F3600 X26.7 Y76.074
;TYPE:WALL-OUTER
G1 F1200 X26.477 Y75.558 E110.1963
G1 X26.103 Y75.138 E110.26379
G1 X25.615 Y74.859 E110.33124
G1 X25.063 Y74.748 E110.39881
G1 X24.506 Y74.819 E110.46619
G1 X23.999 Y75.062 E110.53366
G1 X23.595 Y75.453 E110.60112
G1 X23.336 Y75.952 E110.66859
G1 X23.247 Y76.507 E110.73604
G1 X23.34 Y77.062 E110.80357
G1 X23.604 Y77.558 E110.871
G1 X24.01 Y77.946 E110.93839
G1 X24.519 Y78.186 E111.00592
G1 X25.077 Y78.25 E111.07331
G1 X25.628 Y78.136 E111.14083
G1 X26.114 Y77.853 E111.20832
G1 X26.485 Y77.431 E111.27575
G1 X26.7 Y76.92 E111.34228
G1 X26.744 Y76.64 E111.37629
G1 X26.7 Y76.074 E111.44441
G0 F3600 X26.621 Y75.891
G0 X27.08 Y75.694
G0 X35.779 Y76.817
G0 X35.781 Y77.317
G1 F1200 X35.39 Y77.464 E111.49454
G1 X35.072 Y77.735 E111.54468
G1 X34.867 Y78.098 E111.5947
G1 X34.798 Y78.511 E111.64495
G1 X34.874 Y78.921 E111.69499
G1 X35.086 Y79.281 E111.74512
G1 X35.408 Y79.547 E111.79524
G1 X35.801 Y79.686 E111.84526
G1 X36.219 Y79.683 E111.89543
G1 X36.61 Y79.536 E111.94555
G1 X36.928 Y79.265 E111.99569
G1 X37.133 Y78.902 E112.04572
G1 X37.202 Y78.489 E112.09596
G1 X37.126 Y78.079 E112.146
G1 X36.914 Y77.719 E112.19613
G1 X36.592 Y77.453 E112.24625
G1 X36.199 Y77.314 E112.29628
