;FLAVOR:UltiGCode
;TIME:7875
;MATERIAL:6726
;MATERIAL2:0
;NOZZLE_DIAMETER:0.4
;MINX:19.297
;MINY:33.4
;MINZ:0.3
;MAXX:100.703
;MAXY:86.6
;MAXZ:31.1
;Generated with Cura_SteamEngine 4.7.1
M82 ;absolute extrusion mode
G0 F3000 Y50 ;avoid prime blob
G92 E0
G92 E0
G10
;LAYER_COUNT:309
;LAYER:0
M107
G0 F3600 X35.515 Y34.893 Z0.3
;TYPE:SKIRT
G11
G1 F1200 X36.002 Y34.422 E0.0813
G1 X36.414 Y34.079 E0.14563
G1 X36.873 Y33.801 E0.21003
G1 X37.368 Y33.594 E0.27441
G1 X37.888 Y33.463 E0.33876
G1 X38.531 Y33.407 E0.41621
G1 X39.018 Y33.4 E0.47466
G1 X80.844 Y33.4 E5.49378
G1 X81.546 Y33.41 E5.57803
G1 X82.08 Y33.458 E5.64237
G1 X82.602 Y33.584 E5.7068
G1 X83.098 Y33.787 E5.77112
G1 X83.559 Y34.061 E5.83547
G1 X84.095 Y34.512 E5.91953
G1 X84.357 Y34.765 E5.96324
G1 X85.602 Y36.011 E6.1746
G1 X86.074 Y36.497 E6.2559
G1 X86.417 Y36.908 E6.32014
G1 X86.696 Y37.366 E6.3845
G1 X86.91 Y37.878 E6.45109
G1 X87.229 Y38.846 E6.57339
G1 X88.112 Y41.399 E6.89756
G1 X89.088 Y43.984 E7.22913
G1 X90.123 Y46.508 E7.55649
G1 X91.225 Y48.989 E7.88225
G1 X92.394 Y51.438 E8.2079
G1 X92.603 Y51.849 E8.26323
G1 X92.883 Y52.425 E8.34008
G1 X93.081 Y52.924 E8.4045
G1 X93.202 Y53.446 E8.46881
G1 X93.254 Y54.233 E8.56345
G1 X93.256 Y54.347 E8.57713
G1 X93.256 Y65.343 E9.89665
G1 X93.246 Y66.047 E9.98114
G1 X93.198 Y66.581 E10.04548
G1 X93.072 Y67.102 E10.1098
G1 X92.862 Y67.614 E10.17621
G1 X92.723 Y67.89 E10.21329
G1 X91.5 Y70.405 E10.54888
G1 X90.386 Y72.873 E10.87382
G1 X89.337 Y75.382 E11.20015
G1 X88.362 Y77.911 E11.52541
G1 X87.444 Y80.512 E11.85639
G1 X87.27 Y81.052 E11.92448
G1 X86.902 Y82.144 E12.06276
G1 X86.694 Y82.638 E12.12708
G1 X86.414 Y83.095 E12.19139
G1 X85.988 Y83.596 E12.27031
G1 X85.714 Y83.878 E12.31749
G1 X84.495 Y85.096 E12.52428
G1 X84.001 Y85.575 E12.60685
G1 X83.589 Y85.918 E12.67118
G1 X83.131 Y86.197 E12.73553
G1 X82.637 Y86.404 E12.79981
G1 X82.117 Y86.536 E12.86419
G1 X81.617 Y86.588 E12.92451
G1 X80.982 Y86.6 E13.00072
G1 X39.156 Y86.6 E18.01984
G1 X38.454 Y86.59 E18.10409
G1 X37.92 Y86.542 E18.16843
G1 X37.398 Y86.416 E18.23287
G1 X36.902 Y86.213 E18.29718
G1 X36.441 Y85.939 E18.36154
G1 X35.905 Y85.488 E18.4456
G1 X35.613 Y85.205 E18.49439
G1 X34.401 Y83.993 E18.70008
G1 X33.93 Y83.509 E18.78112
G1 X33.586 Y83.098 E18.84543
G1 X33.306 Y82.64 E18.90985
G1 X33.091 Y82.125 E18.97682
G1 X32.771 Y81.154 E19.0995
G1 X31.888 Y78.601 E19.42367
G1 X30.912 Y76.016 E19.75524
G1 X29.877 Y73.492 E20.0826
G1 X28.775 Y71.011 E20.40837
G1 X27.606 Y68.562 E20.73401
G1 X27.398 Y68.152 E20.78918
G1 X27.128 Y67.597 E20.86324
G1 X26.939 Y67.127 E20.92403
G1 X26.808 Y66.607 E20.98838
G1 X26.756 Y66.096 E21.05002
G1 X26.744 Y65.653 E21.1032
G1 X26.744 Y54.657 E22.42272
G1 X26.754 Y53.952 E22.50733
G1 X26.802 Y53.418 E22.57167
G1 X26.928 Y52.897 E22.63599
G1 X27.138 Y52.385 E22.7024
G1 X27.281 Y52.101 E22.74055
G1 X28.494 Y49.607 E23.07335
G1 X29.62 Y47.113 E23.40172
G1 X30.66 Y44.626 E23.7252
G1 X31.655 Y42.04 E24.0577
G1 X32.556 Y39.488 E24.38247
G1 X32.74 Y38.916 E24.45457
G1 X33.098 Y37.855 E24.58894
G1 X33.307 Y37.361 E24.65331
G1 X33.587 Y36.904 E24.71763
G1 X34.012 Y36.404 E24.79637
G1 X34.285 Y36.123 E24.84339
G1 X35.515 Y34.893 E25.05212
G0 F3600 X35.793 Y35.181
G1 F1200 X36.28 Y34.71 E25.13342
G1 X36.67 Y34.388 E25.19411
G1 X37.106 Y34.132 E25.25479
G1 X37.577 Y33.948 E25.31547
G1 X38.071 Y33.84 E25.37615
G1 X38.614 Y33.805 E25.44144
G1 X39.023 Y33.8 E25.49052
G1 X80.839 Y33.8 E30.50844
G1 X81.541 Y33.81 E30.59269
G1 X82.044 Y33.857 E30.65332
G1 X82.534 Y33.983 E30.71403
G1 X82.997 Y34.185 E30.77465
G1 X83.424 Y34.456 E30.83534
G1 X83.823 Y34.805 E30.89895
G1 X84.046 Y35.02 E30.93612
G1 X85.315 Y36.29 E31.15156
G1 X85.787 Y36.776 E31.23286
G1 X86.109 Y37.165 E31.29346
G1 X86.366 Y37.6 E31.35408
G1 X86.53 Y38.003 E31.4063
G1 X86.849 Y38.971 E31.5286
G1 X87.728 Y41.515 E31.85159
G1 X88.72 Y44.141 E32.18844
G1 X89.746 Y46.644 E32.51306
G1 X90.876 Y49.189 E32.84721
G1 X92.042 Y51.63 E33.17183
G1 X92.243 Y52.024 E33.22491
G1 X92.523 Y52.6 E33.30176
G1 X92.707 Y53.071 E33.36244
G1 X92.815 Y53.565 E33.42312
G1 X92.854 Y54.246 E33.50498
G1 X92.856 Y54.347 E33.5171
G1 X92.856 Y65.337 E34.8359
G1 X92.846 Y66.041 E34.92039
G1 X92.799 Y66.545 E34.98113
G1 X92.673 Y67.034 E35.04173
G1 X92.344 Y67.754 E35.13672
G1 X91.14 Y70.231 E35.46721
G1 X90.023 Y72.704 E35.79284
G1 X88.966 Y75.233 E36.12176
G1 X87.984 Y77.778 E36.44911
G1 X87.071 Y80.363 E36.77809
G1 X86.891 Y80.924 E36.84879
G1 X86.523 Y82.016 E36.98707
G1 X86.325 Y82.481 E37.04772
G1 X86.055 Y82.908 E37.10834
G1 X85.694 Y83.324 E37.17444
G1 X85.431 Y83.595 E37.21975
G1 X84.217 Y84.808 E37.42569
G1 X83.723 Y85.287 E37.50826
G1 X83.333 Y85.61 E37.56903
G1 X82.897 Y85.866 E37.6297
G1 X82.427 Y86.051 E37.69031
G1 X81.933 Y86.16 E37.75102
G1 X81.386 Y86.195 E37.81679
G1 X80.977 Y86.2 E37.86588
G1 X39.161 Y86.2 E42.8838
G1 X38.459 Y86.19 E42.96804
G1 X37.956 Y86.143 E43.02867
G1 X37.466 Y86.017 E43.08938
G1 X37.003 Y85.815 E43.15
G1 X36.576 Y85.544 E43.21069
G1 X36.177 Y85.195 E43.2743
G1 X35.896 Y84.922 E43.32131
G1 X34.688 Y83.714 E43.52632
G1 X34.217 Y83.23 E43.60736
G1 X33.894 Y82.841 E43.66803
G1 X33.636 Y82.406 E43.72872
G1 X33.471 Y82 E43.78131
G1 X33.151 Y81.029 E43.904
G1 X32.272 Y78.485 E44.22699
G1 X31.28 Y75.859 E44.56384
G1 X30.254 Y73.356 E44.88845
G1 X29.121 Y70.805 E45.22341
G1 X27.958 Y68.37 E45.54723
G1 X27.757 Y67.977 E45.6002
G1 X27.487 Y67.422 E45.67426
G1 X27.318 Y67.001 E45.7287
G1 X27.197 Y66.51 E45.78938
G1 X27.145 Y65.748 E45.88103
G1 X27.144 Y54.663 E47.21123
G1 X27.154 Y53.958 E47.29584
G1 X27.201 Y53.454 E47.35659
G1 X27.327 Y52.965 E47.41718
G1 X27.656 Y52.245 E47.51217
G1 X28.86 Y49.768 E47.84267
G1 X29.977 Y47.296 E48.16819
G1 X31.044 Y44.745 E48.50001
G1 X32.031 Y42.18 E48.82981
G1 X32.929 Y39.637 E49.15343
G1 X33.119 Y39.044 E49.22816
G1 X33.477 Y37.983 E49.36253
G1 X33.676 Y37.518 E49.42322
G1 X33.946 Y37.091 E49.48385
G1 X34.306 Y36.676 E49.54978
G1 X34.568 Y36.406 E49.59492
G1 X35.793 Y35.181 E49.80281
G10
;MESH:body_shell_2.stl
G0 F3600 X37.586 Y36.974
G0 X38.494 Y37.882
G0 X40.55 Y38.447
G0 X41.348 Y39.08
G0 X41.583 Y39.707
;TYPE:WALL-INNER
G11
G1 F1200 X41.386 Y39.184 E49.86988
G1 X41.023 Y38.759 E49.93695
G1 X40.537 Y38.484 E50.00396
G1 X39.985 Y38.392 E50.07111
G1 X39.437 Y38.494 E50.138
G1 X38.955 Y38.777 E50.20507
G1 X38.6 Y39.208 E50.27208
G1 X38.414 Y39.734 E50.33903
G1 X38.418 Y40.293 E50.40611
G1 X38.614 Y40.816 E50.47313
G1 X38.977 Y41.241 E50.5402
G1 X39.463 Y41.516 E50.60721
G1 X40.015 Y41.608 E50.67436
G1 X40.563 Y41.506 E50.74125
G1 X41.045 Y41.223 E50.80833
G1 X41.399 Y40.794 E50.87507
G1 X41.585 Y40.278 E50.94089
G1 X41.583 Y39.707 E51.00941
G0 F3600 X41.681 Y39.689
G0 X41.681 Y46.689
G0 X41.583 Y46.707
G1 F1200 X41.386 Y46.184 E51.07648
G1 X41.023 Y45.759 E51.14355
G1 X40.537 Y45.484 E51.21056
G1 X39.985 Y45.392 E51.27771
G1 X39.437 Y45.494 E51.3446
G1 X38.955 Y45.777 E51.41167
G1 X38.6 Y46.208 E51.47868
G1 X38.414 Y46.734 E51.54563
G1 X38.418 Y47.293 E51.61271
G1 X38.614 Y47.816 E51.67973
G1 X38.977 Y48.241 E51.7468
G1 X39.463 Y48.516 E51.81381
G1 X40.015 Y48.608 E51.88096
G1 X40.563 Y48.506 E51.94785
G1 X41.045 Y48.223 E52.01493
G1 X41.399 Y47.794 E52.08167
G1 X41.585 Y47.278 E52.14749
G1 X41.583 Y46.707 E52.21601
G0 F3600 X41.681 Y46.689
G0 X51.801 Y42.805
G0 X51.896 Y42.835
G1 F1200 X51.794 Y43.518 E52.29888
G1 X51.907 Y44.198 E52.3816
G1 X52.225 Y44.811 E52.46447
G1 X52.717 Y45.295 E52.54729
G1 X53.335 Y45.604 E52.6302
G1 X54.018 Y45.706 E52.71307
G1 X54.698 Y45.593 E52.79579
G1 X55.311 Y45.275 E52.87866
G1 X55.795 Y44.783 E52.96148
G1 X56.104 Y44.165 E53.04439
G1 X56.206 Y43.482 E53.12726
G1 X56.093 Y42.802 E53.20998
G1 X55.775 Y42.189 E53.29285
G1 X55.283 Y41.705 E53.37567
G1 X54.665 Y41.396 E53.45858
G1 X53.982 Y41.294 E53.54145
G1 X53.302 Y41.407 E53.62417
G1 X52.689 Y41.725 E53.70704
G1 X52.205 Y42.217 E53.78986
G1 X51.896 Y42.835 E53.87277
G0 F3600 X51.801 Y42.805
G0 X52.666 Y41.693
G0 X53.912 Y41.266
G0 X63.801 Y42.805
G0 X63.896 Y42.835
G1 F1200 X63.794 Y43.518 E53.95564
G1 X63.907 Y44.198 E54.03836
G1 X64.225 Y44.811 E54.12123
G1 X64.717 Y45.295 E54.20404
G1 X65.335 Y45.604 E54.28696
G1 X66.018 Y45.706 E54.36983
G1 X66.698 Y45.593 E54.45255
G1 X67.311 Y45.275 E54.53541
G1 X67.795 Y44.783 E54.61823
G1 X68.104 Y44.165 E54.70115
G1 X68.206 Y43.482 E54.78402
G1 X68.093 Y42.802 E54.86674
G1 X67.775 Y42.189 E54.9496
G1 X67.283 Y41.705 E55.03242
G1 X66.665 Y41.396 E55.11534
G1 X65.982 Y41.294 E55.19821
G1 X65.302 Y41.407 E55.28092
G1 X64.689 Y41.725 E55.36379
G1 X64.205 Y42.217 E55.44661
G1 X63.896 Y42.835 E55.52953
G0 F3600 X63.801 Y42.805
G0 X64.666 Y41.693
G0 X79.985 Y38.352
G0 X81.048 Y38.729
G0 X81.681 Y39.689
G0 X81.583 Y39.707
G1 F1200 X81.386 Y39.184 E55.59659
G1 X81.023 Y38.759 E55.66366
G1 X80.537 Y38.484 E55.73067
G1 X79.985 Y38.392 E55.79782
G1 X79.437 Y38.494 E55.86471
G1 X78.955 Y38.777 E55.93179
G1 X78.6 Y39.208 E55.99879
G1 X78.414 Y39.734 E56.06574
G1 X78.418 Y40.293 E56.13282
G1 X78.614 Y40.816 E56.19985
G1 X78.977 Y41.241 E56.26692
G1 X79.463 Y41.516 E56.33393
G1 X80.015 Y41.608 E56.40108
G1 X80.563 Y41.506 E56.46797
G1 X81.045 Y41.223 E56.53504
G1 X81.399 Y40.794 E56.60179
G1 X81.585 Y40.278 E56.66761
G1 X81.583 Y39.707 E56.73613
G0 F3600 X81.681 Y39.689
G0 X81.681 Y46.689
G0 X81.583 Y46.707
G1 F1200 X81.386 Y46.184 E56.80319
G1 X81.023 Y45.759 E56.87026
G1 X80.537 Y45.484 E56.93727
G1 X79.985 Y45.392 E57.00442
G1 X79.437 Y45.494 E57.07131
G1 X78.955 Y45.777 E57.13839
G1 X78.6 Y46.208 E57.20539
G1 X78.414 Y46.734 E57.27234
G1 X78.418 Y47.293 E57.33942
G1 X78.614 Y47.816 E57.40645
G1 X78.977 Y48.241 E57.47352
G1 X79.463 Y48.516 E57.54053
G1 X80.015 Y48.608 E57.60768
G1 X80.563 Y48.506 E57.67457
G1 X81.045 Y48.223 E57.74164
G1 X81.399 Y47.794 E57.80839
G1 X81.585 Y47.278 E57.87421
G1 X81.583 Y46.707 E57.94273
G0 F3600 X81.681 Y46.689
G0 X85.709 Y65.65
G0 X85.747 Y65.742
G1 F1200 X84.953 Y66.167 E58.0508
G1 X84.256 Y66.737 E58.15884
G1 X83.682 Y67.431 E58.26692
G1 X83.255 Y68.223 E58.37489
G1 X82.991 Y69.083 E58.48284
G1 X82.9 Y69.969 E58.58972
G1 X82.9 Y80.752 E59.88368
G1 X81.252 Y82.4 E60.16336
G1 X38.748 Y82.4 E65.26384
G1 X37.1 Y80.752 E65.54351
G1 X37.099 Y69.951 E66.83963
G1 X37.015 Y69.106 E66.94153
G1 X36.756 Y68.244 E67.04954
G1 X36.331 Y67.449 E67.15772
G1 X35.761 Y66.753 E67.26567
G1 X35.067 Y66.18 E67.37367
G1 X34.275 Y65.754 E67.48159
G1 X33.413 Y65.49 E67.58977
G1 X32.537 Y65.401 E67.69543
G1 X30.944 Y65.4 E67.88659
G1 X30.944 Y54.6 E69.18259
G1 X32.536 Y54.6 E69.37363
G1 X33.39 Y54.516 E69.4766
G1 X34.253 Y54.258 E69.58469
G1 X35.047 Y53.833 E69.69276
G1 X35.744 Y53.263 E69.80081
G1 X36.318 Y52.569 E69.90888
G1 X36.745 Y51.777 E70.01686
G1 X37.009 Y50.917 E70.12481
G1 X37.1 Y50.031 E70.23169
G1 X37.1 Y39.248 E71.52565
G1 X38.748 Y37.6 E71.80532
G1 X81.252 Y37.6 E76.9058
G1 X82.9 Y39.248 E77.18548
G1 X82.901 Y50.049 E78.4816
G1 X82.985 Y50.894 E78.5835
G1 X83.244 Y51.756 E78.69151
G1 X83.669 Y52.551 E78.79968
G1 X84.239 Y53.247 E78.90764
G1 X84.933 Y53.82 E79.01564
G1 X85.725 Y54.246 E79.12355
G1 X86.587 Y54.51 E79.23173
G1 X87.463 Y54.599 E79.3374
G1 X89.056 Y54.6 E79.52856
G1 X89.056 Y65.4 E80.82456
G1 X87.464 Y65.4 E81.0156
G1 X86.61 Y65.484 E81.11857
G1 X85.747 Y65.742 E81.22666
G0 F3600 X85.709 Y65.65
G0 X84.931 Y66.134
G0 X84.228 Y66.709
G0 X83.649 Y67.409
G0 X81.681 Y72.689
G0 X81.583 Y72.707
G1 F1200 X81.386 Y72.184 E81.29372
G1 X81.023 Y71.759 E81.36079
G1 X80.537 Y71.484 E81.4278
G1 X79.985 Y71.392 E81.49496
G1 X79.437 Y71.494 E81.56185
G1 X78.955 Y71.777 E81.62892
G1 X78.6 Y72.208 E81.69592
G1 X78.414 Y72.734 E81.76287
G1 X78.418 Y73.293 E81.82996
G1 X78.614 Y73.816 E81.89698
G1 X78.977 Y74.241 E81.96405
G1 X79.463 Y74.516 E82.03106
G1 X80.015 Y74.608 E82.09821
G1 X80.563 Y74.506 E82.1651
G1 X81.045 Y74.223 E82.23217
G1 X81.399 Y73.794 E82.29892
G1 X81.585 Y73.278 E82.36474
G1 X81.583 Y72.707 E82.43326
G0 F3600 X81.681 Y72.689
G0 X81.681 Y79.689
G0 X81.583 Y79.707
G1 F1200 X81.386 Y79.184 E82.50032
G1 X81.023 Y78.759 E82.56739
G1 X80.537 Y78.484 E82.6344
G1 X79.985 Y78.392 E82.70156
G1 X79.437 Y78.494 E82.76845
G1 X78.955 Y78.777 E82.83552
G1 X78.6 Y79.208 E82.90252
G1 X78.414 Y79.734 E82.96947
G1 X78.418 Y80.293 E83.03656
G1 X78.614 Y80.816 E83.10358
G1 X78.977 Y81.241 E83.17065
G1 X79.463 Y81.516 E83.23766
G1 X80.015 Y81.608 E83.30481
G1 X80.563 Y81.506 E83.3717
G1 X81.045 Y81.223 E83.43877
G1 X81.399 Y80.794 E83.50552
G1 X81.585 Y80.278 E83.57134
G1 X81.583 Y79.707 E83.63986
G0 F3600 X81.681 Y79.689
G0 X81.048 Y78.729
G0 X66.677 Y74.358
G0 X65.29 Y74.37
G0 X64.268 Y75.098
G0 X63.801 Y75.805
G0 X63.896 Y75.835
G1 F1200 X63.794 Y76.518 E83.72273
G1 X63.907 Y77.198 E83.80545
G1 X64.225 Y77.811 E83.88832
G1 X64.717 Y78.295 E83.97113
G1 X65.335 Y78.604 E84.05405
G1 X66.018 Y78.706 E84.13692
G1 X66.698 Y78.593 E84.21964
G1 X67.311 Y78.275 E84.3025
G1 X67.795 Y77.783 E84.38532
G1 X68.104 Y77.165 E84.46824
G1 X68.206 Y76.482 E84.55111
G1 X68.093 Y75.802 E84.63383
G1 X67.775 Y75.189 E84.71669
G1 X67.283 Y74.705 E84.79951
G1 X66.665 Y74.396 E84.88243
G1 X65.982 Y74.294 E84.9653
G1 X65.302 Y74.407 E85.04801
G1 X64.689 Y74.725 E85.13088
G1 X64.205 Y75.217 E85.2137
G1 X63.896 Y75.835 E85.29662
G0 F3600 X63.801 Y75.805
G0 X53.982 Y74.254
G0 X52.666 Y74.693
G0 X51.801 Y75.805
G0 X51.896 Y75.835
G1 F1200 X51.794 Y76.518 E85.37949
G1 X51.907 Y77.198 E85.4622
G1 X52.225 Y77.811 E85.54507
G1 X52.717 Y78.295 E85.62789
G1 X53.335 Y78.604 E85.71081
G1 X54.018 Y78.706 E85.79367
G1 X54.698 Y78.593 E85.87639
G1 X55.311 Y78.275 E85.95926
G1 X55.795 Y77.783 E86.04208
G1 X56.104 Y77.165 E86.12499
G1 X56.206 Y76.482 E86.20786
G1 X56.093 Y75.802 E86.29058
G1 X55.775 Y75.189 E86.37345
G1 X55.283 Y74.705 E86.45627
G1 X54.665 Y74.396 E86.53918
G1 X53.982 Y74.294 E86.62205
G1 X53.302 Y74.407 E86.70477
G1 X52.689 Y74.725 E86.78764
G1 X52.205 Y75.217 E86.87046
G1 X51.896 Y75.835 E86.95337
G0 F3600 X51.801 Y75.805
G0 X44.783 Y70.607
G0 X44.809 Y70.511
G1 F1200 X45.459 Y70.6 E87.0321
G1 X74.538 Y70.6 E90.52158
G1 X75.158 Y70.521 E90.59658
G1 X75.786 Y70.265 E90.67796
G1 X76.328 Y69.855 E90.75952
G1 X76.746 Y69.318 E90.84118
G1 X77.011 Y68.691 E90.92286
G1 X77.098 Y68.056 E90.99977
G1 X77.1 Y67.702 E91.04225
G1 X77.1 Y51.962 E92.93105
G1 X77.021 Y51.342 E93.00606
G1 X76.765 Y50.714 E93.08744
G1 X76.355 Y50.172 E93.16899
G1 X75.818 Y49.754 E93.25065
G1 X75.191 Y49.489 E93.33233
G1 X74.541 Y49.4 E93.41106
G1 X45.462 Y49.4 E96.90054
G1 X44.842 Y49.479 E96.97554
G1 X44.214 Y49.735 E97.05692
G1 X43.672 Y50.145 E97.13848
G1 X43.254 Y50.682 E97.22014
G1 X42.989 Y51.309 E97.30182
G1 X42.902 Y51.944 E97.37873
G1 X42.9 Y52.298 E97.42122
G1 X42.9 Y68.038 E99.31002
G1 X42.979 Y68.658 E99.38502
G1 X43.235 Y69.286 E99.4664
G1 X43.645 Y69.828 E99.54795
G1 X44.182 Y70.246 E99.62961
G1 X44.809 Y70.511 E99.7113
G0 F3600 X44.783 Y70.607
G0 X41.681 Y72.689
G0 X41.583 Y72.707
G1 F1200 X41.386 Y72.184 E99.77836
G1 X41.023 Y71.759 E99.84543
G1 X40.537 Y71.484 E99.91244
G1 X39.985 Y71.392 E99.97959
G1 X39.437 Y71.494 E100.04648
G1 X38.955 Y71.777 E100.11356
G1 X38.6 Y72.208 E100.18056
G1 X38.414 Y72.734 E100.24751
G1 X38.418 Y73.293 E100.31459
G1 X38.614 Y73.816 E100.38162
G1 X38.977 Y74.241 E100.44869
G1 X39.463 Y74.516 E100.5157
G1 X40.015 Y74.608 E100.58285
G1 X40.563 Y74.506 E100.64974
G1 X41.045 Y74.223 E100.71681
G1 X41.399 Y73.794 E100.78356
G1 X41.585 Y73.278 E100.84938
G1 X41.583 Y72.707 E100.9179
G0 F3600 X41.681 Y72.689
G0 X41.681 Y79.689
G0 X41.583 Y79.707
G1 F1200 X41.386 Y79.184 E100.98496
G1 X41.023 Y78.759 E101.05203
G1 X40.537 Y78.484 E101.11904
G1 X39.985 Y78.392 E101.18619
G1 X39.437 Y78.494 E101.25308
G1 X38.955 Y78.777 E101.32016
G1 X38.6 Y79.208 E101.38716
G1 X38.414 Y79.734 E101.45411
G1 X38.418 Y80.293 E101.52119
G1 X38.614 Y80.816 E101.58822
G1 X38.977 Y81.241 E101.65529
G1 X39.463 Y81.516 E101.7223
G1 X40.015 Y81.608 E101.78945
G1 X40.563 Y81.506 E101.85634
G1 X41.045 Y81.223 E101.92341
G1 X41.399 Y80.794 E101.99015
G1 X41.585 Y80.278 E102.05597
G1 X41.583 Y79.707 E102.1245
G0 F3600 X41.183 Y79.781
