; generated by PrusaSlicer 2.5.2+win64 on 2023-06-05 at 20:28:54 UTC

; 

; external perimeters extrusion width = 0.42mm
; perimeters extrusion width = 0.44mm
; infill extrusion width = 0.44mm
; solid infill extrusion width = 0.44mm
; top infill extrusion width = 0.40mm
; support material extrusion width = 0.36mm
; first layer extrusion width = 0.42mm

M107
;TYPE:Custom
G90 ; use absolute coordinates
M83 ; extruder relative mode
M140 S60 ; set final bed temp
M104 S150 ; set temporary nozzle temp to prevent oozing during homing
G4 S10 ; allow partial nozzle warmup
G28 ; home all axis
G1 Z50 F240
G1 X2 Y10 F3000
M104 S210 ; set final nozzle temp
M190 S60 ; wait for bed temp to stabilize
M109 S210 ; wait for nozzle temp to stabilize
G1 Z0.28 F240
G92 E0
G1 Y140 E10 F1500 ; prime the nozzle
G1 X2.3 F5000
G92 E0
G1 Y10 E10 F1200 ; prime the nozzle
G92 E0
G21 ; set units to millimeters
G90 ; use absolute coordinates
M83 ; use relative distances for extrusion
; Filament gcode
M107
;LAYER_CHANGE
;Z:0.2
;HEIGHT:0.2
;BEFORE_LAYER_CHANGE
G92 E0
;0.2


G1 E-5 F3600
G1 Z.2 F9000
;AFTER_LAYER_CHANGE
;0.2
G1 X99.282 Y98.788
G1 E5 F2400
M204 S500
;TYPE:Skirt/Brim
;WIDTH:0.42
G1 F1200
G1 X100.366 Y97.816 E.04566
G1 X101.958 Y96.621 E.06241
G1 X103.663 Y95.593 E.06241
G1 X105.462 Y94.742 E.06241
G1 X107.337 Y94.076 E.06241
G1 X109.27 Y93.602 E.06241
G1 X111.241 Y93.325 E.06241
G1 X113.23 Y93.248 E.06241
G1 X115.2 Y93.369 E.06189
G1 X117.181 Y93.693 E.06292
G1 X119.102 Y94.212 E.06241
G1 X120.947 Y94.915 E.06189
G1 X122.631 Y95.752 E.05897
G1 X124.306 Y96.801 E.06198
G1 X125.879 Y98.021 E.0624
G1 X127.328 Y99.401 E.06273
G1 X128.626 Y100.914 E.0625
G1 X129.763 Y102.547 E.06241
G1 X130.73 Y104.287 E.06241
G1 X131.515 Y106.113 E.06231
G1 X132.114 Y108.011 E.06241
G1 X132.519 Y109.959 E.06241
G1 X132.69 Y111.405 E.04566
G1 X132.751 Y113.395 E.06241
G1 X132.611 Y115.38 E.06241
G1 X132.299 Y117.218 E.05846
G1 X131.777 Y119.139 E.0624
G1 X131.064 Y120.997 E.06241
G1 X130.167 Y122.774 E.0624
G1 X129.104 Y124.441 E.06198
G1 X127.864 Y126.011 E.06273
G1 X126.865 Y127.071 E.04566
G1 X125.392 Y128.384 E.06189
G1 X123.781 Y129.553 E.0624
G1 X122.061 Y130.554 E.0624
G1 X120.248 Y131.376 E.0624
G1 X118.468 Y131.982 E.05898
G1 X116.543 Y132.433 E.06198
G1 X114.556 Y132.692 E.06283
G1 X112.58 Y132.749 E.06198
G1 X110.595 Y132.606 E.0624
G1 X108.624 Y132.263 E.06273
G1 X106.708 Y131.724 E.0624
G1 X105.345 Y131.21 E.04566
G1 X103.552 Y130.347 E.06241
G1 X101.868 Y129.317 E.06188
G1 X100.282 Y128.114 E.06241
G1 X98.814 Y126.746 E.06292
G1 X97.503 Y125.248 E.06241
G1 X96.417 Y123.733 E.05846
G1 X95.422 Y122.009 E.06241
G1 X94.604 Y120.195 E.0624
G1 X93.974 Y118.307 E.06241
G1 X93.539 Y116.382 E.06188
G1 X93.297 Y114.392 E.06283
G1 X93.248 Y112.937 E.04566
G1 X93.354 Y110.949 E.0624
G1 X93.66 Y108.983 E.06241
G1 X94.163 Y107.057 E.06241
G1 X94.85 Y105.207 E.06189
G1 X95.726 Y103.42 E.0624
G1 X96.778 Y101.73 E.0624
G1 X97.995 Y100.155 E.0624
G1 X99.241 Y98.831 E.05699
G1 X99.515 Y99.09 F9000
G1 F1200
G1 X100.603 Y98.109 E.04594
G1 X102.165 Y96.937 E.06121
G1 X103.836 Y95.928 E.06121
G1 X105.601 Y95.092 E.06121
G1 X107.44 Y94.438 E.06121
G1 X109.336 Y93.973 E.06121
G1 X111.27 Y93.701 E.06121
G1 X113.221 Y93.625 E.06121
G1 X115.153 Y93.743 E.0607
G1 X117.096 Y94.061 E.06172
G1 X118.981 Y94.569 E.06121
G1 X120.79 Y95.258 E.06071
G1 X122.451 Y96.084 E.05817
G1 X124.095 Y97.113 E.06079
G1 X125.637 Y98.31 E.06121
G1 X127.058 Y99.664 E.06155
G1 X128.331 Y101.149 E.0613
G1 X129.446 Y102.751 E.06121
G1 X130.393 Y104.458 E.06122
G1 X131.164 Y106.249 E.06113
G1 X131.751 Y108.111 E.06121
G1 X132.148 Y110.023 E.06121
G1 X132.314 Y111.431 E.04446
G1 X132.374 Y113.382 E.06121
G1 X132.251 Y115.217 E.05766
G1 X131.93 Y117.143 E.06122
G1 X131.417 Y119.027 E.06121
G1 X130.717 Y120.849 E.06122
G1 X129.837 Y122.592 E.06121
G1 X128.794 Y124.226 E.06079
G1 X127.577 Y125.767 E.06155
G1 X126.605 Y126.799 E.04446
G1 X125.159 Y128.087 E.06071
G1 X123.579 Y129.234 E.06121
G1 X121.892 Y130.216 E.06121
G1 X120.115 Y131.023 E.06121
G1 X118.358 Y131.621 E.05817
G1 X116.47 Y132.063 E.06079
G1 X114.521 Y132.317 E.06163
G1 X112.583 Y132.372 E.06079
G1 X110.636 Y132.232 E.06121
G1 X108.702 Y131.894 E.06155
G1 X106.823 Y131.365 E.06121
G1 X105.496 Y130.864 E.04446
G1 X103.737 Y130.018 E.06121
G1 X102.085 Y129.009 E.0607
G1 X100.529 Y127.829 E.06122
G1 X99.089 Y126.487 E.06172
G1 X97.873 Y125.107 E.05766
G1 X96.731 Y123.523 E.06121
G1 X95.755 Y121.833 E.06122
G1 X94.953 Y120.053 E.06121
G1 X94.335 Y118.201 E.06122
G1 X93.91 Y116.312 E.0607
G1 X93.672 Y114.361 E.06164
G1 X93.625 Y112.943 E.04446
G1 X93.729 Y110.994 E.06121
G1 X94.028 Y109.065 E.06121
G1 X94.521 Y107.175 E.06121
G1 X95.194 Y105.36 E.06071
G1 X96.054 Y103.607 E.06121
G1 X97.085 Y101.949 E.06121
G1 X98.278 Y100.404 E.06121
G1 X99.474 Y99.133 E.05471
G1 E-3.5 F3600
;WIPE_START
G1 F7200
G1 X100.603 Y98.109 E-.72442
G1 X101.783 Y97.223 E-.70058
;WIPE_END
G1 E-.075 F3600
G1 X101.866 Y101.95 F9000
G1 E5 F2400
;TYPE:External perimeter
;WIDTH:0.420438
G1 F1200
G1 X102.265 Y101.565 E.0174
G1 X103.074 Y100.852 E.03385
G1 X103.51 Y100.513 E.01733
;WIDTH:0.422917
G1 X104.195 Y100.016 E.02674
G1 X104.851 Y99.596 E.02461
;WIDTH:0.420349
G1 X105.325 Y99.323 E.01718
;WIDTH:0.424422
G1 X106.014 Y98.954 E.02479
G1 X106.973 Y98.516 E.03344
;WIDTH:0.42332
G1 X107.464 Y98.321 E.01671
;WIDTH:0.422454
G1 X108.322 Y98.031 E.02859
;WIDTH:0.421726
G1 X109.105 Y97.804 E.02565
G1 X109.899 Y97.627 E.02564
;WIDTH:0.422526
G1 X110.514 Y97.51 E.01977
G1 X111.56 Y97.377 E.03328
;WIDTH:0.421727
G1 X112.082 Y97.338 E.0165
G1 X112.788 Y97.316 E.02224
;WIDTH:0.420484
G1 X113.689 Y97.33 E.02827
;WIDTH:0.421095
G1 X114.786 Y97.415 E.03461
;WIDTH:0.420778
G1 X115.853 Y97.573 E.03388
G1 X116.396 Y97.685 E.01742
;WIDTH:0.420549
G1 X117.44 Y97.953 E.03386
G1 X117.968 Y98.122 E.01741
;WIDTH:0.420347
G1 X118.98 Y98.496 E.03384
G1 X119.487 Y98.719 E.0174
G1 X120.454 Y99.196 E.03384
G1 X120.933 Y99.469 E.01729
;WIDTH:0.423049
G1 X121.599 Y99.877 E.02469
G1 X122.293 Y100.365 E.0268
G1 X122.867 Y100.802 E.0228
G1 X123.294 Y101.16 E.01762
;WIDTH:0.422827
G1 X124.052 Y101.865 E.03271
G1 X124.467 Y102.295 E.01887
;WIDTH:0.422254
G1 X125.117 Y103.033 E.03102
;WIDTH:0.425069
G1 X125.758 Y103.87 E.0335
G1 X126.057 Y104.3 E.01664
;WIDTH:0.421657
G1 X126.339 Y104.739 E.01644
;WIDTH:0.42153
G1 X126.879 Y105.683 E.03424
;WIDTH:0.421248
G1 X127.199 Y106.337 E.02289
;WIDTH:0.420146
G1 X127.565 Y107.172 E.02859
;WIDTH:0.420706
G1 X127.932 Y108.186 E.03388
G1 X128.089 Y108.71 E.0172
;WIDTH:0.423945
G1 X128.318 Y109.607 E.02932
;WIDTH:0.424258
G1 X128.422 Y110.121 E.01661
G1 X128.537 Y110.839 E.02308
;WIDTH:0.425138
G1 X128.634 Y111.69 E.02723
G1 X128.676 Y112.465 E.02467
;WIDTH:0.422526
G1 X128.687 Y113.27 E.0254
;WIDTH:0.424504
G1 X128.669 Y113.793 E.01661
G1 X128.601 Y114.633 E.02673
;WIDTH:0.418618
G1 X128.532 Y115.183 E.01731
;WIDTH:0.422176
G1 X128.419 Y115.901 E.02294
G1 X128.227 Y116.779 E.02834
;WIDTH:0.420608
G1 X128.081 Y117.307 E.0172
;WIDTH:0.422856
G1 X127.895 Y117.929 E.02051
G1 X127.531 Y118.918 E.0333
;WIDTH:0.425896
G1 X127.111 Y119.845 E.03241
;WIDTH:0.421426
G1 X126.867 Y120.34 E.01736
G1 X126.603 Y120.82 E.01723
;WIDTH:0.42593
G1 X126.032 Y121.726 E.03411
;WIDTH:0.424518
G1 X125.438 Y122.561 E.03251
;WIDTH:0.424131
G1 X125.05 Y123.038 E.0195
;WIDTH:0.419716
G1 X124.689 Y123.463 E.01746
;WIDTH:0.423294
G1 X124.043 Y124.144 E.0297
;WIDTH:0.425537
G1 X123.664 Y124.506 E.01666
G1 X122.875 Y125.192 E.03327
;WIDTH:0.425281
G1 X122.452 Y125.521 E.01703
G1 X121.828 Y125.965 E.02435
;WIDTH:0.41837
G1 X120.913 Y126.542 E.03377
;WIDTH:0.424591
G1 X120.223 Y126.927 E.02509
G1 X119.463 Y127.29 E.02673
;WIDTH:0.423975
G1 X118.785 Y127.583 E.0234
G1 X117.804 Y127.935 E.03303
;WIDTH:0.42337
G1 X117.291 Y128.09 E.01694
G1 X116.377 Y128.319 E.02983
;WIDTH:0.420849
G1 X115.84 Y128.429 E.01721
G1 X115.295 Y128.514 E.01734
;WIDTH:0.424188
G1 X114.704 Y128.595 E.0189
;WIDTH:0.424533
G1 X113.657 Y128.675 E.03333
;WIDTH:0.421512
G1 X113.127 Y128.682 E.01667
;WIDTH:0.419661
G1 X112.397 Y128.673 E.02289
;WIDTH:0.421949
G1 X111.547 Y128.621 E.02683
;WIDTH:0.425859
G1 X111.027 Y128.562 E.01667
G1 X109.994 Y128.396 E.0333
;WIDTH:0.425654
G1 X109.351 Y128.257 E.02095
;WIDTH:0.420652
G1 X108.818 Y128.118 E.0173
;WIDTH:0.424214
G1 X107.947 Y127.851 E.02887
G1 X107.28 Y127.602 E.02259
;WIDTH:0.418562
G1 X106.764 Y127.391 E.01741
;WIDTH:0.424445
G1 X106.003 Y127.04 E.02659
G1 X105.538 Y126.799 E.01661
;WIDTH:0.423744
G1 X105.078 Y126.541 E.01669
;WIDTH:0.42332
G1 X104.384 Y126.105 E.02592
;WIDTH:0.418392
G1 X103.927 Y125.792 E.0173
;WIDTH:0.422596
G1 X103.333 Y125.355 E.0233
G1 X102.65 Y124.782 E.02813
;WIDTH:0.423248
G1 X102.147 Y124.327 E.02144
G1 X101.482 Y123.642 E.03019
;WIDTH:0.421887
G1 X101.062 Y123.178 E.01974
;WIDTH:0.422449
G1 X100.722 Y122.764 E.0169
G1 X100.091 Y121.915 E.03337
;WIDTH:0.421715
G1 X99.801 Y121.479 E.0165
;WIDTH:0.425928
G1 X99.258 Y120.553 E.0342
G1 X98.76 Y119.58 E.03479
;WIDTH:0.424032
G1 X98.371 Y118.661 E.03165
;WIDTH:0.424437
G1 X98.027 Y117.677 E.03307
G1 X97.876 Y117.163 E.01699
;WIDTH:0.42379
G1 X97.711 Y116.499 E.02168
;WIDTH:0.425419
G1 X97.534 Y115.617 E.02862
G1 X97.431 Y114.891 E.02331
;WIDTH:0.425075
G1 X97.349 Y114.047 E.02695
G1 X97.319 Y113.263 E.02494
;WIDTH:0.424647
G1 X97.323 Y112.466 E.02527
G1 X97.378 Y111.627 E.02669
;WIDTH:0.422045
G1 X97.466 Y110.818 E.02567
G1 X97.606 Y110.009 E.02587
;WIDTH:0.417474
G1 X97.849 Y108.955 E.03368
;WIDTH:0.419711
G1 X97.993 Y108.437 E.01686
G1 X98.167 Y107.911 E.01736
;WIDTH:0.421707
G1 X98.415 Y107.227 E.02291
G1 X99.019 Y105.883 E.04641
;WIDTH:0.423644
G1 X99.265 Y105.421 E.01658
;WIDTH:0.425002
G1 X99.825 Y104.496 E.03436
;WIDTH:0.421669
G1 X100.099 Y104.074 E.01583
;WIDTH:0.425875
G1 X100.782 Y103.17 E.03609
;WIDTH:0.418968
G1 X101.252 Y102.611 E.02285
;WIDTH:0.420438
G1 X101.825 Y101.994 E.02642
G1 E-3.5 F3600
;WIPE_START
G1 F7200
G1 X102.265 Y101.565 E-.29182
G1 X103.074 Y100.852 E-.51225
G1 X103.51 Y100.513 E-.26224
G1 X104.121 Y100.07 E-.35869
;WIPE_END
G1 E-.075 F3600
G1 X100.41 Y104.29 F9000
G1 E5 F2400
;WIDTH:0.425875
G1 F1200
G1 X101.064 Y103.416 E.03475
;WIDTH:0.419079
G1 X101.523 Y102.872 E.02227
;WIDTH:0.423023
G1 X102.404 Y101.951 E.04029
;WIDTH:0.423828
G1 X103.179 Y101.26 E.03288
G1 X103.569 Y100.941 E.01596
;WIDTH:0.422452
G1 X104.369 Y100.357 E.03124
;WIDTH:0.423933
G1 X105.27 Y99.787 E.03379
;WIDTH:0.422525
G1 X105.965 Y99.403 E.02508
;WIDTH:0.418561
G1 X106.922 Y98.949 E.03308
;WIDTH:0.422355
G1 X107.582 Y98.682 E.02246
;WIDTH:0.42487
G1 X108.074 Y98.509 E.01657
G1 X109.066 Y98.207 E.03292
;WIDTH:0.424538
G1 X109.556 Y98.087 E.01603
G1 X110.485 Y97.898 E.03007
;WIDTH:0.420477
G1 X111.535 Y97.76 E.03325
;WIDTH:0.421156
G1 X112.068 Y97.718 E.01683
;WIDTH:0.42362
G1 X112.615 Y97.697 E.01732
G1 X113.383 Y97.699 E.0243
;WIDTH:0.423338
G1 X114.163 Y97.734 E.0247
;WIDTH:0.421817
G1 X114.669 Y97.781 E.01602
;WIDTH:0.422658
G1 X115.696 Y97.93 E.03278
G1 X116.191 Y98.026 E.01592
;WIDTH:0.423369
G1 X117.198 Y98.279 E.03284
G1 X117.681 Y98.424 E.01595
;WIDTH:0.423993
G1 X118.657 Y98.777 E.0329
G1 X119.123 Y98.968 E.01597
;WIDTH:0.424528
G1 X120.059 Y99.418 E.03294
G1 X120.504 Y99.655 E.01599
;WIDTH:0.422524
G1 X121.332 Y100.157 E.03057
;WIDTH:0.424626
G1 X121.808 Y100.482 E.01829
G1 X122.484 Y100.981 E.02668
;WIDTH:0.422477
G1 X123.027 Y101.43 E.02222
G1 X123.681 Y102.03 E.028
;WIDTH:0.422941
G1 X124.139 Y102.498 E.0207
G1 X124.763 Y103.2 E.02967
;WIDTH:0.419945
G1 X125.204 Y103.758 E.0223
;WIDTH:0.421159
G1 X125.719 Y104.475 E.02776
;WIDTH:0.421261
G1 X126.009 Y104.924 E.01681
;WIDTH:0.42148
G1 X126.536 Y105.843 E.03334
;WIDTH:0.423804
G1 X126.759 Y106.29 E.01585
G1 X127.184 Y107.235 E.0328
;WIDTH:0.422865
G1 X127.539 Y108.204 E.03261
G1 X127.69 Y108.685 E.01593
;WIDTH:0.422193
G1 X127.859 Y109.314 E.02052
;WIDTH:0.421447
G1 X128.014 Y110.005 E.0223
;WIDTH:0.423719
G1 X128.134 Y110.695 E.02216
G1 X128.227 Y111.406 E.0227
;WIDTH:0.424566
G1 X128.288 Y112.229 E.02621
G1 X128.31 Y112.997 E.02437
;WIDTH:0.418023
G1 X128.31 Y112.997 E0
;WIDTH:0.42035
G1 X128.302 Y113.528 E.01668
G1 X128.228 Y114.585 E.03324
;WIDTH:0.418507
G1 X128.163 Y115.116 E.01671
;WIDTH:0.422403
G1 X128.05 Y115.809 E.02215
;WIDTH:0.424926
G1 X127.828 Y116.812 E.03266
;WIDTH:0.42224
G1 X127.571 Y117.703 E.02923
;WIDTH:0.420145
G1 X127.211 Y118.699 E.03323
;WIDTH:0.425896
G1 X126.976 Y119.238 E.01872
G1 X126.54 Y120.148 E.03214
;WIDTH:0.421372
G1 X126.284 Y120.614 E.01673
;WIDTH:0.42593
G1 X125.724 Y121.513 E.03373
;WIDTH:0.421548
G1 X125.262 Y122.166 E.02516
G1 X124.77 Y122.791 E.02506
;WIDTH:0.419897
G1 X124.422 Y123.196 E.01673
;WIDTH:0.423294
G1 X123.774 Y123.876 E.0297
;WIDTH:0.425537
G1 X122.903 Y124.675 E.03762
;WIDTH:0.420321
G1 X122.49 Y125.015 E.01679
;WIDTH:0.42437
G1 X121.809 Y125.518 E.02684
;WIDTH:0.42461
G1 X120.946 Y126.082 E.03273
G1 X120.272 Y126.472 E.02473
;WIDTH:0.425116
G1 X119.593 Y126.813 E.02414
G1 X118.832 Y127.155 E.02651
;WIDTH:0.419099
G1 X117.839 Y127.525 E.03313
;WIDTH:0.420493
G1 X117.329 Y127.686 E.0168
G1 X116.303 Y127.949 E.03325
;WIDTH:0.420777
G1 X115.255 Y128.142 E.0335
;WIDTH:0.424188
G1 X114.664 Y128.216 E.01887
;WIDTH:0.424533
G1 X113.65 Y128.297 E.03227
;WIDTH:0.421512
G1 X113.137 Y128.308 E.01616
;WIDTH:0.423657
G1 X112.614 Y128.302 E.01656
G1 X111.58 Y128.244 E.03279
;WIDTH:0.425859
G1 X110.495 Y128.102 E.03485
;WIDTH:0.423097
G1 X109.554 Y127.915 E.03033
G1 X109.061 Y127.794 E.01604
;WIDTH:0.422245
G1 X108.257 Y127.554 E.02647
;WIDTH:0.419693
G1 X107.426 Y127.257 E.02765
;WIDTH:0.418678
G1 X106.931 Y127.055 E.0167
;WIDTH:0.424445
G1 X105.723 Y126.466 E.04263
;WIDTH:0.423744
G1 X105.279 Y126.218 E.0161
;WIDTH:0.42332
G1 X104.598 Y125.797 E.02534
;WIDTH:0.418286
G1 X104.157 Y125.495 E.01667
;WIDTH:0.421974
G1 X103.588 Y125.073 E.02233
;WIDTH:0.424829
G1 X102.512 Y124.151 E.04499
;WIDTH:0.425683
G1 X102.045 Y123.686 E.02098
G1 X101.409 Y123.001 E.02974
;WIDTH:0.420826
G1 X101.069 Y122.593 E.0167
G1 X100.434 Y121.745 E.03328
;WIDTH:0.421197
G1 X100.136 Y121.3 E.01683
;WIDTH:0.425937
G1 X99.594 Y120.39 E.03374
G1 X99.128 Y119.474 E.03273
;WIDTH:0.422065
G1 X98.798 Y118.708 E.02629
;WIDTH:0.419815
G1 X98.519 Y117.963 E.02494
;WIDTH:0.42166
G1 X98.28 Y117.201 E.02513
;WIDTH:0.423127
G1 X98.114 Y116.567 E.02072
G1 X97.971 Y115.908 E.02132
;WIDTH:0.424131
G1 X97.832 Y115.05 E.02754
G1 X97.75 Y114.33 E.02298
;WIDTH:0.424647
G1 X97.704 Y113.514 E.02594
G1 X97.694 Y112.737 E.02465
;WIDTH:0.425076
G1 X97.73 Y111.973 E.02432
G1 X97.832 Y110.942 E.03292
;WIDTH:0.424419
G1 X97.91 Y110.443 E.01602
;WIDTH:0.425484
G1 X98.116 Y109.443 E.03247
G1 X98.352 Y108.551 E.02935
;WIDTH:0.419535
G1 X98.516 Y108.046 E.01664
;WIDTH:0.423178
G1 X98.725 Y107.475 E.01919
;WIDTH:0.425067
G1 X98.922 Y106.998 E.01642
G1 X99.34 Y106.088 E.03182
;WIDTH:0.423644
G1 X99.598 Y105.606 E.01729
;WIDTH:0.425002
G1 X100.133 Y104.708 E.0332
;WIDTH:0.421669
G1 X100.377 Y104.34 E.01393
G1 E-3.5 F3600
;WIPE_START
G1 F7200
G1 X101.064 Y103.416 E-.54676
G1 X101.523 Y102.872 E-.33815
G1 X102.309 Y102.05 E-.54009
;WIPE_END
G1 E-.075 F3600
G1 X102.174 Y105.48 F9000
G1 E5 F2400
;WIDTH:0.423582
G1 F1200
G1 X102.282 Y105.318 E.00615
;WIDTH:0.424522
G1 X102.869 Y104.559 E.03046
;WIDTH:0.43094
G1 X103.293 Y104.082 E.0206
G1 X103.852 Y103.501 E.02599
;WIDTH:0.422157
G1 X104.55 Y102.881 E.02945
;WIDTH:0.426064
G1 X104.947 Y102.559 E.01628
G1 X105.375 Y102.252 E.01678
;WIDTH:0.430266
G1 X105.868 Y101.914 E.01925
G1 X106.646 Y101.447 E.02922
;WIDTH:0.420759
G1 X107.556 Y100.989 E.032
G1 X108.477 Y100.616 E.03122
;WIDTH:0.431566
G1 X109.21 Y100.373 E.02495
G1 X110.141 Y100.127 E.03113
;WIDTH:0.424544
G1 X110.878 Y99.998 E.02373
;WIDTH:0.417536
G1 X111.89 Y99.864 E.0318
;WIDTH:0.425417
G1 X112.526 Y99.822 E.0203
G1 X113.165 Y99.815 E.02031
;WIDTH:0.424351
G1 X113.97 Y99.848 E.02556
;WIDTH:0.422512
G1 X114.887 Y99.96 E.02916
;WIDTH:0.425715
G1 X115.386 Y100.031 E.01604
G1 X115.88 Y100.143 E.01613
;WIDTH:0.420538
G1 X116.857 Y100.389 E.03161
