; generated by PrusaSlicer 2.5.2+win64 on 2023-06-06 at 06:21:26 UTC

; 

; external perimeters extrusion width = 0.42mm
; perimeters extrusion width = 0.44mm
; infill extrusion width = 0.44mm
; solid infill extrusion width = 0.44mm
; top infill extrusion width = 0.40mm
; support material extrusion width = 0.36mm
; first layer extrusion width = 0.42mm

M107
;TYPE:Custom
G90 ; use absolute coordinates
M83 ; extruder relative mode
M140 S60 ; set final bed temp
M104 S150 ; set temporary nozzle temp to prevent oozing during homing
G4 S10 ; allow partial nozzle warmup
G28 ; home all axis
G1 Z50 F240
G1 X2 Y10 F3000
M104 S210 ; set final nozzle temp
M190 S60 ; wait for bed temp to stabilize
M109 S210 ; wait for nozzle temp to stabilize
G1 Z0.28 F240
G92 E0
G1 Y140 E10 F1500 ; prime the nozzle
G1 X2.3 F5000
G92 E0
G1 Y10 E10 F1200 ; prime the nozzle
G92 E0
G21 ; set units to millimeters
G90 ; use absolute coordinates
M83 ; use relative distances for extrusion
; Filament gcode
M107
;LAYER_CHANGE
;Z:0.2
;HEIGHT:0.2
;BEFORE_LAYER_CHANGE
G92 E0
;0.2


G1 E-5 F3600
G1 Z.2 F9000
;AFTER_LAYER_CHANGE
;0.2
G1 X101.004 Y100.6
G1 E5 F2400
M204 S500
;TYPE:Skirt/Brim
;WIDTH:0.42
G1 F1200
G1 X102.321 Y99.449 E.05487
G1 X103.73 Y98.449 E.05415
G1 X105.228 Y97.597 E.05404
G1 X106.423 Y97.049 E.04122
G1 X108.062 Y96.468 E.05451
G1 X109.75 Y96.055 E.05451
G1 X111.472 Y95.814 E.05451
G1 X113.195 Y95.748 E.05406
G1 X114.807 Y95.841 E.05065
G1 X116.536 Y96.112 E.05486
G1 X118.214 Y96.553 E.05441
G1 X119.846 Y97.162 E.0546
G1 X121.405 Y97.931 E.05451
G1 X122.869 Y98.847 E.05415
G1 X124.243 Y99.912 E.05451
G1 X125.509 Y101.116 E.05477
G1 X126.636 Y102.428 E.05425
G1 X127.619 Y103.836 E.05384
G1 X128.277 Y104.978 E.04133
G1 X129.001 Y106.543 E.05405
G1 X129.535 Y108.068 E.05066
G1 X129.947 Y109.757 E.05451
G1 X130.188 Y111.487 E.05477
G1 X130.253 Y113.227 E.0546
G1 X130.143 Y114.962 E.05451
G1 X129.858 Y116.677 E.05451
G1 X129.406 Y118.344 E.05415
G1 X128.792 Y119.951 E.05394
G1 X128.224 Y121.12 E.04077
G1 X127.33 Y122.611 E.05451
G1 X126.281 Y124.015 E.05496
G1 X125.105 Y125.296 E.05451
G1 X123.806 Y126.451 E.05451
G1 X122.398 Y127.47 E.05451
G1 X120.894 Y128.342 E.05451
G1 X119.323 Y129.053 E.05405
G1 X117.783 Y129.578 E.05102
G1 X116.091 Y129.975 E.0545
G1 X114.367 Y130.2 E.05451
G1 X112.629 Y130.25 E.05451
G1 X110.895 Y130.125 E.05451
G1 X109.183 Y129.826 E.05451
G1 X107.512 Y129.357 E.05441
G1 X105.891 Y128.721 E.0546
G1 X104.74 Y128.148 E.0403
G1 X103.258 Y127.24 E.05451
G1 X101.886 Y126.196 E.05405
G1 X100.604 Y125 E.05496
G1 X99.468 Y123.703 E.05406
G1 X98.452 Y122.275 E.05496
G1 X97.65 Y120.876 E.05056
G1 X96.935 Y119.292 E.05451
G1 X96.385 Y117.646 E.05441
G1 X96.006 Y115.976 E.05368
G1 X95.83 Y114.688 E.04077
G1 X95.747 Y112.937 E.05496
G1 X95.841 Y111.201 E.05451
G1 X96.107 Y109.498 E.05405
G1 X96.545 Y107.815 E.05451
G1 X97.106 Y106.288 E.05101
G1 X97.862 Y104.723 E.05451
G1 X98.766 Y103.251 E.05415
G1 X99.826 Y101.859 E.05486
G1 X100.963 Y100.644 E.05217
G1 X101.238 Y100.902 F9000
G1 F1200
G1 X102.559 Y99.742 E.05512
G1 X103.937 Y98.764 E.05296
G1 X105.399 Y97.933 E.05274
G1 X106.562 Y97.4 E.04012
G1 X108.165 Y96.831 E.05332
G1 X109.803 Y96.429 E.05287
G1 X111.5 Y96.19 E.05376
G1 X113.185 Y96.124 E.05287
G1 X114.773 Y96.217 E.04985
G1 X116.464 Y96.482 E.05367
G1 X118.105 Y96.914 E.05323
G1 X119.701 Y97.51 E.0534
G1 X121.226 Y98.263 E.05332
G1 X122.657 Y99.159 E.05296
G1 X124.001 Y100.201 E.05332
G1 X125.239 Y101.379 E.05358
G1 X126.341 Y102.663 E.05305
G1 X127.302 Y104.04 E.05265
G1 X127.94 Y105.149 E.04012
G1 X128.649 Y106.679 E.05287
G1 X129.175 Y108.18 E.04985
G1 X129.578 Y109.832 E.05332
G1 X129.813 Y111.525 E.05358
G1 X129.876 Y113.227 E.0534
G1 X129.769 Y114.913 E.05296
G1 X129.489 Y116.601 E.05367
G1 X129.046 Y118.231 E.05296
G1 X128.446 Y119.803 E.05275
G1 X127.894 Y120.938 E.03959
G1 X127.019 Y122.397 E.05332
G1 X125.994 Y123.771 E.05376
G1 X124.844 Y125.024 E.05332
G1 X123.574 Y126.154 E.05332
G1 X122.208 Y127.144 E.05287
G1 X120.726 Y128.005 E.05376
G1 X119.19 Y128.701 E.05287
G1 X117.685 Y129.214 E.04985
G1 X116.018 Y129.605 E.05367
G1 X114.332 Y129.824 E.05332
G1 X112.632 Y129.873 E.05332
G1 X110.936 Y129.75 E.05331
G1 X109.261 Y129.457 E.05332
G1 X107.627 Y128.998 E.05323
G1 X106.042 Y128.375 E.0534
G1 X104.925 Y127.819 E.03911
G1 X103.475 Y126.931 E.05332
G1 X102.133 Y125.911 E.05287
G1 X100.878 Y124.742 E.05376
G1 X99.767 Y123.473 E.05288
G1 X98.834 Y122.172 E.0502
G1 X97.983 Y120.7 E.05332
G1 X97.284 Y119.149 E.05332
G1 X96.746 Y117.539 E.05323
G1 X96.377 Y115.907 E.05248
G1 X96.206 Y114.656 E.03958
G1 X96.124 Y112.943 E.05376
G1 X96.216 Y111.245 E.05332
G1 X96.475 Y109.579 E.05287
G1 X96.903 Y107.933 E.05332
G1 X97.455 Y106.43 E.05021
G1 X98.195 Y104.899 E.05331
G1 X99.079 Y103.46 E.05296
G1 X100.117 Y102.099 E.05367
G1 X101.197 Y100.945 E.04954
G1 E-3.5 F3600
;WIPE_START
G1 F7200
G1 X102.559 Y99.742 E-.86336
G1 X103.523 Y99.058 E-.56164
;WIPE_END
G1 E-.075 F3600
G1 X103.852 Y103.508 F9000
G1 E5 F2400
;TYPE:External perimeter
;WIDTH:0.41908
G1 F1200
G1 X104.422 Y102.989 E.02412
;WIDTH:0.426831
G1 X104.884 Y102.608 E.01911
G1 X105.6 Y102.086 E.02829
;WIDTH:0.425086
G1 X106.031 Y101.817 E.01614
;WIDTH:0.418626
G1 X106.83 Y101.349 E.02894
;WIDTH:0.424755
G1 X107.938 Y100.823 E.03893
G1 X108.764 Y100.512 E.02802
;WIDTH:0.424589
G1 X109.612 Y100.256 E.02813
;WIDTH:0.424257
G1 X110.274 Y100.109 E.0215
;WIDTH:0.415873
G1 X111.185 Y99.945 E.0287
;WIDTH:0.422958
G1 X112.236 Y99.834 E.03339
G1 X112.862 Y99.825 E.0198
;WIDTH:0.417704
G1 X113.935 Y99.85 E.03343
G1 X114.851 Y99.952 E.02875
;WIDTH:0.421337
G1 X115.762 Y100.104 E.02906
G1 X116.663 Y100.332 E.02925
;WIDTH:0.422863
G1 X117.964 Y100.783 E.04349
;WIDTH:0.429725
G1 X118.685 Y101.103 E.02536
G1 X119.472 Y101.51 E.0285
;WIDTH:0.424761
G1 X120.229 Y101.97 E.02814
;WIDTH:0.424478
G1 X120.756 Y102.348 E.02058
;WIDTH:0.418353
G1 X121.488 Y102.911 E.02882
G1 X122.175 Y103.532 E.02891
;WIDTH:0.429876
G1 X122.598 Y103.96 E.01937
G1 X123.187 Y104.623 E.02851
;WIDTH:0.423049
G1 X123.726 Y105.325 E.02799
;WIDTH:0.422593
G1 X124.217 Y106.063 E.02798
;WIDTH:0.428855
G1 X124.655 Y106.833 E.02844
G1 X125.043 Y107.629 E.02842
G1 X125.399 Y108.507 E.03041
;WIDTH:0.420253
G1 X125.682 Y109.383 E.02886
;WIDTH:0.420005
G1 X125.901 Y110.279 E.02894
;WIDTH:0.424466
G1 X126.097 Y111.453 E.03775
G1 X126.172 Y112.342 E.0283
;WIDTH:0.424389
G1 X126.186 Y113.228 E.02811
;WIDTH:0.424024
G1 X126.145 Y113.931 E.02233
;WIDTH:0.415488
G1 X126.05 Y114.853 E.02869
;WIDTH:0.422852
G1 X125.873 Y115.867 E.03253
G1 X125.665 Y116.643 E.02538
;WIDTH:0.414296
G1 X125.379 Y117.523 E.02858
;WIDTH:0.421333
G1 X125.039 Y118.387 E.0292
;WIDTH:0.425021
G1 X124.435 Y119.57 E.04221
G1 X123.969 Y120.32 E.02805
G1 X123.649 Y120.762 E.01736
;WIDTH:0.429626
G1 X123.173 Y121.388 E.02526
G1 X122.784 Y121.827 E.01889
;WIDTH:0.418977
G1 X122.149 Y122.496 E.02881
;WIDTH:0.420548
G1 X121.576 Y123.016 E.02431
G1 X120.767 Y123.651 E.03229
;WIDTH:0.42548
G1 X120.582 Y123.79 E.00736
G1 X119.58 Y124.425 E.03775
;WIDTH:0.418108
G1 X118.761 Y124.859 E.02889
;WIDTH:0.42957
G1 X118.27 Y125.086 E.01741
G1 X117.514 Y125.38 E.02607
;WIDTH:0.429299
G1 X117.024 Y125.556 E.01673
G1 X116.174 Y125.802 E.02843
;WIDTH:0.424117
G1 X115.309 Y125.984 E.02802
G1 X113.902 Y126.156 E.04491
;WIDTH:0.420103
G1 X112.983 Y126.186 E.02884
;WIDTH:0.419675
G1 X112.064 Y126.152 E.02881
;WIDTH:0.419285
G1 X111.15 Y126.055 E.02875
;WIDTH:0.420968
G1 X110.39 Y125.925 E.02424
G1 X109.352 Y125.669 E.03363
;WIDTH:0.418381
G1 X108.476 Y125.379 E.0288
;WIDTH:0.424026
G1 X107.514 Y124.992 E.03286
G1 X106.391 Y124.401 E.0402
;WIDTH:0.428533
G1 X105.587 Y123.903 E.03032
;WIDTH:0.429028
G1 X104.875 Y123.383 E.02832
G1 X104.161 Y122.786 E.02987
;WIDTH:0.420289
G1 X103.621 Y122.254 E.02378
;WIDTH:0.426934
G1 X103.25 Y121.876 E.01692
G1 X102.599 Y121.1 E.03234
;WIDTH:0.424515
G1 X101.902 Y120.121 E.03813
G1 X101.583 Y119.577 E.02002
;WIDTH:0.418693
G1 X101.141 Y118.759 E.02905
;WIDTH:0.429967
G1 X100.871 Y118.167 E.02093
G1 X100.549 Y117.342 E.02851
;WIDTH:0.424957
G1 X100.205 Y116.176 E.0386
;WIDTH:0.418002
G1 X100.044 Y115.42 E.02413
;WIDTH:0.419885
G1 X99.889 Y114.403 E.03222
;WIDTH:0.421645
G1 X99.839 Y113.607 E.02513
;WIDTH:0.421226
G1 X99.812 Y112.98 E.01973
G1 X99.847 Y112.061 E.02893
;WIDTH:0.420694
G1 X99.945 Y111.148 E.02887
;WIDTH:0.422612
G1 X100.079 Y110.362 E.02515
G1 X100.326 Y109.387 E.03175
;WIDTH:0.426856
G1 X100.414 Y109.073 E.01043
G1 X100.771 Y108.086 E.0335
;WIDTH:0.424085
G1 X100.871 Y107.826 E.00885
G1 X101.167 Y107.207 E.02174
;WIDTH:0.429909
G1 X101.461 Y106.624 E.02099
G1 X101.911 Y105.865 E.0284
;WIDTH:0.42475
G1 X102.595 Y104.905 E.03744
;WIDTH:0.422824
G1 X103.216 Y104.175 E.03026
;WIDTH:0.417652
G1 X103.811 Y103.551 E.02685
G1 E-3.5 F3600
;WIPE_START
G1 F7200
G1 X104.422 Y102.989 E-.39466
G1 X104.884 Y102.608 E-.28429
G1 X105.6 Y102.086 E-.42092
G1 X106.031 Y101.817 E-.2413
G1 X106.183 Y101.728 E-.08382
;WIPE_END
G1 E-.075 F3600
G1 X102.133 Y106.22 F9000
G1 E5 F2400
;WIDTH:0.42475
G1 F1200
G1 X102.901 Y105.122 E.04257
;WIDTH:0.418423
G1 X103.479 Y104.436 E.02801
;WIDTH:0.424985
G1 X103.83 Y104.064 E.01622
G1 X104.454 Y103.463 E.02753
;WIDTH:0.426831
G1 X105.116 Y102.914 E.02747
G1 X105.806 Y102.408 E.02731
;WIDTH:0.425086
G1 X106.906 Y101.734 E.04099
;WIDTH:0.422548
G1 X107.786 Y101.302 E.03093
;WIDTH:0.418177
G1 X108.614 Y100.966 E.02789
;WIDTH:0.418386
G1 X109.464 Y100.689 E.02792
G1 X110.332 Y100.475 E.02791
;WIDTH:0.424311
G1 X110.969 Y100.356 E.02054
G1 X112.101 Y100.223 E.03616
;WIDTH:0.41784
G1 X112.847 Y100.196 E.02326
;WIDTH:0.426215
G1 X113.535 Y100.208 E.02195
G1 X114.394 Y100.271 E.02746
;WIDTH:0.425056
G1 X115.658 Y100.468 E.04064
;WIDTH:0.421661
G1 X116.541 Y100.689 E.02867
;WIDTH:0.422863
G1 X117.739 Y101.1 E.04002
;WIDTH:0.429725
G1 X119.006 Y101.686 E.04488
;WIDTH:0.418197
G1 X119.783 Y102.134 E.02799
G1 X120.523 Y102.635 E.02789
;WIDTH:0.424139
G1 X121.055 Y103.044 E.02126
;WIDTH:0.424481
G1 X121.709 Y103.611 E.02747
;WIDTH:0.429876
G1 X122.312 Y104.22 E.02756
G1 X122.807 Y104.759 E.02356
;WIDTH:0.419949
G1 X123.36 Y105.465 E.02812
;WIDTH:0.42041
G1 X123.861 Y106.206 E.02808
;WIDTH:0.428812
G1 X124.313 Y107.011 E.02962
G1 X124.686 Y107.777 E.02735
G1 X125.021 Y108.574 E.02772
;WIDTH:0.422516
G1 X125.293 Y109.397 E.02735
;WIDTH:0.42297
G1 X125.505 Y110.227 E.02708
G1 X125.683 Y111.211 E.0316
;WIDTH:0.418268
G1 X125.778 Y112.1 E.02791
;WIDTH:0.418578
G1 X125.81 Y112.993 E.02792
G1 X125.777 Y113.887 E.02792
;WIDTH:0.424502
G1 X125.718 Y114.505 E.01971
G1 X125.531 Y115.657 E.03702
;WIDTH:0.418359
G1 X125.313 Y116.524 E.02791
;WIDTH:0.424952
G1 X125.159 Y117.019 E.01649
G1 X124.706 Y118.205 E.0403
;WIDTH:0.420625
G1 X124.312 Y119.007 E.02808
;WIDTH:0.417801
G1 X123.867 Y119.782 E.02786
G1 X123.365 Y120.522 E.02788
;WIDTH:0.429626
G1 X122.524 Y121.562 E.043
;WIDTH:0.423558
G1 X122.014 Y122.099 E.02345
G1 X121.388 Y122.681 E.02705
;WIDTH:0.422769
G1 X121.343 Y122.72 E.00188
;WIDTH:0.420548
G1 X120.536 Y123.358 E.03229
;WIDTH:0.427067
G1 X119.644 Y123.944 E.03409
G1 X118.899 Y124.366 E.02736
;WIDTH:0.42957
G1 X118.126 Y124.727 E.02743
G1 X117.39 Y125.031 E.02559
;WIDTH:0.429299
G1 X116.11 Y125.427 E.04307
;WIDTH:0.421107
G1 X115.377 Y125.586 E.02356
;WIDTH:0.420297
G1 X114.348 Y125.736 E.03264
;WIDTH:0.422886
G1 X113.103 Y125.808 E.03938
;WIDTH:0.423317
G1 X112.244 Y125.785 E.02719
;WIDTH:0.423704
G1 X111.387 Y125.705 E.02724
G1 X110.547 Y125.571 E.02696
;WIDTH:0.425194
G1 X109.7 Y125.372 E.02765
G1 X108.881 Y125.125 E.02719
;WIDTH:0.42455
G1 X107.797 Y124.704 E.0369
;WIDTH:0.428073
G1 X106.921 Y124.264 E.03141
;WIDTH:0.428533
G1 X105.806 Y123.586 E.04184
;WIDTH:0.429028
G1 X105.12 Y123.085 E.02726
G1 X104.446 Y122.535 E.02794
;WIDTH:0.421846
G1 X103.898 Y122.006 E.024
;WIDTH:0.426934
G1 X103.194 Y121.24 E.03321
;WIDTH:0.417949
G1 X102.387 Y120.167 E.04186
;WIDTH:0.41545
G1 X101.914 Y119.409 E.02769
;WIDTH:0.424008
G1 X101.582 Y118.798 E.02202
;WIDTH:0.429967
G1 X100.967 Y117.39 E.04945
;WIDTH:0.427449
G1 X100.658 Y116.395 E.03334
G1 X100.456 Y115.574 E.027
;WIDTH:0.423959
G1 X100.414 Y115.364 E.00681
;WIDTH:0.419885
G1 X100.262 Y114.347 E.03222
G1 X100.21 Y113.601 E.02343
;WIDTH:0.421002
G1 X100.19 Y113.005 E.01876
;WIDTH:0.421787
G1 X100.22 Y112.134 E.02745
;WIDTH:0.422313
G1 X100.308 Y111.278 E.02714
G1 X100.441 Y110.488 E.02526
;WIDTH:0.422612
G1 X100.687 Y109.477 E.03285
;WIDTH:0.426856
G1 X101.122 Y108.211 E.04275
;WIDTH:0.416115
G1 X101.488 Y107.392 E.02784
;WIDTH:0.429909
G1 X102.103 Y106.273 E.04111
G1 E-3.5 F3600
;WIPE_START
G1 F7200
G1 X102.901 Y105.122 E-.66524
G1 X103.479 Y104.436 E-.42607
G1 X103.83 Y104.064 E-.24253
G1 X103.968 Y103.931 E-.09116
;WIPE_END
G1 E-.075 F3600
G1 X104.751 Y106.207 F9000
G1 E5 F2400
;WIDTH:0.424423
G1 F1200
G1 X105.142 Y105.773 E.01855
;WIDTH:0.429759
G1 X105.56 Y105.333 E.01951
G1 X106.04 Y104.905 E.02068
G1 X106.459 Y104.552 E.01763
G1 X107.212 Y104.018 E.0297
;WIDTH:0.423555
G1 X107.778 Y103.675 E.02093
;WIDTH:0.422593
G1 X108.485 Y103.312 E.0251
;WIDTH:0.42163
G1 X109.601 Y102.874 E.03777
;WIDTH:0.424188
G1 X110.099 Y102.716 E.01655
;WIDTH:0.424833
G1 X110.74 Y102.555 E.02099
G1 X111.242 Y102.469 E.01617
;WIDTH:0.416603
G1 X112.088 Y102.358 E.02652
;WIDTH:0.427581
G1 X113.244 Y102.319 E.03699
G1 X114.173 Y102.385 E.02979
;WIDTH:0.415648
G1 X115.396 Y102.593 E.03847
;WIDTH:0.422297
G1 X116.238 Y102.814 E.02746
G1 X116.991 Y103.084 E.02523
;WIDTH:0.42128
G1 X117.757 Y103.429 E.02645
;WIDTH:0.429543
G1 X118.407 Y103.784 E.02378
G1 X119.077 Y104.21 E.02553
;WIDTH:0.427598
G1 X119.846 Y104.799 E.03098
;WIDTH:0.417374
G1 X120.75 Y105.649 E.03866
;WIDTH:0.423311
G1 X121.39 Y106.378 E.03067
G1 X121.791 Y106.939 E.0218
;WIDTH:0.416461
G1 X122.243 Y107.644 E.02602
;WIDTH:0.418587
G1 X122.634 Y108.378 E.02599
G1 X122.959 Y109.148 E.02611
;WIDTH:0.419572
G1 X123.241 Y109.947 E.02653
;WIDTH:0.423708
G1 X123.526 Y111.153 E.03922
;WIDTH:0.41952
G1 X123.638 Y111.985 E.02631
;WIDTH:0.429958
G1 X123.678 Y112.61 E.02014
G1 X123.681 Y113.404 E.02556
;WIDTH:0.423926
G1 X123.621 Y114.197 E.02517
;WIDTH:0.423678
G1 X123.511 Y114.878 E.02185
;WIDTH:0.424878
G1 X123.421 Y115.375 E.01603
;WIDTH:0.429391
G1 X123.215 Y116.138 E.02542
G1 X122.954 Y116.896 E.02577
;WIDTH:0.428433
G1 X122.457 Y117.975 E.03807
G1 X122.006 Y118.753 E.02881
;WIDTH:0.429813
G1 X121.617 Y119.318 E.02208
G1 X121.126 Y119.942 E.02556
;WIDTH:0.42442
G1 X120.717 Y120.379 E.01897
;WIDTH:0.429793
G1 X120.298 Y120.804 E.0192
G1 X119.809 Y121.225 E.02076
;WIDTH:0.418024
G1 X119.149 Y121.738 E.02608
G1 X118.444 Y122.188 E.02608
;WIDTH:0.422095
G1 X117.693 Y122.604 E.02706
G1 X116.95 Y122.932 E.0256
;WIDTH:0.421058
G1 X116.152 Y123.21 E.02657
;WIDTH:0.41936
G1 X115.003 Y123.496 E.03708
;WIDTH:0.420895
G1 X114.135 Y123.623 E.02756
;WIDTH:0.425904
G1 X113.089 Y123.686 E.03335
G1 X111.899 Y123.63 E.03793
;WIDTH:0.423344
G1 X111.225 Y123.524 E.0216
;WIDTH:0.423031
G1 X110.594 Y123.412 E.02026
;WIDTH:0.42944
G1 X109.958 Y123.243 E.02113
G1 X109.198 Y122.989 E.02576
;WIDTH:0.421488
G1 X108.106 Y122.493 E.03776
;WIDTH:0.424217
G1 X107.652 Y122.251 E.01632
;WIDTH:0.424922
G1 X107.089 Y121.903 E.021
G1 X106.444 Y121.439 E.02525
;WIDTH:0.424688
G1 X105.835 Y120.929 E.02523
;WIDTH:0.4244
G1 X105.265 Y120.375 E.0252
;WIDTH:0.424002
G1 X104.739 Y119.779 E.02518
;WIDTH:0.423768
G1 X104.327 Y119.225 E.02185
;WIDTH:0.42952
G1 X104.036 Y118.813 E.01623
G1 X103.445 Y117.779 E.03828
;WIDTH:0.429201
G1 X103.066 Y116.937 E.02966
;WIDTH:0.422466
G1 X102.825 Y116.264 E.02257
;WIDTH:0.423489
G1 X102.515 Y115.049 E.03968
;WIDTH:0.427215
G1 X102.36 Y113.981 E.03447
G1 X102.321 Y112.977 E.03211
;WIDTH:0.424171
G1 X102.376 Y111.865 E.03528
G1 X102.464 Y111.214 E.02084
;WIDTH:0.423945
G1 X102.704 Y110.147 E.03464
;WIDTH:0.42207
G1 X102.979 Y109.316 E.02762
;WIDTH:0.41396
G1 X103.303 Y108.533 E.02612
;WIDTH:0.429354
G1 X103.639 Y107.85 E.02447
G1 X104.045 Y107.171 E.02541
;WIDTH:0.427703
G1 X104.715 Y106.256 E.03631
G1 X104.873 Y106.661 F9000
